; HEADER_BLOCK_START
; generated by OrcaSlicer 2.3.1 on 2026-01-22 at 18:36:03
; total layer number: 125
; filament_density: 1.27
; filament_diameter: 1.75
; max_z_height: 25.00
; HEADER_BLOCK_END

; external perimeters extrusion width = 0.45mm
; perimeters extrusion width = 0.45mm
; infill extrusion width = 0.45mm
; solid infill extrusion width = 0.45mm
; top infill extrusion width = 0.40mm
; first layer extrusion width = 0.42mm

; EXECUTABLE_BLOCK_START
M73 P0 R78
M201 X500 Y500 Z100 E5000
M203 X500 Y500 Z10 E60
M204 P500 R1000 T500
M205 X8.00 Y8.00 Z0.40 E5.00 ; sets the jerk limits, mm/sec
;TYPE:Custom
G90 ; use absolute coordinates
M83 ; extruder relative mode
M140 S55 ; set final bed temp
M104 S150 ; set temporary nozzle temp to prevent oozing during homing
G4 S10 ; allow partial nozzle warmup
G28 ; home all axis
G1 Z50 F240
G1 X2 Y10 F3000
M104 S220 ; set final nozzle temp
M190 S55 ; wait for bed temp to stabilize
M109 S220 ; wait for nozzle temp to stabilize
G1 Z0.28 F240
G92 E0
G1 Y140 E10 F1500 ; prime the nozzle
G1 X2.3 F5000
G92 E0
G1 Y10 E10 F1200 ; prime the nozzle
G92 E0
G90
G21
M83 ; use relative distances for extrusion
; Filament gcode
M106 S0
;LAYER_CHANGE
;Z:0.2
;HEIGHT:0.2
;BEFORE_LAYER_CHANGE
;0.2
G92 E0

G1 E-4 F3600
M73 P0 R77
;_SET_FAN_SPEED_CHANGING_LAYER
G1 Z.6 F9000
G1 X93.938 Y94.161
G1 Z.6
G1 Z.2
G1 E4 F2400
;TYPE:Skirt
;WIDTH:0.42
G1 F3000
G1 X94.918 Y93.215 E.04185
G1 X96.233 Y92.12 E.05257
G1 X97.983 Y90.9 E.06558
G1 X99.412 Y90.072 E.05074
G1 X100.95 Y89.328 E.0525
G1 X102.483 Y88.723 E.05065
G1 X104.056 Y88.231 E.05065
G1 X106.14 Y87.767 E.0656
G1 X107.773 Y87.545 E.05065
G1 X109.481 Y87.441 E.05257
G1 X129.999 Y87.434 E.63047
G1 X131.363 Y87.827 E.04359
G1 X132.309 Y88.883 E.04359
G1 X132.565 Y90 E.0352
G1 X132.565 Y130 E1.22909
G1 X132.173 Y131.363 E.04359
G1 X131.116 Y132.31 E.04359
G1 X129.999 Y132.566 E.0352
G1 X109.968 Y132.565 E.61551
G1 X107.227 Y132.395 E.08438
G1 X105.123 Y132.032 E.0656
G1 X103.528 Y131.618 E.05065
G1 X101.909 Y131.065 E.05256
G1 X100.393 Y130.419 E.05065
G1 X98.506 Y129.419 E.0656
G1 X97.119 Y128.529 E.05065
G1 X95.801 Y127.539 E.05065
G1 X94.513 Y126.413 E.05256
G1 X92.991 Y124.829 E.06752
G1 X91.629 Y123.104 E.06752
G1 X90.441 Y121.256 E.06752
G1 X89.243 Y118.854 E.08246
G1 X88.481 Y116.794 E.06752
G1 X87.922 Y114.668 E.06752
G1 X87.573 Y112.499 E.06752
G1 X87.436 Y110.306 E.06752
G1 X87.513 Y108.11 E.06752
G1 X87.804 Y105.932 E.06752
G1 X88.304 Y103.793 E.06752
G1 X89.011 Y101.712 E.06752
G1 X89.917 Y99.71 E.06752
G1 X91.013 Y97.805 E.06752
G1 X92.289 Y96.017 E.06752
G1 X93.733 Y94.36 E.06752
G1 X93.91 Y94.189 E.00757
G1 X94.168 Y94.464 F9000
G1 F3000
G1 X95.579 Y93.136 E.05953
G1 X96.848 Y92.129 E.0498
G1 X98.233 Y91.188 E.05144
G1 X99.64 Y90.379 E.04986
G1 X101.546 Y89.485 E.06469
G1 X103.066 Y88.923 E.0498
G1 X104.623 Y88.473 E.0498
G1 X106.261 Y88.129 E.05144
G1 X107.868 Y87.914 E.0498
G1 X109.486 Y87.818 E.0498
G1 X129.999 Y87.811 E.63033
G1 X131.247 Y88.202 E.04019
G1 X132.05 Y89.235 E.04019
G1 X132.188 Y90 E.02388
G1 X132.188 Y130 E1.22909
G1 X131.797 Y131.248 E.04019
G1 X130.764 Y132.051 E.04019
G1 X129.999 Y132.189 E.02388
G1 X109.973 Y132.188 E.61536
G1 X108.406 Y132.131 E.04816
G1 X106.797 Y131.956 E.04974
G1 X105.201 Y131.663 E.04986
G1 X103.581 Y131.24 E.05144
G1 X101.595 Y130.535 E.06475
G1 X100.119 Y129.867 E.0498
G1 X98.649 Y129.066 E.05144
G1 X97.288 Y128.186 E.0498
G1 X95.62 Y126.898 E.06475
G1 X94.424 Y125.804 E.0498
G1 X92.961 Y124.214 E.06639
G1 X91.66 Y122.489 E.06639
G1 X90.532 Y120.646 E.06639
G1 X89.589 Y118.703 E.06639
G1 X88.823 Y116.625 E.06802
G1 X88.279 Y114.534 E.06639
G1 X87.941 Y112.4 E.06639
G1 X87.812 Y110.244 E.06639
G1 X87.894 Y108.084 E.06639
G1 X88.185 Y105.944 E.06639
G1 X88.683 Y103.841 E.06639
G1 X89.383 Y101.797 E.06639
G1 X90.278 Y99.831 E.06639
G1 X91.361 Y97.961 E.06639
G1 X92.62 Y96.205 E.06639
G1 X94.044 Y94.58 E.06639
G1 X94.139 Y94.491 E.004
; printing object Part Studio 1 - Part 1(4).step id:3152 copy 0
G1 E-4 F3600
G1 Z.6 F9000
G1 X128.537 Y128.537 Z.6
G1 Z.2
G1 E4 F2400
;TYPE:Inner wall
;WIDTH:0.419999
G1 F900
G1 X109.556 Y128.531 E.58321
G1 X108.196 Y128.449 E.04186
M73 P1 R77
G1 X106.855 Y128.268 E.0416
G1 X105.53 Y127.989 E.0416
G1 X104.228 Y127.615 E.0416
G1 X102.958 Y127.147 E.0416
G1 X101.725 Y126.587 E.0416
G1 X100.536 Y125.939 E.0416
G1 X99.391 Y125.201 E.04186
G1 X98.67 Y124.672 E.02749
G1 X97.976 Y124.108 E.02748
G1 X96.966 Y123.181 E.04211
G1 X96.345 Y122.537 E.02748
G1 X95.751 Y121.858 E.02774
G1 X95.191 Y121.15 E.02774
G1 X94.665 Y120.416 E.02774
G1 X94.176 Y119.657 E.02774
G1 X93.725 Y118.875 E.02774
G1 X93.312 Y118.072 E.02774
G1 X92.939 Y117.25 E.02774
G1 X92.606 Y116.411 E.02774
G1 X92.315 Y115.556 E.02774
G1 X92.065 Y114.689 E.02774
G1 X91.86 Y113.818 E.02749
G1 X91.627 Y112.467 E.04211
G1 X91.53 Y111.578 E.02749
G1 X91.475 Y110.677 E.02774
G1 X91.464 Y109.774 E.02774
G1 X91.497 Y108.872 E.02774
G1 X91.574 Y107.973 E.02774
G1 X91.694 Y107.078 E.02774
G1 X91.858 Y106.19 E.02774
G1 X92.065 Y105.311 E.02774
G1 X92.315 Y104.444 E.02774
G1 X92.606 Y103.589 E.02774
G1 X92.939 Y102.75 E.02774
G1 X93.312 Y101.928 E.02774
G1 X93.725 Y101.125 E.02774
G1 X94.176 Y100.343 E.02774
G1 X94.665 Y99.584 E.02774
G1 X95.19 Y98.85 E.02774
G1 X95.751 Y98.142 E.02774
G1 X96.345 Y97.463 E.02774
G1 X96.966 Y96.819 E.02748
G1 X97.969 Y95.897 E.04186
G1 X99.031 Y95.057 E.0416
G1 X100.151 Y94.296 E.0416
G1 X101.332 Y93.614 E.04192
G1 X102.131 Y93.216 E.02743
G1 X102.95 Y92.856 E.02749
G1 X104.228 Y92.385 E.04186
G1 X105.529 Y92.011 E.0416
G1 X106.855 Y91.732 E.04161
G1 X108.196 Y91.551 E.0416
G1 X109.556 Y91.469 E.04186
G1 X128.537 Y91.463 E.58321
G1 X128.537 Y128.497 E1.13794
G1 X128.914 Y128.914 F9000
G1 F900
G1 X109.545 Y128.908 E.59515
G1 X108.16 Y128.824 E.04264
G1 X106.791 Y128.64 E.04245
G1 X105.439 Y128.356 E.04245
G1 X104.111 Y127.974 E.04245
G1 X102.815 Y127.496 E.04245
G1 X101.557 Y126.925 E.04245
G1 X100.344 Y126.263 E.04245
G1 X99.177 Y125.512 E.04263
G1 X98.439 Y124.97 E.02812
G1 X97.729 Y124.394 E.02812
G1 X96.702 Y123.451 E.04282
G1 X96.067 Y122.792 E.02812
G1 X95.461 Y122.099 E.0283
G1 X94.889 Y121.377 E.0283
G1 X94.353 Y120.627 E.02831
G1 X93.854 Y119.853 E.0283
G1 X93.394 Y119.055 E.0283
G1 X92.973 Y118.236 E.0283
G1 X92.592 Y117.397 E.0283
G1 X92.252 Y116.541 E.0283
G1 X91.955 Y115.669 E.02831
G1 X91.7 Y114.784 E.0283
G1 X91.49 Y113.893 E.02812
G1 X91.254 Y112.52 E.04282
G1 X91.154 Y111.61 E.02812
G1 X91.098 Y110.691 E.0283
G1 X91.087 Y109.77 E.02831
G1 X91.12 Y108.849 E.0283
G1 X91.199 Y107.931 E.02831
G1 X91.322 Y107.018 E.02831
G1 X91.489 Y106.113 E.0283
G1 X91.7 Y105.216 E.02831
G1 X91.955 Y104.331 E.0283
G1 X92.252 Y103.459 E.02831
G1 X92.592 Y102.603 E.0283
G1 X92.973 Y101.764 E.0283
G1 X93.394 Y100.945 E.0283
G1 X93.854 Y100.147 E.02831
G1 X94.353 Y99.373 E.0283
G1 X94.889 Y98.623 E.0283
G1 X95.461 Y97.901 E.0283
G1 X96.067 Y97.208 E.02831
G1 X96.703 Y96.549 E.02812
G1 X97.725 Y95.61 E.04263
G1 X98.808 Y94.753 E.04245
G1 X99.95 Y93.977 E.04245
G1 X101.154 Y93.282 E.0427
G1 X101.971 Y92.874 E.02806
G1 X102.809 Y92.506 E.02812
G1 X104.111 Y92.026 E.04264
G1 X105.438 Y91.644 E.04245
G1 X106.791 Y91.36 E.04245
G1 X108.16 Y91.176 E.04245
G1 X109.545 Y91.092 E.04264
G1 X128.914 Y91.086 E.59515
G1 X128.914 Y128.874 E1.16112
G1 X129.291 Y129.291 F9000
G1 F900
G1 X109.533 Y129.286 E.60709
G1 X108.123 Y129.2 E.04341
G1 X106.727 Y129.011 E.0433
G1 X105.348 Y128.722 E.0433
G1 X103.993 Y128.332 E.0433
G1 X102.671 Y127.845 E.0433
G1 X101.388 Y127.262 E.0433
G1 X100.151 Y126.588 E.0433
G1 X98.963 Y125.823 E.04341
G1 X98.209 Y125.269 E.02876
G1 X97.482 Y124.679 E.02875
G1 X96.439 Y123.721 E.04353
G1 X95.789 Y123.047 E.02875
G1 X95.171 Y122.34 E.02887
G1 X94.588 Y121.604 E.02887
G1 X94.041 Y120.839 E.02887
G1 X93.532 Y120.05 E.02887
G1 X93.063 Y119.236 E.02887
G1 X92.633 Y118.4 E.02887
G1 X92.245 Y117.545 E.02887
G1 X91.898 Y116.672 E.02887
G1 X91.595 Y115.782 E.02887
G1 X91.335 Y114.879 E.02887
G1 X91.121 Y113.969 E.02876
G1 X90.88 Y112.573 E.04352
G1 X90.778 Y111.642 E.02876
G1 X90.721 Y110.705 E.02887
G1 X90.709 Y109.765 E.02887
G1 X90.744 Y108.826 E.02887
G1 X90.824 Y107.89 E.02887
G1 X90.949 Y106.959 E.02887
G1 X91.12 Y106.035 E.02887
G1 X91.335 Y105.121 E.02887
G1 X91.595 Y104.218 E.02887
G1 X91.898 Y103.328 E.02887
G1 X92.245 Y102.455 E.02887
G1 X92.633 Y101.6 E.02887
G1 X93.063 Y100.764 E.02887
G1 X93.532 Y99.95 E.02887
G1 X94.041 Y99.161 E.02887
G1 X94.588 Y98.397 E.02887
G1 X95.171 Y97.66 E.02887
G1 X95.79 Y96.953 E.02887
G1 X96.439 Y96.279 E.02875
G1 X97.48 Y95.323 E.04341
G1 X98.584 Y94.449 E.0433
G1 X99.75 Y93.657 E.0433
G1 X100.975 Y92.95 E.04347
G1 X101.811 Y92.533 E.02869
G1 X102.668 Y92.156 E.02876
G1 X103.993 Y91.668 E.04341
G1 X105.347 Y91.278 E.0433
G1 X106.727 Y90.989 E.0433
G1 X108.123 Y90.8 E.0433
G1 X109.533 Y90.714 E.04341
G1 X129.291 Y90.709 E.60709
G1 X129.291 Y129.251 E1.1843
G1 X129.689 Y129.69 F9000
;TYPE:Outer wall
G1 F900
G1 X109.521 Y129.684 E.61971
G1 X108.084 Y129.597 E.04423
G1 X106.659 Y129.404 E.04419
G1 X105.251 Y129.109 E.04419
G1 X103.869 Y128.711 E.04419
G1 X102.52 Y128.214 E.04419
G1 X101.21 Y127.619 E.04419
G1 X99.947 Y126.931 E.04419
G1 X98.737 Y126.151 E.04423
G1 X97.965 Y125.584 E.02943
G1 X97.222 Y124.981 E.02943
G1 X96.161 Y124.006 E.04427
G1 X95.496 Y123.317 E.02943
G1 X94.865 Y122.595 E.02947
G1 X94.269 Y121.843 E.02947
G1 X93.711 Y121.063 E.02947
G1 X93.192 Y120.257 E.02947
G1 X92.713 Y119.427 E.02946
G1 X92.274 Y118.574 E.02947
G1 X91.878 Y117.701 E.02947
G1 X91.524 Y116.809 E.02946
G1 X91.215 Y115.902 E.02947
G1 X90.95 Y114.98 E.02946
G1 X90.73 Y114.048 E.02943
G1 X90.486 Y112.628 E.04427
G1 X90.381 Y111.676 E.02943
G1 X90.322 Y110.719 E.02946
G1 X90.311 Y109.76 E.02947
G1 X90.346 Y108.802 E.02947
G1 X90.427 Y107.846 E.02947
G1 X90.556 Y106.896 E.02947
G1 X90.73 Y105.953 E.02946
G1 X90.95 Y105.02 E.02947
G1 X91.215 Y104.098 E.02946
G1 X91.524 Y103.191 E.02947
G1 X91.878 Y102.299 E.02946
G1 X92.274 Y101.426 E.02947
G1 X92.713 Y100.573 E.02947
G1 X93.192 Y99.743 E.02947
G1 X93.711 Y98.937 E.02947
G1 X94.269 Y98.157 E.02946
G1 X94.865 Y97.405 E.02947
G1 X95.496 Y96.683 E.02947
G1 X96.161 Y95.994 E.02943
G1 X97.221 Y95.02 E.04423
G1 X98.348 Y94.127 E.04419
G1 X99.538 Y93.319 E.04419
G1 X100.787 Y92.598 E.04429
G1 X101.642 Y92.172 E.02937
G1 X102.518 Y91.787 E.02943
G1 X103.869 Y91.289 E.04423
G1 X105.251 Y90.891 E.04419
G1 X106.659 Y90.596 E.04419
G1 X108.084 Y90.403 E.04419
G1 X109.521 Y90.316 E.04423
G1 X129.689 Y90.31 E.61971
G1 X129.689 Y129.65 E1.2088
G1 E-4 F3600
G1 Z.6 F9000
G1 X106.257 Y108.755 Z.6
G1 Z.2
G1 E4 F2400
;TYPE:Inner wall
G1 F900
G1 X106.494 Y108.161 E.01965
G1 X106.766 Y107.717 E.01597
G1 X107.324 Y107.083 E.02596
G1 X107.786 Y106.715 E.01817
G1 X108.261 Y106.441 E.01684
G1 X108.846 Y106.221 E.01921
G1 X109.253 Y106.113 E.01293
G1 X109.796 Y106.047 E.01679
G1 X110.385 Y106.058 E.01812
G1 X111.143 Y106.211 E.02375
G1 X111.899 Y106.527 E.02517
G1 X112.397 Y106.847 E.01819
G1 X112.848 Y107.264 E.01886
G1 X113.136 Y107.587 E.0133
G1 X113.439 Y108.041 E.01677
G1 X113.768 Y108.789 E.02511
G1 X113.936 Y109.591 E.02517
G1 X113.956 Y110.182 E.01819
G1 X113.842 Y110.948 E.02377
G1 X113.566 Y111.717 E.02511
G1 X113.137 Y112.413 E.02514
G1 X112.573 Y113.007 E.02517
G1 X112.097 Y113.36 E.01819
G1 X111.402 Y113.701 E.02377
G1 X110.612 Y113.91 E.02514
G1 X110.022 Y113.961 E.01819
G1 X109.252 Y113.887 E.02377
G1 X108.47 Y113.651 E.02511
G1 X107.978 Y113.392 E.01707
G1 X107.553 Y113.114 E.01562
G1 X107.128 Y112.724 E.01769
G1 X106.63 Y112.076 E.02512
G1 X106.328 Y111.46 E.02108
G1 X106.191 Y111.079 E.01244
G1 X106.079 Y110.544 E.01679
G1 X106.051 Y109.862 E.021
G1 X106.079 Y109.456 E.01248
G1 X106.191 Y108.922 E.01679
G1 X106.243 Y108.792 E.00429
G1 X106.606 Y108.887 F9000
G1 F900
G1 X106.84 Y108.312 E.01906
G1 X107.119 Y107.867 E.01617
G1 X107.597 Y107.343 E.02179
G1 X108.011 Y107.018 E.01617
G1 X108.474 Y106.755 E.01634
G1 X108.968 Y106.578 E.01613
G1 X109.298 Y106.487 E.01054
G1 X109.841 Y106.421 E.01679
G1 X110.366 Y106.435 E.01613
G1 X111.059 Y106.578 E.02176
G1 X111.741 Y106.87 E.02278
G1 X112.183 Y107.158 E.01619
G1 X112.584 Y107.532 E.01687
G1 X112.822 Y107.795 E.01091
G1 X113.125 Y108.25 E.01677
G1 X113.417 Y108.929 E.02272
G1 X113.565 Y109.656 E.02278
G1 X113.579 Y110.182 E.01619
G1 X113.471 Y110.883 E.02178
G1 X113.216 Y111.577 E.02273
G1 X112.822 Y112.205 E.02276
G1 X112.308 Y112.739 E.02278
G1 X111.883 Y113.049 E.01619
G1 X111.245 Y113.358 E.02178
G1 X110.528 Y113.543 E.02275
G1 X110.002 Y113.584 E.01619
G1 X109.297 Y113.513 E.02178
G1 X108.591 Y113.294 E.02273
G1 X107.943 Y112.933 E.02278
G1 X107.383 Y112.447 E.02279
G1 X106.936 Y111.857 E.02273
G1 X106.673 Y111.309 E.01869
G1 X106.56 Y111.002 E.01005
G1 X106.448 Y110.467 E.01679
G1 X106.428 Y109.862 E.01861
G1 X106.448 Y109.534 E.01009
G1 X106.56 Y108.999 E.01679
G1 X106.591 Y108.924 E.00249
G1 X106.951 Y109.023 F9000
G1 F900
G1 X107.185 Y108.464 E.01862
G1 X107.461 Y108.037 E.01561
G1 X107.871 Y107.602 E.01837
G1 X108.274 Y107.295 E.01559
G1 X108.712 Y107.063 E.01523
G1 X109.23 Y106.888 E.01679
G1 X109.873 Y106.797 E.01996
G1 X110.395 Y106.816 E.01604
G1 X110.976 Y106.946 E.01828
G1 X111.584 Y107.213 E.02039
G1 X112.008 Y107.498 E.01572
G1 X112.434 Y107.914 E.01829
G1 X112.811 Y108.459 E.02035
G1 X113.067 Y109.069 E.02034
G1 X113.193 Y109.72 E.02039
G1 X113.2 Y110.231 E.0157
G1 X113.099 Y110.818 E.01829
G1 X112.865 Y111.437 E.02034
G1 X112.508 Y111.996 E.02037
G1 X112.044 Y112.47 E.02039
G1 X111.628 Y112.765 E.01568
G1 X111.087 Y113.016 E.01831
G1 X110.444 Y113.175 E.02036
G1 X109.942 Y113.208 E.01545
G1 X109.343 Y113.138 E.01854
G1 X108.712 Y112.937 E.02034
G1 X108.135 Y112.609 E.02039
G1 X107.638 Y112.169 E.0204
G1 X107.243 Y111.638 E.02035
G1 X107.018 Y111.157 E.0163
G1 X106.884 Y110.708 E.01439
G1 X106.805 Y110.273 E.01358
G1 X106.805 Y109.728 E.01677
G1 X106.929 Y109.076 E.02037
G1 X106.936 Y109.06 E.00055
G1 X107.312 Y109.191 F9000
;TYPE:Outer wall
G1 F900
G1 X107.319 Y109.158 E.00101
G1 X107.55 Y108.624 E.01787
G1 X107.844 Y108.21 E.01562
G1 X108.181 Y107.858 E.015
G1 X108.493 Y107.628 E.01189
G1 X108.841 Y107.441 E.01213
G1 X109.358 Y107.265 E.01679
G1 X109.921 Y107.193 E.01744
G1 X110.354 Y107.213 E.01332
G1 X110.887 Y107.335 E.01679
G1 X111.417 Y107.575 E.01787
G1 X111.764 Y107.814 E.01297
G1 X112.155 Y108.198 E.01681
G1 X112.479 Y108.679 E.01783
G1 X112.697 Y109.217 E.01782
G1 X112.801 Y109.789 E.01787
G1 X112.801 Y110.211 E.01297
G1 X112.707 Y110.75 E.0168
G1 X112.495 Y111.29 E.01782
G1 X112.177 Y111.775 E.01785
G1 X111.764 Y112.186 E.01787
G1 X111.417 Y112.425 E.01297
G1 X110.92 Y112.654 E.01679
G1 X110.355 Y112.787 E.01785
G1 X109.925 Y112.807 E.01324
G1 X109.389 Y112.742 E.01659
G1 X108.841 Y112.559 E.01776
G1 X108.338 Y112.266 E.01787
G1 X107.907 Y111.875 E.01787
G1 X107.567 Y111.406 E.01783
G1 X107.33 Y110.875 E.01785
G1 X107.207 Y110.308 E.01785
G1 X107.203 Y109.728 E.01782
G1 X107.304 Y109.23 E.01561
G1 E-4 F3600
G1 Z.6 F9000
G1 X127.661 Y91.576 Z.6
G1 Z.2
G1 E4 F2400
;TYPE:Bottom surface
;WIDTH:0.420243
G1 F2100
G1 X128.254 Y92.169 E.02578
G1 X128.254 Y92.703 E.01641
G1 X127.297 Y91.746 E.0416
G1 X126.764 Y91.746 E.0164
G1 X128.254 Y93.237 E.0648
G1 X128.254 Y93.77 E.01641
G1 X126.23 Y91.747 E.08799
G1 X125.697 Y91.747 E.0164
G1 X128.254 Y94.304 E.11119
G1 X128.254 Y94.837 E.01641
G1 X125.163 Y91.747 E.13439
G1 X124.63 Y91.747 E.0164
G1 X128.254 Y95.371 E.15758
G1 X128.254 Y95.905 E.01641
G1 X124.096 Y91.747 E.18078
G1 X123.563 Y91.747 E.0164
G1 X128.254 Y96.438 E.20397
G1 X128.254 Y96.972 E.01641
G1 X123.029 Y91.747 E.22717
G1 X122.496 Y91.748 E.0164
G1 X128.254 Y97.505 E.25037
G1 X128.254 Y98.039 E.01641
G1 X121.962 Y91.748 E.27356
G1 X121.429 Y91.748 E.0164
G1 X128.254 Y98.573 E.29676
G1 X128.254 Y99.106 E.01641
G1 X120.896 Y91.748 E.31996
G1 X120.362 Y91.748 E.0164
G1 X128.254 Y99.64 E.34315
G1 X128.254 Y100.174 E.01641
M73 P2 R77
G1 X119.829 Y91.748 E.36635
M73 P2 R76
G1 X119.295 Y91.749 E.0164
G1 X128.254 Y100.707 E.38955
