; Generated from wheel_centers.csv
G90 ; Absolute positioning
G21 ; Set units to mm
G92 X0 Y0 Z0 ; Set current position as zero
G1 X0.0 Y10.0 Z50.0 A0.0
G1 X0.0 Y10.0 Z50.0 A0.0
G1 X0.0 Y10.0 Z50.0 A0.0
G1 X0.0 Y10.0 Z50.0 A0.0
G1 X-0.9753370076168942 Y10.76791070773245 Z50.0 A6.557505627164984
G1 X-1.9357314394702911 Y11.405832188251235 Z50.0 A13.115011254329968
G1 X-2.866436236304631 Y11.91632131285329 Z50.0 A19.67251688149495
G1 X-3.75309281363957 Y12.303602344697659 Z50.0 A26.230022508659935
G1 X-4.581918937029303 Y12.573511666328091 Z50.0 A32.78752813582492
G1 X-5.339889056055382 Y12.733421413379023 Z50.0 A39.3450337629899
G1 X-6.014904737468371 Y12.792143013681683 Z50.0 A45.902539390154885
G1 X-6.595952967441615 Y12.759811893915295 Z50.0 A52.46004501731987
G1 X-7.073250251627293 Y12.647754862362092 Z50.0 A59.01755064448483
G1 X-7.4383706275339945 Y12.468341902999796 Z50.0 A65.57505627164984
G1 X-7.684355914244585 Y12.23482432013555 Z50.0 A72.13256189881484
G1 X-7.8058067569092024 Y11.961161351381838 Z50.0 A78.6900675259798
G1 X-7.517689247577918 Y13.068157653468884 Z45.85666666666667 A72.13256189881484
G1 X-7.105037294200661 Y14.13500856966646 Z41.71333333333334 A65.57505627164984
G1 X-6.573250251627293 Y15.147754862362092 Z37.57 A59.01755064448483
G1 X-5.929286300774948 Y16.093145227248627 Z33.42666666666667 A52.46004501731987
G1 X-5.181571404135038 Y16.95880968034835 Z29.28333333333333 A45.902539390154885
G1 X-4.339889056055382 Y17.733421413379023 Z25.14 A39.3450337629899
G1 X-3.415252270362636 Y18.406844999661423 Z20.996666666666666 A32.78752813582492
G1 X-2.4197594803062366 Y18.970269011364326 Z16.85333333333334 A26.230022508659935
G1 X-1.3664362363046312 Y19.41632131285329 Z12.71 A19.67251688149495
G1 X-0.2690647728036244 Y19.739165521584567 Z8.566666666666663 A13.115011254329968
G1 X0.8579963257164391 Y19.934577374399115 Z4.423333333333339 A6.557505627164984
G1 X2.0 Y20.0 Z0.28000000000000114 A0.0
G1 X0.8803552389669214 Y29.222836384646712 Z0.28 A6.428571428571429
G1 X-0.22520933956314382 Y38.3207076932468 Z0.28 A12.857142857142858
G1 X-1.3027906195516712 Y47.29597616022653 Z0.28 A19.285714285714285
G1 X-2.3388373911755815 Y56.15254582188133 Z0.28 A25.714285714285715
G1 X-3.3203207651533653 Y64.89581342085427 Z0.28 A32.142857142857146
G1 X-4.234898018587335 Y73.53260053896601 Z0.28 A38.57142857142857
G1 X-5.071067811865475 Y82.07106781186548 Z0.28 A45.0
G1 X-5.818314824680298 Y90.52061230430161 Z0.28 A51.42857142857143
G1 X-6.46724199228284 Y98.89174933658195 Z0.28 A57.857142857142854
G1 X-7.009688679024192 Y107.19598024831845 Z0.28 A64.28571428571429
G1 X-7.438833303083676 Y115.44564776240881 Z0.28 A70.71428571428571
G1 X-7.749279121818237 Y123.65378076813457 Z0.28 A77.14285714285714
G1 X-7.937122098932425 Y131.8339304753188 Z0.28 A83.57142857142857
G1 X-8.0 Y140.0 Z0.28 A90.0
G1 X-7.915693527503854 Y141.11964476103307 Z0.28 A83.57142857142857
G1 X-7.706421978961094 Y142.22520933956315 Z0.28 A77.14285714285714
G1 X-7.374547588797962 Y143.30279061955167 Z0.28 A70.71428571428571
G1 X-6.923974393309907 Y144.3388373911756 Z0.28 A64.28571428571429
G1 X-6.360099135139983 Y145.32032076515335 Z0.28 A57.857142857142854
G1 X-5.68974339610887 Y146.23489801858733 Z0.28 A51.42857142857143
G1 X-4.921067811865475 Y147.07106781186548 Z0.28 A45.0
G1 X-4.063469447158763 Y147.8183148246803 Z0.28 A38.57142857142857
G1 X-3.1274636222962227 Y148.46724199228285 Z0.28 A32.142857142857146
G1 X-2.1245516768898676 Y149.00968867902418 Z0.28 A25.714285714285715
G1 X-1.0670763338373854 Y149.43883330308367 Z0.28 A19.285714285714285
G1 X0.0319335175797133 Y149.74927912181823 Z0.28 A12.857142857142858
G1 X1.1589266675383498 Y149.93712209893243 Z0.28 A6.428571428571429
G1 X2.3 Y150.0 Z0.28 A0.0
G1 X3.4196447610330782 Y140.65140781321816 Z0.28 A-6.428571428571429
G1 X4.525209339563144 Y131.17785055038968 Z0.28 A-12.857142857142858
G1 X5.602790619551671 Y121.58169044594081 Z0.28 A-19.285714285714285
G1 X6.638837391175581 Y111.86683153616706 Z0.28 A-25.714285714285715
G1 X7.620320765153365 Y102.0386705637114 Z0.28 A-32.142857142857146
G1 X8.534898018587334 Y92.10402911039459 Z0.28 A-38.57142857142857
G1 X9.371067811865474 Y82.07106781186548 Z0.28 A-45.0
G1 X10.118314824680297 Y71.94918373287305 Z0.28 A-51.42857142857143
G1 X10.767241992282841 Y61.748892193724785 Z0.28 A-57.857142857142854
G1 X11.309688679024191 Y51.48169453403272 Z0.28 A-64.28571428571429
G1 X11.738833303083677 Y41.15993347669453 Z0.28 A-70.71428571428571
G1 X12.049279121818238 Y30.796637910991727 Z0.28 A-77.14285714285714
G1 X12.237122098932424 Y20.405359046747357 Z0.28 A-83.57142857142857
G1 X12.3 Y10.0 Z0.28 A-90.0
G1 X12.237122098932424 Y11.11964476103308 Z0.3028571428571429 A-83.57142857142857
G1 X12.049279121818238 Y12.225209339563143 Z0.32571428571428573 A-77.14285714285714
G1 X11.738833303083677 Y13.302790619551672 Z0.3485714285714286 A-70.71428571428571
G1 X11.309688679024191 Y14.33883739117558 Z0.37142857142857144 A-64.28571428571429
G1 X10.767241992282841 Y15.320320765153365 Z0.3942857142857143 A-57.857142857142854
G1 X10.118314824680297 Y16.234898018587337 Z0.41714285714285715 A-51.42857142857143
G1 X9.371067811865474 Y17.071067811865476 Z0.44 A-45.0
G1 X8.534898018587334 Y17.8183148246803 Z0.46285714285714286 A-38.57142857142857
G1 X7.620320765153365 Y18.46724199228284 Z0.48571428571428577 A-32.142857142857146
G1 X6.638837391175581 Y19.009688679024194 Z0.5085714285714286 A-25.714285714285715
G1 X5.602790619551671 Y19.438833303083676 Z0.5314285714285714 A-19.285714285714285
G1 X4.525209339563144 Y19.749279121818237 Z0.5542857142857143 A-12.857142857142858
G1 X3.4196447610330782 Y19.937122098932427 Z0.5771428571428572 A-6.428571428571429
G1 X2.3 Y20.0 Z0.6 A0.0
G1 X12.827468723473098 Y30.477039654359686 Z0.6 A5.32057384586058
G1 X23.362927893807186 Y40.868279886840526 Z0.6 A10.64114769172116
G1 X33.914299103630285 Y51.1748313063938 Z0.6 A15.961721537581713
G1 X44.48936683042619 Y61.39853429132613 Z0.6 A21.282295383442293
G1 X55.095711357153824 Y71.54194313063243 Z0.6 A26.602869229302872
G1 X65.74064345242499 Y81.60830401351109 Z0.6 A31.923443075163426
G1 X76.4311413731059 Y91.60152705672714 Z0.6 A37.244016921024006
G1 X87.17379073219531 Y101.52615261086592 Z0.6 A42.564590766884585
G1 X87.8858913731059 Y102.12165205672714 Z0.6 A37.244016921024006
G1 X88.650143452425 Y102.64855401351109 Z0.6 A31.923443075163426
G1 X89.45996135715383 Y103.10231813063244 Z0.6 A26.602869229302872
G1 X90.3083668304262 Y103.47903429132613 Z0.6 A21.282295383442293
G1 X91.18804910363029 Y103.77545630639379 Z0.6 A15.961721537581713
G1 X92.0914278938072 Y103.98902988684053 Z0.6 A10.64114769172116
G1 X93.0107187234731 Y104.11791465435968 Z0.6 A5.32057384586058
G1 X93.938 Y104.161 Z0.6 A0.0
G1 X93.938 Y104.161 Z0.5 A0.0
G1 X93.938 Y104.161 Z0.4 A0.0
G1 X93.938 Y104.161 Z0.3 A0.0
G1 X93.938 Y104.161 Z0.2 A0.0
G1 X95.01871111304776 Y103.99673570738534 Z0.2 A-5.49858163416029
G1 X96.09060394478705 Y103.74086629256635 Z0.2 A-10.99716326832058
G1 X97.14494136730465 Y103.39465824754762 Z0.2 A-16.495744902480848
G1 X98.17314781263481 Y102.9602094379666 Z0.2 A-21.994326536641136
G1 X99.16688819249782 Y102.44042979673297 Z0.2 A-27.492908170801428
G1 X100.11814460493837 Y101.83901454432782 Z0.2 A-32.991489804961695
G1 X101.01929012194275 Y101.16041018221219 Z0.2 A-38.490071439121984
G1 X101.86315897897849 Y100.40977357230334 Z0.2 A-43.98865307328227
G1 X102.05875475767819 Y100.26221927881613 Z0.2 A-42.937523825985345
G1 X102.25205792872484 Y100.11220108361522 Z0.2 A-41.88639457868842
G1 X102.44311407729457 Y99.95967734426303 Z0.2 A-40.83526533139152
G1 X102.63196954480794 Y99.80460726157301 Z0.2 A-39.78413608409459
G1 X102.90364780098238 Y99.63471025621209 Z0.2 A-38.558603412106166
G1 X103.17247441261436 Y99.46123575922294 Z0.2 A-37.33307074011772
G1 X103.43852654722228 Y99.28412359812212 Z0.2 A-36.107538068129294
G1 X103.70188264163855 Y99.10331526464547 Z0.2 A-34.88200539614087
G1 X103.88633962882746 Y99.01411109341852 Z0.2 A-33.68378534029953
G1 X104.06837112896838 Y98.92126782716554 Z0.2 A-32.48556528445818
G1 X104.24805377086292 Y98.82473554139963 Z0.2 A-31.287345228616843
G1 X104.42546521054554 Y98.72446592496323 Z0.2 A-30.089125172775503
G1 X104.64774523793965 Y98.63045079129432 Z0.2 A-29.020631190084455
G1 X104.86833817032857 Y98.53339464062266 Z0.2 A-27.95213720739343
G1 X105.08730100891124 Y98.43326654135919 Z0.2 A-26.883643224702407
G1 X105.30469132177682 Y98.33003663023217 Z0.2 A-25.81514924201136
G1 X105.51914079483109 Y98.25850744301445 Z0.2 A-24.745542183414262
G1 X105.73213152571861 Y98.18381335179436 Z0.2 A-23.67593512481714
G1 X105.94372284813619 Y98.10592767758341 Z0.2 A-22.606328066220016
G1 X106.15397458346081 Y98.02482485362872 Z0.2 A-21.53672100762292
G1 X106.37745344843226 Y97.96704726222121 Z0.2 A-20.49467611747558
G1 X106.5997742483182 Y97.90617140744556 Z0.2 A-19.452631227328244
G1 X106.82099352000421 Y97.84217674099463 Z0.2 A-18.41058633718091
G1 X107.04116816471952 Y97.77504374614581 Z0.2 A-17.36854144703357
G1 X107.36094881725717 Y97.71966704175071 Z0.2 A-16.164429570819333
G1 X107.67949995523158 Y97.6600484928469 Z0.2 A-14.960317694605095
G1 X107.99691098898771 Y97.59616319889929 Z0.2 A-13.756205818390857
G1 X108.31327183239087 Y97.52798814375555 Z0.2 A-12.552093942176619
G1 X108.51618093713095 Y97.51595040921126 Z0.2 A-11.349490208912037
G1 X108.71822309249278 Y97.4995934366154 Z0.2 A-10.146886475647456
G1 X108.91948914097458 Y97.47889998195667 Z0.2 A-8.944282742382875
G1 X109.12007026697957 Y97.4538547116112 Z0.2 A-7.741679009118294
G1 X109.36278418323651 Y97.45116657850718 Z0.2 A-6.677367747272277
G1 X109.60509688309243 Y97.4450513708122 Z0.2 A-5.613056485426235
G1 X109.84707209253787 Y97.43550222731768 Z0.2 A-4.548745223580192
G1 X110.08877365401378 Y97.42251347168789 Z0.2 A-3.4844339617341746
G1 X115.06730522922396 Y97.42881100049215 Z0.2 A-2.6182122833806476
G1 X120.04573239598942 Y97.4328252924576 Z0.2 A-1.75199060502712
G1 X125.02408968386136 Y97.43455503008452 Z0.2 A-0.8857689266735926
G1 X130.0024116383627 Y97.43399941803617 Z0.2 A-0.019547248320065238
G1 X129.71376869820904 Y97.49701791323967 Z0.2 A3.198945557120976
G1 X129.42688612894784 Y97.52853946800941 Z0.2 A6.417438362561992
G1 X129.14352951057577 Y97.52871259645984 Z0.2 A9.635931168003033
G1 X128.86545330009102 Y97.49778470475158 Z0.2 A12.85442397344405
G1 X128.59439529686642 Y97.43610131062144 Z0.2 A16.07291677888509
G1 X127.97080177226916 Y97.33509310605493 Z0.2 A20.654636876858365
G1 X127.36975208596434 Y97.17428121101935 Z0.2 A25.23635697483164
G1 X126.79595137001952 Y96.95565755547608 Z0.2 A29.818077072804915
G1 X126.2539306036867 Y96.68158355420495 Z0.2 A34.399797170778186
G1 X125.74801765514124 Y96.35477501459975 Z0.2 A38.98151726875146
G1 X125.2823096213387 Y95.97828477948006 Z0.2 A43.563237366724735
G1 X124.86064664276942 Y95.55548321585239 Z0.2 A48.14495746469801
G1 X124.43545106501912 Y95.16057729928741 Z0.2 A52.28018868719531
G1 X124.05144141901724 Y94.73381652329594 Z0.2 A56.41541990969266
G1 X123.71080756062379 Y94.2782537666016 Z0.2 A60.55065113218996
G1 X123.41551349929631 Y93.79709187232254 Z0.2 A64.68588235468731
G1 X123.16728717200523 Y93.29366697160359 Z0.2 A68.82111357718462
G1 X122.96761144631716 Y92.77143111325215 Z0.2 A72.95634479968197
G1 X122.81771639949055 Y92.23393428982132 Z0.2 A77.09157602217927
G1 X122.72698513834989 Y99.79261361758509 Z0.2 A79.6732608177434
G1 X122.65622466344898 Y107.34765400966207 Z0.2 A82.25494561330754
G1 X122.60557861579045 Y114.89995871669173 Z0.2 A84.83663040887173
G1 X122.57514980487456 Y122.4504365426475 Z0.2 A87.41831520443586
G1 X122.565 Y130.0 Z0.2 A90.0
G1 X122.50228071642223 Y129.71280678498502 Z0.2 A93.20905638089009
G1 X122.47087368871536 Y129.42736916170193 Z0.2 A96.41811276178016
G1 X122.47063154018498 Y129.14543721609556 Z0.2 A99.62716914267025
G1 X122.50130915661002 Y128.86875003980307 Z0.2 A102.83622552356034
G1 X122.56256445495629 Y128.59903027611364 Z0.2 A106.04528190445043
G1 X122.66327905629225 Y127.97488646103524 Z0.2 A110.63050235749118
G1 X122.82389821744846 Y127.37329569381522 Z0.2 A115.21572281053193
G1 X123.0424272845835 Y126.79897467255071 Z0.2 A119.80094326357273
G1 X123.31650092634065 Y126.25646554348096 Z0.2 A124.3861637166135
G1 X123.64339827417876 Y125.75010682700673 Z0.2 A128.9713841696543
G1 X124.02006033847381 Y125.28400564710546 Z0.2 A133.55660462269503
G1 X124.44310958891089 Y124.86201144189958 Z0.2 A138.1418250757358
G1 X124.83805203579398 Y124.43673776608547 Z0.2 A142.2775037823706
G1 X125.26485816405044 Y124.05265743920465 Z0.2 A146.4131824890054
G1 X125.72047419829937 Y123.71196115897351 Z0.2 A150.54886119564026
G1 X126.20169632504778 Y123.41661368483368 Z0.2 A154.68453990227502
G1 X126.7051873777199 Y123.16834360574927 Z0.2 A158.82021860890987
G1 X127.22749421617146 Y122.96863433794832 Z0.2 A162.9558973155447
G1 X127.7650657101787 Y122.81871639949054 Z0.2 A167.09157602217948
G1 X124.20028461039959 Y122.72776724044661 Z0.2 A169.67383288882806
G1 X120.63914385941655 Y122.65679775405704 Z0.2 A172.25608975547664
G1 X117.08073960395686 Y122.60595166328018 Z0.2 A174.8383466221252
G1 X113.52416243330694 Y122.5753318232639 Z0.2 A177.42060348877376
G1 X109.96849922619877 Y122.56500001246134 Z0.2 A-179.99713964457763
G1 X109.43797273362837 Y122.52370477742619 Z0.2 A-179.11060353008125
G1 X108.90740907947014 Y122.4848033354785 Z0.2 A-178.22406741558484
G1 X108.37677123055188 Y122.44829482509411 Z0.2 A-177.33753130108846
G1 X107.84602217146421 Y122.4141778118616 Z0.2 A-176.45099518659205
G1 X107.59149905167526 Y122.34397834512205 Z0.2 A-174.89104880168978
G1 X107.33631587599304 Y122.28116163302084 Z0.2 A-173.3311024167875
G1 X107.08027190951442 Y122.22570697084048 Z0.2 A-171.7711560318852
G1 X106.82316705537183 Y122.17758819696334 Z0.2 A-170.21120964698292
G1 X106.62878615628979 Y122.1115380448234 Z0.2 A-169.0207421351529
G1 X106.43358308379463 Y122.04972579863771 Z0.2 A-167.83027462332288
G1 X106.23746996826442 Y121.99213346212795 Z0.2 A-166.63980711149284
G1 X106.04035933293562 Y121.93874121731362 Z0.2 A-165.4493395996628
G1 X105.81709389735978 Y121.84942264021323 Z0.2 A-164.37236225282618
G1 X105.59287670164801 Y121.76350654745352 Z0.2 A-163.29538490598955
G1 X105.3676439618793 Y121.6809744489777 Z0.2 A-162.21840755915292
G1 X105.14133225293382 Y121.60180665913225 Z0.2 A-161.14143021231632
G1 X104.93607653283189 Y121.50144476444157 Z0.2 A-160.08610009329738
G1 X104.72966530321729 Y121.40427251160389 Z0.2 A-159.03076997427846
G1 X104.52204001344847 Y121.31026807746778 Z0.2 A-157.97543985525954
G1 X104.3131425247532 Y121.21940856420126 Z0.2 A-156.9201097362406
G1 X104.03482879159876 Y121.05426086356232 Z0.2 A-155.70983676993515
G1 X103.75467968234314 Y120.89317993184333 Z0.2 A-154.4995638036297
G1 X103.472609709455 Y120.73612609557719 Z0.2 A-153.2892908373243
G1 X103.1885342424444 Y120.58305788450743 Z0.2 A-152.0790178710189
G1 X103.02451479637341 Y120.45984168796963 Z0.2 A-150.88746830727226
G1 X102.85839123376965 Y120.34040389773955 Z0.2 A-149.69591874352565
G1 X102.69008543780103 Y120.22469994175209 Z0.2 A-148.50436917977905
G1 X102.51952023540183 Y120.11268363314358 Z0.2 A-147.3128196160324
G1 X102.34422814185238 Y119.96615302767748 Z0.2 A-146.25671277640808
G1 X102.16704883513563 Y119.82244755278411 Z0.2 A-145.20060593678375
G1 X101.98793056445287 Y119.68153194438045 Z0.2 A-144.1444990971594
G1 X101.8068222377664 Y119.54336999052916 Z0.2 A-143.08839225753508
G1 X101.63202255737183 Y119.37458725099196 Z0.2 A-142.02611398781394
G1 X101.45510789146392 Y119.20851411411131 Z0.2 A-140.9638357180928
G1 X101.27602836969406 Y119.04511090407892 Z0.2 A-139.9015574483717
G1 X101.09473486584206 Y118.88433702734946 Z0.2 A-138.83927917865057
G1 X100.87635232303434 Y118.63320315521179 Z0.2 A-137.59357185777876
G1 X100.65478207824421 Y118.38555947572846 Z0.2 A-136.3478645369069
G1 X100.42994900813389 Y118.14133586344089 Z0.2 A-135.1021572160351
G1 X100.20177953164658 Y117.900460576284 Z0.2 A-133.85644989516328
G1 X100.02731811682796 Y117.64626464703962 Z0.2 A-132.4656858847765
G1 X99.84851050534444 Y117.39604648743241 Z0.2 A-131.07492187438973
G1 X99.66526143296299 Y117.14969943901313 Z0.2 A-129.68415786400297
G1 X99.47747825222422 Y116.90711456259166 Z0.2 A-128.29339385361618
G1 X99.3284429081609 Y116.6372601374811 Z0.2 A-126.90385195823907
G1 X99.17470457923793 Y116.37093730772915 Z0.2 A-125.51431006286194
G1 X99.01617900830774 Y116.10803098881884 Z0.2 A-124.12476816748479
G1 X98.85278475376553 Y115.84842408686501 Z0.2 A-122.73522627210768
G1 X98.6970982227966 Y115.47846039709181 Z0.2 A-121.17836333129915
G1 X98.53509515318895 Y115.112318879636 Z0.2 A-119.62150039049065
G1 X98.36667403191558 Y114.74982650926054 Z0.2 A-118.06463744968217
G1 X98.1917380843524 Y114.39080756658858 Z0.2 A-116.50777450887364
G1 X98.11884084593768 Y114.11982192064828 Z0.2 A-114.95572605450658
G1 X98.0392913236723 Y113.85193202972947 Z0.2 A-113.40367760013953
G1 X97.95300810940233 Y113.5869565807075 Z0.2 A-111.85162914577246
G1 X97.85991473571357 Y113.32471212203215 Z0.2 A-110.29958069140541
G1 X97.8016743360443 Y113.02207234581904 Z0.2 A-108.90759131248412
G1 X97.73785031664231 Y112.721345096481 Z0.2 A-107.5156019335628
G1 X97.66839786537356 Y112.42239417005523 Z0.2 A-106.12361255464153
G1 X97.59327549205051 Y112.12508231417864 Z0.2 A-104.73162317572023
G1 X97.5651756770541 Y111.81949412882567 Z0.2 A-103.33390546310348
G1 X97.5312855232669 Y111.51527834004355 Z0.2 A-101.93618775048672
G1 X97.49157327754698 Y111.21229329948387 Z0.2 A-100.53847003786997
G1 X97.44601065133723 Y110.91039662640999 Z0.2 A-99.14075232525322
G1 X97.44742683214989 Y110.60237192393386 Z0.2 A-97.7492411962449
G1 X97.44299884861115 Y110.29514249848793 Z0.2 A-96.35773006723656
G1 X97.43270911161513 Y109.98856619548653 Z0.2 A-94.96621893822824
G1 X97.41654348933402 Y109.68250047513058 Z0.2 A-93.57470780921992
G1 X97.44801928924016 Y109.37678699125506 Z0.2 A-92.17898528410448
G1 X97.47356559977979 Y109.07129911741083 Z0.2 A-90.78326275898904
G1 X97.49317868486081 Y108.7658923588617 Z0.2 A-89.3875402338736
G1 X97.50685832903652 Y108.46042217273943 Z0.2 A-87.99181770875816
G1 X97.56805837597365 Y108.16007504737948 Z0.2 A-86.59132551470177
G1 X97.62329458983845 Y107.85937269893905 Z0.2 A-85.19083332064538
G1 X97.67257743407214 Y107.5581694728819 Z0.2 A-83.790341126589
G1 X97.71592092889875 Y107.25632001391621 Z0.2 A-82.3898489325326
G1 X97.80596983039278 Y106.96104889036631 Z0.2 A-81.00316593894946
G1 X97.89023362160762 Y106.6648618230411 Z0.2 A-79.61648294536633
G1 X97.96873616243796 Y106.36761908154774 Z0.2 A-78.22979995178319
G1 X98.0415046872415 Y106.0691815538199 Z0.2 A-76.84311695820006
G1 X98.15965008099039 Y105.78649088207283 Z0.2 A-75.44116145264219
G1 X98.27200082040748 Y105.50229526044825 Z0.2 A-74.03920594708434
G1 X98.37859546064382 Y105.21645336570545 Z0.2 A-72.63725044152648
G1 X98.47947600296563 Y104.92882486020982 Z0.2 A-71.23529493596861
G1 X98.62479160101361 Y104.65805718036698 Z0.2 A-69.8392190614723
G1 X98.7645341662361 Y104.38524335376346 Z0.2 A-68.443143186976
G1 X98.89875520465341 Y104.11024820802234 Z0.2 A-67.0470673124797
G1 X99.02750950029737 Y103.83293786576894 Z0.2 A-65.6509914379834
G1 X99.19873950953644 Y103.57663255981399 Z0.2 A-64.259986852911
G1 X99.36466059676492 Y103.31776767442327 Z0.2 A-62.86898226783863
G1 X99.52533646081854 Y103.05621508859393 Z0.2 A-61.477977682766245
G1 X99.68083389192793 Y102.79184826538221 Z0.2 A-60.08697309769386
G1 X99.87539796466122 Y102.55514837362017 Z0.2 A-58.6868747038215
G1 X100.06486073726163 Y102.31534524192962 Z0.2 A-57.28677630994915
G1 X100.24929955697179 Y102.07231515215814 Z0.2 A-55.88667791607679
G1 X100.42879477085853 Y101.825936312984 Z0.2 A-54.48657952220444
G1 X100.6465602766571 Y101.60733356106314 Z0.2 A-53.09726795821967
G1 X100.85962428752464 Y101.38520047632436 Z0.2 A-51.70795639423489
G1 X101.0680737808963 Y101.15942410561375 Z0.2 A-50.318644830250115
G1 X101.27199844726513 Y100.92989363780983 Z0.2 A-48.929333266265346
G1 X101.1735679799085 Y101.04736740908601 Z0.2 A-47.700059849789646
G1 X101.07173303378671 Y101.16174334954034 Z0.2 A-46.470786433313926
G1 X100.96656085088402 Y101.27294913508824 Z0.2 A-45.2415130168382
G1 X100.85812020929384 Y101.38091390084742 Z0.2 A-44.012239600362506
G1 X100.01932882613895 Y102.13965376919997 Z0.2 A-37.52373492715669
G1 X99.10250750195785 Y102.7967902147633 Z0.2 A-31.035230253950875
G1 X98.11963763377679 Y103.34415636810454 Z0.2 A-24.546725580745065
G1 X97.0835467602067 Y103.77499161651318 Z0.2 A-18.05822090753925
G1 X96.00774422907189 Y104.08402821356432 Z0.2 A-11.569716234333411
G1 X94.90624813044636 Y104.26755876371477 Z0.2 A-5.081211561127598
G1 X93.79340571224152 Y104.32348371739297 Z0.2 A1.407293112078215
G1 X92.68370957898452 Y104.25133826812787 Z0.2 A7.895797785284028
G1 X91.59161202844673 Y104.05229830714016 Z0.2 A14.384302458489866
G1 X90.53133990463832 Y103.72916535911239 Z0.2 A20.87280713169568
G1 X89.51671233906927 Y103.28633069212383 Z0.2 A27.361311804901494
G1 X88.56096371517653 Y102.7297190615349 Z0.2 A33.84981647810731
G1 X87.67657412390247 Y102.0667128085125 Z0.2 A40.33832115131312
G1 X86.8751094824428 Y101.30605728556289 Z0.2 A46.826825824518934
G1 X87.78868387406067 Y101.98545956145026 Z0.2 A40.39174573626244
G1 X88.78391422865245 Y102.56888839584877 Z0.2 A33.95666564800595
G1 X89.84952962174323 Y103.0477966862576 Z0.2 A27.521585559749457
G1 X90.973372204819 Y103.41495439677145 Z0.2 A21.086505471492966
G1 X92.1425504067505 Y103.66453966398596 Z0.2 A14.651425383236473
G1 X93.34360138087827 Y103.79221215847778 Z0.2 A8.216345294979982
G1 X94.56266065075819 Y103.7951677774294 Z0.2 A1.7812652067234904
G1 X95.78563681685644 Y103.67217397921513 Z0.2 A-4.653814881533001
G1 X96.99838912270933 Y103.42358531469617 Z0.2 A-11.088894969789493
G1 X98.18690564303105 Y103.05133895951425 Z0.2 A-17.523975058045984
G1 X99.33747984841624 Y102.55893030368165 Z0.2 A-23.959055146302475
G1 X100.4368833217391 Y101.95136890606399 Z0.2 A-30.39413523455897
G1 X101.4725324498455 Y101.23511536877454 Z0.2 A-36.82921532281546
G1 X102.43264699004995 Y100.41799992692799 Z0.2 A-43.26429541107195
G1 X102.59488849779139 Y100.30908954546541 Z0.2 A-42.0565575337411
G1 X102.75415374757615 Y100.19688024918882 Z0.2 A-40.84881965641024
G1 X102.91051293327574 Y100.08131003906216 Z0.2 A-39.64108177907939
G1 X103.06403753994886 Y99.9623184093299 Z0.2 A-38.433343901748536
G1 X103.26430217551157 Y99.84072845640513 Z0.2 A-37.37327428193547
G1 X103.46248901200555 Y99.71641822629677 Z0.2 A-36.31320466212241
G1 X103.65864873194455 Y99.58934974395224 Z0.2 A-35.25313504230934
G1 X103.85283271173118 Y99.45948597847789 Z0.2 A-34.193065422496275
G1 X104.04859600433083 Y99.3610939834408 Z0.2 A-33.11933325240781
G1 X104.24244048501849 Y99.25976070678821 Z0.2 A-32.045601082319344
G1 X104.43442160758829 Y99.15545070824403 Z0.2 A-30.97186891223088
G1 X104.62459548021471 Y99.04812959290742 Z0.2 A-29.898136742142416
G1 X104.91961930332349 Y98.92647742318617 Z0.2 A-28.705776655455107
G1 X105.2125630595696 Y98.80102684281991 Z0.2 A-27.51341656876782
G1 X105.50350624089072 Y98.67173538995503 Z0.2 A-26.321056482080536
G1 X105.79252920560506 Y98.5385622660886 Z0.2 A-25.128696395393224
G1 X105.98049925864154 Y98.48567255945183 Z0.2 A-23.919324880979715
G1 X106.16666298911709 Y98.42871036317464 Z0.2 A-22.709953366566236
G1 X106.35110675315218 Y98.36763846027661 Z0.2 A-21.500581852152752
G1 X106.53391767313077 Y98.30242146469533 Z0.2 A-20.291210337739244
G1 X106.75190277554974 Y98.25147878810563 Z0.2 A-19.24846046745242
G1 X106.96879599461799 Y98.1974091678385 Z0.2 A-18.205710597165623
G1 X107.18465441657186 Y98.14019325118586 Z0.2 A-17.16296072687883
G1 X107.39953547038253 Y98.0798127275235 Z0.2 A-16.120210856592006
G1 X107.63000705844767 Y98.04375706856678 Z0.2 A-15.05527043069011
G1 X107.85958132186813 Y98.00436542402451 Z0.2 A-13.990330004788213
G1 X108.08832041708621 Y97.96162169275624 Z0.2 A-12.925389578886291
G1 X108.3162867890582 Y97.91551093162026 Z0.2 A-11.860449152984394
G1 X108.53663509826787 Y97.89810878135738 Z0.2 A-10.80041969111702
G1 X108.75634201896567 Y97.87734448856932 Z0.2 A-9.74039022924967
G1 X108.97546986038274 Y97.85320676299412 Z0.2 A-8.680360767382318
G1 X109.19408112995598 Y97.82568546901962 Z0.2 A-7.620331305514943
G1 X109.41565208086747 Y97.82444529503326 Z0.2 A-6.564128887044957
G1 X109.63683457673675 Y97.81982929255372 Z0.2 A-5.50792646857497
G1 X109.85769091077046 Y97.81183087469579 Z0.2 A-4.451724050104984
G1 X110.07828348700843 Y97.80044460395433 Z0.2 A-3.3955216316349968
G1 X115.05942868288713 Y97.80633588252888 Z0.2 A-2.551529226956198
G1 X120.04047728294907 Y97.81005949103633 Z0.2 A-1.7075368222773746
G1 X125.02146122726683 Y97.81161424180146 Z0.2 A-0.8635444175985507
G1 X130.0024124699422 Y97.81099941775244 Z0.2 A-0.01955201291975237
G1 X129.64446867784358 Y97.87093458601207 Z0.2 A3.4635265182067174
G1 X129.2887568070084 Y97.89399292823708 Z0.2 A6.946605049333187
G1 X128.93751314015554 Y97.88037816145716 Z0.2 A10.429683580459633
G1 X128.59295745253388 Y97.83042948895933 Z0.2 A13.912762111586103
G1 X128.25728481111722 Y97.74462034712496 Z0.2 A17.39584064271257
G1 X127.55757153723513 Y97.5977332972453 Z0.2 A22.359346151852954
G1 X126.88638925960942 Y97.38148521411867 Z0.2 A27.322851660993337
G1 X126.24963218710367 Y97.09860473697148 Z0.2 A32.2863571701337
G1 X125.65293634021603 Y96.75232024668281 Z0.2 A37.24986267927408
G1 X125.1016372810355 Y96.34633565299104 Z0.2 A42.213368188414435
G1 X124.60073009663061 Y95.88480261524313 Z0.2 A47.17687369755482
G1 X124.15483193599414 Y95.37228940503067 Z0.2 A52.1403792066952
G1 X123.77075225446008 Y94.92346389783576 Z0.2 A56.08807703156848
G1 X123.42605427676585 Y94.44816308661285 Z0.2 A60.03577485644171
G1 X123.12246727649762 Y93.94916105483523 Z0.2 A63.98347268131499
G1 X122.86152544015333 Y93.42934435720392 Z0.2 A67.93117050618828
G1 X122.64456058684948 Y92.89169832185728 Z0.2 A71.87886833106155
G1 X122.47269584833705 Y92.3392928838634 Z0.2 A75.82656615593478
G1 X122.34684033931806 Y91.77526801722075 Z0.2 A79.77426398080806
G1 X122.2897550476965 Y99.42293600144161 Z0.2 A81.81941118464646
G1 X122.24527978161059 Y107.06879121386302 Z0.2 A83.86455838848484
G1 X122.21347120102821 Y114.71328482283208 Z0.2 A85.90970559232322
G1 X122.19436982899312 Y122.35686973133218 Z0.2 A87.95485279616162
G1 X122.18799999999999 Y130.0 Z0.2 A90.0
G1 X122.12823071234511 Y129.64274371079708 Z0.2 A93.47916812854261
G1 X122.10525491114902 Y129.28772438033442 Z0.2 A96.95833625708516
G1 X122.11886903214713 Y128.9371707216036 Z0.2 A100.43750438562776
G1 X122.16873463540882 Y128.59329498649402 Z0.2 A103.91667251417032
G1 X122.25437965287504 Y128.25828481111714 Z0.2 A107.39584064271293
G1 X122.40126670275471 Y127.55857153723507 Z0.2 A112.3593461518532
G1 X122.61751478588134 Y126.88738925960936 Z0.2 A117.32285166099349
G1 X122.90039526302853 Y126.25063218710365 Z0.2 A122.28635717013373
G1 X123.2466797533172 Y125.653936340216 Z0.2 A127.24986267927406
G1 X123.65266434700894 Y125.10263728103548 Z0.2 A132.21336818841428
G1 X124.11419738475685 Y124.60173009663063 Z0.2 A137.17687369755456
G1 X124.62671059496928 Y124.15583193599416 Z0.2 A142.14037920669483
G1 X125.07553610216418 Y123.77175225446011 Z0.2 A146.08807703156793
G1 X125.55083691338703 Y123.4270542767659 Z0.2 A150.03577485644095
G1 X126.04983894516462 Y123.12346727649768 Z0.2 A153.98347268131397
G1 X126.56965564279588 Y122.86252544015342 Z0.2 A157.93117050618704
G1 X127.10730167814249 Y122.64556058684956 Z0.2 A161.8788683310601
G1 X127.6597071161363 Y122.47369584833713 Z0.2 A165.8265661559331
G1 X128.22373198277893 Y122.34784033931813 Z0.2 A169.77426398080618
G1 X124.5709628525684 Y122.29054083730432 Z0.2 A171.81998339856153
G1 X120.92000738257907 Y122.24585843552222 Z0.2 A173.86570281631683
G1 X117.27041402485004 Y122.21384983474245 Z0.2 A175.91142223407215
G1 X113.62172949516483 Y122.19455558071118 Z0.2 A177.95714165182744
G1 X109.97349935084327 Y122.18800001246755 Z0.2 A-179.9971389304172
G1 X109.6725212674651 Y122.17416653088812 Z0.2 A-179.47704689745316
G1 X109.37153566359521 Y122.1611569864212 Z0.2 A-178.9569548644892
G1 X109.07053506050666 Y122.14897127685686 Z0.2 A-178.4368628315252
G1 X108.76951198070836 Y122.13760923210337 Z0.2 A-177.91677079856117
G1 X108.54701986370084 Y122.1020180119491 Z0.2 A-176.88575977845002
G1 X108.32435183883325 Y122.06965995621067 Z0.2 A-175.8547487583389
G1 X108.10144975842783 Y122.04053137623777 Z0.2 A-174.82373773822775
G1 X107.87825555059278 Y122.01462753769317 Z0.2 A-173.7927267181166
G1 X107.66105317842656 Y121.9628358537754 Z0.2 A-172.74385751691727
G1 X107.44342754657082 Y121.9143684160994 Z0.2 A-171.69498831571795
G1 X107.22531787495703 Y121.86921691982108 Z0.2 A-170.64611911451863
G1 X107.00666354572245 Y121.82737194889677 Z0.2 A-169.5972499133193
G1 X106.78292669421445 Y121.75663153421847 Z0.2 A-168.5394796920979
G1 X106.55851265834923 Y121.68923136633212 Z0.2 A-167.48170947087652
G1 X106.33335989081839 Y121.62515837484791 Z0.2 A-166.4239392496551
G1 X106.107407096088 Y121.56439835540776 Z0.2 A-165.36616902843372
G1 X105.81761178043179 Y121.44449327218236 Z0.2 A-164.1386033477641
G1 X105.52656192338968 Y121.32900357941143 Z0.2 A-162.9110376670945
G1 X105.23416322010785 Y121.2179013871563 Z0.2 A-161.6834719864249
G1 X104.94032198487409 Y121.11115679154634 Z0.2 A-160.4559063057553
G1 X104.7681994649842 Y121.01637859244367 Z0.2 A-159.25435571687674
G1 X104.59451920157478 Y120.92571293070344 Z0.2 A-158.05280512799814
G1 X104.41919529941124 Y120.83912623697927 Z0.2 A-156.85125453911957
G1 X104.2421425860776 Y120.75658314812799 Z0.2 A-155.64970395024102
G1 X104.04230036325738 Y120.63408526346346 Z0.2 A-154.59080890316864
G1 X103.84099263809651 Y120.51467244223541 Z0.2 A-153.53191385609628
G1 X103.63816264841842 Y120.39831707489203 Z0.2 A-152.4730188090239
G1 X103.43375415196871 Y120.28499050762282 Z0.2 A-151.41412376195154
G1 X103.25741030652433 Y120.15630718778677 Z0.2 A-150.33908336407384
G1 X103.07932433650808 Y120.0306829842433 Z0.2 A-149.26404296619614
G1 X102.89943915375389 Y119.90808467297143 Z0.2 A-148.18900256831841
G1 X102.71769830348991 Y119.7884779647161 Z0.2 A-147.11396217044074
G1 X102.474961575307 Y119.58175304265306 Z0.2 A-145.9168008968497
G1 X102.22977837989367 Y119.37864382093046 Z0.2 A-144.71963962325867
G1 X101.98207370885156 Y119.17909839655266 Z0.2 A-143.52247834966767
G1 X101.73177365455854 Y118.98306331071156 Z0.2 A-142.32531707607663
G1 X101.59634066381082 Y118.83860894289406 Z0.2 A-141.13157615527297
G1 X101.45818373959963 Y118.69753419226862 Z0.2 A-139.93783523446933
G1 X101.31723306486482 Y118.55978157708446 Z0.2 A-138.74409431366567
G1 X101.17342003522789 Y118.4252921735534 Z0.2 A-137.550353392862
G1 X100.9648965602589 Y118.17474825566696 Z0.2 A-136.31725479590543
G1 X100.75317418420428 Y117.92755381546178 Z0.2 A-135.08415619894888
G1 X100.53818156721353 Y117.68363923700856 Z0.2 A-133.85105760199235
G1 X100.31984888408965 Y117.44293338526843 Z0.2 A-132.61795900503577
G1 X100.15766891187495 Y117.19330875789319 Z0.2 A-131.2193953364095
G1 X99.9910074097123 Y116.94761009390743 Z0.2 A-129.8208316677832
G1 X99.81976989119332 Y116.7057268425489 Z0.2 A-128.4222679991569
G1 X99.64386459628226 Y116.46754617984737 Z0.2 A-127.02370433053062
G1 X99.5054591298759 Y116.20206702208068 Z0.2 A-125.63491126502443
G1 X99.36227877376125 Y115.94001075216804 Z0.2 A-124.24611819951821
G1 X99.21424197126991 Y115.68126063736042 Z0.2 A-122.85732513401202
G1 X99.06127001890027 Y115.4256980025396 Z0.2 A-121.46853206850581
G1 X98.9500745770847 Y115.14913034576655 Z0.2 A-120.07359434871437
G1 X98.83374991905653 Y114.87553283426793 Z0.2 A-118.67865662892294
G1 X98.71222526011306 Y114.60477972294996 Z0.2 A-117.28371890913151
G1 X98.58543289764879 Y114.33674358081174 Z0.2 A-115.88878118934005
G1 X98.49889553485175 Y114.04048185881594 Z0.2 A-114.47535608736311
G1 X98.40681974679539 Y113.74674126627055 Z0.2 A-113.06193098538616
G1 X98.30914503137707 Y113.45538442296836 Z0.2 A-111.64850588340921
G1 X98.2058142935805 Y113.16627249813152 Z0.2 A-110.23508078143226
G1 X98.15225189218242 Y112.87595078611159 Z0.2 A-108.8220461684452
G1 X98.09293283185164 Y112.58759127271044 Z0.2 A-107.40901155545815
G1 X98.02781047610968 Y112.30105140429043 Z0.2 A-105.9959769424711
G1 X97.95684171797654 Y112.01618752052644 Z0.2 A-104.58294232948404
G1 X97.93079667526119 Y111.7191567440874 Z0.2 A-103.18725654028489
G1 X97.89897463248617 Y111.42347959527139 Z0.2 A-101.79157075108576
G1 X97.86134433335639 Y111.12901496266083 Z0.2 A-100.39588496188661
G1 X97.81787796788683 Y110.83562101539566 Z0.2 A-99.00019917268745
G1 X97.82076283519818 Y110.53736804402942 Z0.2 A-97.60617377246652
G1 X97.81778042620203 Y110.23989857794554 Z0.2 A-96.21214837224558
G1 X97.80891341636037 Y109.94306964654835 Z0.2 A-94.81812297202464
G1 X97.79414796444168 Y109.64673790008672 Z0.2 A-93.42409757180371
G1 X97.8262577864493 Y109.35072205590514 Z0.2 A-92.02455479348144
G1 X97.85240502712657 Y109.05491698814207 Z0.2 A-90.62501201515917
G1 X97.87258631715709 Y108.75917700263773 Z0.2 A-89.2254692368369
G1 X97.88680184669296 Y108.46335636640227 Z0.2 A-87.82592645851463
G1 X97.94738303190302 Y108.17106453241323 Z0.2 A-86.43353008308505
G1 X98.00207012095058 Y107.87840533613749 Z0.2 A-85.04113370765546
G1 X98.050873780948 Y107.58523566240422 Z0.2 A-83.64873733222586
G1 X98.09380815348635 Y107.29141269750677 Z0.2 A-82.25634095679627
G1 X98.1825767534213 Y107.00644250125796 Z0.2 A-80.86163207121565
G1 X98.26549539278555 Y106.7205312747971 Z0.2 A-79.46692318563501
G1 X98.34258870922011 Y106.43353690970106 Z0.2 A-78.07221430005437
G1 X98.41388479196566 Y106.14531793932426 Z0.2 A-76.67750541447376
G1 X98.52987918566049 Y105.87062059701707 Z0.2 A-75.28198510020248
G1 X98.64013616185528 Y105.5944161431347 Z0.2 A-73.88646478593118
G1 X98.7446941265051 Y105.31656529553257 Z0.2 A-72.49094447165989
G1 X98.84359486625335 Y105.03692974871686 Z0.2 A-71.0954241573886
G1 X98.98578148861692 Y104.77447223043546 Z0.2 A-69.70234758701064
G1 X99.12242388006331 Y104.50996409710773 Z0.2 A-68.30927101663266
G1 X99.25357353255063 Y104.2432711669339 Z0.2 A-66.9161944462547
G1 X99.37928518496217 Y103.97426054961407 Z0.2 A-65.52311787587674
G1 X99.54608653758659 Y103.72789402774424 Z0.2 A-64.12307926819742
G1 X99.7075160001605 Y103.47892172973653 Z0.2 A-62.72304066051813
G1 X99.86363884287856 Y103.22721318289123 Z0.2 A-61.323002052838824
G1 X100.0145235042707 Y102.97263954819525 Z0.2 A-59.92296344515952
G1 X100.20510238314318 Y102.74216742300185 Z0.2 A-58.5323719374945
G1 X100.39065727371364 Y102.50862049694554 Z0.2 A-57.141780429829495
G1 X100.57126427492717 Y102.2718777533543 Z0.2 A-55.75118892216446
G1 X100.74700240015153 Y102.03182005796741 Z0.2 A-54.36059741449945
G1 X100.95850542914638 Y101.82200552119852 Z0.2 A-52.96336475714909
G1 X101.1652615602417 Y101.60860917928889 Z0.2 A-51.56613209979876
G1 X101.36735954319332 Y101.39151634936954 Z0.2 A-50.16889944244839
G1 X101.56489089778381 Y101.17061454673483 Z0.2 A-48.771666785098034
G1 X101.42420998814177 Y101.33141196697687 Z0.2 A-47.36183037896496
G1 X101.27907519203758 Y101.48810834930357 Z0.2 A-45.95199397283189
G1 X101.12958875888306 Y101.64059535262821 Z0.2 A-44.5421575666988
G1 X100.97585557274004 Y101.78876718438546 Z0.2 A-43.13232116056573
G1 X100.25990048866198 Y102.39888070268498 Z0.25 A-37.740781015495
G1 X99.4897858293055 Y102.93902290532544 Z0.3 A-32.3492408704243
G1 X98.67232580165596 Y103.40441445104177 Z0.35 A-26.95770072535358
G1 X97.81475353880978 Y103.7909374149468 Z0.4 A-21.56616058028285
G1 X96.92465709902937 Y104.09517172517377 Z0.44999999999999996 A-16.17462043521215
G1 X96.00991232431292 Y104.31442542470467 Z0.5 A-10.783080290141426
G1 X95.07861315256687 Y104.44675849061855 Z0.55 A-5.3915401450707
G1 X94.139 Y104.491 Z0.6 A0.0
G1 X97.4649764000378 Y108.6992253190358 Z0.6 A5.588167084440508
G1 X100.80020845600953 Y112.81285299520333 Z0.6 A11.17633416888099
G1 X104.15386384943 Y116.83323389212222 Z0.6 A16.764501253321498
G1 X107.53493514916714 Y120.76260517809902 Z0.6 A22.35266833776198
G1 X110.95215433764872 Y124.60406906198519 Z0.6 A27.94083542220249
G1 X114.41390981392635 Y128.36156330688 Z0.6 A33.529002506642996
G1 X117.92816666247805 Y132.03982380194344 Z0.6 A39.11716959108348
G1 X121.5023909455882 Y135.64433954807194 Z0.6 A44.70533667552399
G1 X122.22791666247805 Y136.29557380194342 Z0.5499999999999999 A39.11716959108348
G1 X123.01340981392636 Y136.87306330688 Z0.5 A33.529002506642996
G1 X123.85140433764872 Y137.3713190619852 Z0.44999999999999996 A27.94083542220249
G1 X124.73393514916715 Y137.78560517809902 Z0.4 A22.35266833776198
G1 X125.65261384943 Y138.11198389212223 Z0.35 A16.764501253321498
G1 X126.59870845600953 Y138.34735299520335 Z0.3 A11.17633416888099
G1 X127.56322640003782 Y138.4894753190358 Z0.25 A5.5881670844404825
G1 X128.537 Y138.537 Z0.2 A0.0
G1 X129.0732694641624 Y138.44361730422594 Z0.2 A-7.82529949934918
G1 X129.58418129010167 Y138.16572529093747 Z0.2 A-15.650598998698335
G1 X130.04485010951075 Y137.70849466395782 Z0.2 A-23.475898498047513
G1 X130.43132629818686 Y137.0804361949535 Z0.2 A-31.30119799739667
G1 X130.72104202258035 Y136.29324221571437 Z0.2 A-39.12649749674585
G1 X130.89323155136935 Y135.36156885589583 Z0.2 A-46.95179699609503
G1 X130.9293180040243 Y134.3027630819071 Z0.2 A-54.777096495444184
G1 X130.81325933341623 Y133.13653962067298 Z0.2 A-62.60239599479336
G1 X130.53184709876143 Y131.884613785359 Z0.2 A-70.42769549414253
G1 X130.0749524644471 Y130.57029704144747 Z0.2 A-78.2529949934917
G1 X129.43571484316524 Y129.21806284549044 Z0.2 A-86.07829449284088
G1 X128.6106696699963 Y127.8530908425157 Z0.2 A-93.90359399219003
G1 X127.59981292773186 Y126.50079791112138 Z0.2 A-101.7288934915392
G1 X126.40660122169241 Y125.18636479024553 Z0.2 A-109.5541929908884
G1 X125.03788740264747 Y123.93426710388724 Z0.2 A-117.37949249023755
G1 X123.50379293681985 Y122.7678195181455 Z0.2 A-125.20479198958672
G1 X121.81751940000201 Y121.7087415203625 Z0.2 A-133.03009148893588
G1 X119.99510260658663 Y120.77675290745836 Z0.2 A-140.85539098828505
G1 X118.05511395270247 Y119.98920651723098 Z0.2 A-148.68069048763425
G1 X116.01831453574988 Y119.36076504276673 Z0.2 A-156.5059899869834
G1 X113.90726849213986 Y118.903127949089 Z0.2 A-164.33128948633254
G1 X111.74592275457626 Y118.62481357804853 Z0.2 A-172.15658898568176
G1 X109.5591610556347 Y118.53100049961365 Z0.2 A-179.9818884850309
G1 X109.36891786290533 Y118.51166926199846 Z0.2 A-179.12381103425483
G1 X109.17864037304305 Y118.49458060886867 Z0.2 A-178.26573358347878
G1 X108.98829500558357 Y118.47973377511146 Z0.2 A-177.4076561327027
G1 X108.7978481952865 Y118.46712749280827 Z0.2 A-176.54957868192662
G1 X108.6470044711004 Y118.4347077236991 Z0.2 A-175.49043923259876
G1 X108.49589208148623 Y118.40569440518459 Z0.2 A-174.43129978327087
G1 X108.34444810608967 Y118.3800819891437 Z0.2 A-173.37216033394301
G1 X108.19260973786017 Y118.35786376535712 Z0.2 A-172.31302088461516
G1 X108.0429040916392 Y118.31431501205842 Z0.2 A-171.2620563304259
G1 X107.89268732818557 Y118.27409169462331 Z0.2 A-170.21109177623666
G1 X107.74189853912445 Y118.23718387884148 Z0.2 A-169.16012722204746
G1 X107.59047700853817 Y118.20358051500675 Z0.2 A-168.10916266785821
G1 X107.44122201063266 Y118.14885572378105 Z0.2 A-167.07518890544515
G1 X107.2912386059174 Y118.0973050069504 Z0.2 A-166.04121514303205
G1 X107.1404696359782 Y118.0489147033878 Z0.2 A-165.00724138061898
G1 X106.98885819822651 Y118.00367012275171 Z0.2 A-163.9732676182059
G1 X106.84711784584793 Y117.93890612937358 Z0.2 A-162.92269054134357
G1 X106.70439020096028 Y117.87735590852813 Z0.2 A-161.87211346448126
G1 X106.5606165050032 Y117.81900081796958 Z0.2 A-160.82153638761892
G1 X106.41573835109924 Y117.76382114124763 Z0.2 A-159.77095931075658
G1 X106.27874839813 Y117.68871847246662 Z0.2 A-158.72160771897612
G1 X106.14054121859145 Y117.61674131067444 Z0.2 A-157.6722561271956
G1 X106.00105977728644 Y117.54786683987699 Z0.2 A-156.6229045354151
G1 X105.86024746642653 Y117.48207120338589 Z0.2 A-155.5735529436346
G1 X105.7277223811226 Y117.39669797129145 Z0.2 A-154.53261513370444
G1 X105.59377804869405 Y117.31430461687036 Z0.2 A-153.49167732377427
G1 X105.45836056853906 Y117.23486486518573 Z0.2 A-152.4507395138441
G1 X105.32141652628238 Y117.15835146643578 Z0.2 A-151.40980170391396
G1 X105.19577067077348 Y117.06330448244998 Z0.2 A-150.35648638559306
G1 X105.0684532812017 Y116.97119473433965 Z0.2 A-149.30317106727213
G1 X104.93941064544371 Y116.88199099832643 Z0.2 A-148.2498557489512
G1 X104.80858963443241 Y116.79566106852968 Z0.2 A-147.19654043063034
G1 X104.75476458326183 Y116.74625624508614 Z0.2 A-146.33050139069118
G1 X104.69967291375637 Y116.69875282774888 Z0.2 A-145.46446235075206
G1 X104.64328603150419 Y116.65313145481282 Z0.2 A-144.59842331081293
G1 X104.58557563800542 Y116.60937233458986 Z0.2 A-143.73238427087378
G1 X104.51126680006098 Y116.54209642435934 Z0.2 A-143.02426957133312
G1 X104.43603925893407 Y116.47604074949012 Z0.2 A-142.31615487179252
G1 X104.35987800436345 Y116.41119386289003 Z0.2 A-141.6080401722519
G1 X104.28276816870456 Y116.34754413283505 Z0.2 A-140.89992547271126
G1 X104.14624772139406 Y116.21150527448387 Z0.2 A-140.03834657520935
G1 X104.0082749701225 Y116.07719955895698 Z0.2 A-139.17676767770737
G1 X103.86882401812663 Y115.94460495227041 Z0.2 A-138.31518878020543
G1 X103.7278693028922 Y115.8136990335263 Z0.2 A-137.45360988270352
G1 X103.68418617308176 Y115.75667602439687 Z0.2 A-136.57980074302517
G1 X103.63890439328776 Y115.70134234684217 Z0.2 A-135.70599160334686
G1 X103.59199838668243 Y115.64767342458615 Z0.2 A-134.83218246366852
G1 X103.54344295420682 Y115.59564429415767 Z0.2 A-133.9583733239902
G1 X103.47856305659992 Y115.51367008584546 Z0.2 A-133.26376765096572
G1 X103.4126129206571 Y115.4327031420825 Z0.2 A-132.5691619779412
G1 X103.34558041409822 Y115.35273041450192 Z0.2 A-131.87455630491672
G1 X103.27745356371817 Y115.27373870861778 Z0.2 A-131.17995063189224
G1 X103.21838959133287 Y115.19042039524355 Z0.2 A-130.47061373068274
G1 X103.15815964203026 Y115.10809688644822 Z0.2 A-129.7612768294733
G1 X103.09675148953525 Y115.02675367126166 Z0.2 A-129.05193992826383
G1 X103.03415308815481 Y114.94637608846509 Z0.2 A-128.34260302705434
G1 X102.97562950006113 Y114.85627138412465 Z0.2 A-127.663499318929
G1 X102.91599383525917 Y114.76702505923924 Z0.2 A-126.98439561080363
G1 X102.85523599807614 Y114.6786238728283 Z0.2 A-126.30529190267828
G1 X102.79334605048463 Y114.59105446518416 Z0.2 A-125.62618819455291
G1 X102.74249628837501 Y114.50225132719437 Z0.2 A-124.91774591729637
G1 X102.690392927494 Y114.41432328917126 Z0.2 A-124.20930364003983
G1 X102.63702524363899 Y114.32725478430558 Z0.2 A-123.50086136278327
G1 X102.58238270590039 Y114.24103011438034 Z0.2 A-122.79241908552673
G1 X102.53561817451082 Y114.14934624511525 Z0.2 A-122.08760968689238
G1 X102.48757161529265 Y114.05846620410729 Z0.2 A-121.38280028825801
G1 X102.43823323740462 Y113.9683741603992 Z0.2 A-120.67799088962366
G1 X102.38759344548183 Y113.87905416379489 Z0.2 A-119.9731814909893
G1 X102.3437819304003 Y113.782812685153 Z0.2 A-119.28431705618794
G1 X102.29870964869728 Y113.68727826203978 Z0.2 A-118.59545262138656
G1 X102.25236819080428 Y113.59243568558092 Z0.2 A-117.90658818658517
G1 X102.20474933061166 Y113.49826964689589 Z0.2 A-117.21772375178381
G1 X102.16691826661155 Y113.40216525981687 Z0.2 A-116.51508855025666
G1 X102.12774151813542 Y113.3067322487979 Z0.2 A-115.81245334872953
G1 X102.08721095329162 Y113.21195406124028 Z0.2 A-115.10981814720239
G1 X102.04531864378424 Y113.11781404606867 Z0.2 A-114.40718294567525
G1 X102.01115256703615 Y113.01798647860959 Z0.2 A-113.71743247541677
G1 X101.97565967353687 Y112.91874182452638 Z0.2 A-113.02768200515828
G1 X101.93883304224407 Y112.82006406919346 Z0.2 A-112.33793153489982
G1 X101.900665945403 Y112.72193711582933 Z0.2 A-111.64818106464134
G1 X101.87310453409943 Y112.62413969077886 Z0.2 A-110.93514877243814
G1 X101.84409665875961 Y112.52689563361447 Z0.2 A-110.22211648023496
G1 X101.81363554503713 Y112.43018690105127 Z0.2 A-109.50908418803176
G1 X101.7817146436487 Y112.33399536689856 Z0.2 A-108.79605189582858
G1 X101.75666582588038 Y112.22945387257177 Z0.2 A-108.11827641359483
G1 X101.73028705789325 Y112.12534754258405 Z0.2 A-107.44050093136106
G1 X101.70257328512061 Y112.0216606143239 Z0.2 A-106.76272544912729
G1 X101.67351963980747 Y111.9183772664915 Z0.2 A-106.08494996689353
G1 X101.65587298066157 Y111.81993628302907 Z0.2 A-105.37475906911116
G1 X101.63674492252363 Y111.72190264279132 Z0.2 A-104.6645681713288
G1 X101.61613053023441 Y111.62425795276513 Z0.2 A-103.95437727354641
G1 X101.5940250969925 Y111.52698376017973 Z0.2 A-103.24418637576406
G1 X101.56924227493457 Y111.33639957166004 Z0.2 A-102.37945163024023
G1 X101.54223463027971 Y111.14630370570497 Z0.2 A-101.51471688471642
G1 X101.51299504669791 Y110.95666252990969 Z0.2 A-100.64998213919259
G1 X101.48151691624639 Y110.76744230830091 Z0.2 A-99.78524739366877
G1 X101.48246521592054 Y110.69839064580445 Z0.2 A-98.89568231850016
G1 X101.48103204137085 Y110.62971172835806 Z0.2 A-98.00611724333157
G1 X101.47721189267348 Y110.56136853813615 Z0.2 A-97.11655216816297
G1 X101.4709998452771 Y110.49332397638715 Z0.2 A-96.22698709299436
G1 X101.46948080711564 Y110.38672903734754 Z0.2 A-95.5435373312764
G1 X101.46654556157299 Y110.28027154975902 Z0.2 A-94.86008756955844
G1 X101.4621925698588 Y110.17393461108655 Z0.2 A-94.17663780784049
G1 X101.45642049490851 Y110.06770130164259 Z0.2 A-93.49318804612251
G1 X101.4603593156567 Y109.96373354028636 Z0.2 A-92.79437121249903
G1 X101.46281233982474 Y109.85983830019174 Z0.2 A-92.09555437887553
G1 X101.46377879342873 Y109.75599745466629 Z0.2 A-91.39673754525205
G1 X101.46325812362194 Y109.65219286892602 Z0.2 A-90.69792071162857
G1 X101.47224999978854 Y109.54856503226551 Z0.2 A-89.99962739256544
G1 X101.47975653849744 Y109.4449371859455 Z0.2 A-89.30133407350232
G1 X101.48577785017771 Y109.34129122783851 Z0.2 A-88.60304075443919
G1 X101.49031426586482 Y109.23760905850726 Z0.2 A-87.90474743537608
G1 X101.50435133742302 Y109.13492988821422 Z0.2 A-87.20469129605203
G1 X101.5168973390597 Y109.03217791481396 Z0.2 A-86.504635156728
G1 X101.52795327157875 Y108.92933492587731 Z0.2 A-85.80457901740397
G1 X101.5375203582284 Y108.82638272256237 Z0.2 A-85.10452287807992
G1 X101.55660127791782 Y108.72173537407441 Z0.2 A-84.41924910468765
G1 X101.57425851104581 Y108.6169489147832 Z0.2 A-83.73397533129538
G1 X101.5904938232042 Y108.51200632734928 Z0.2 A-83.04870155790312
G1 X101.60530918338587 Y108.40689061676687 Z0.2 A-82.36342778451083
G1 X101.62916244497622 Y108.3070511749839 Z0.2 A-81.65663364390323
G1 X101.65151009083017 Y108.2069909236584 Z0.2 A-80.94983950329564
G1 X101.67235495931608 Y108.1066913069595 Z0.2 A-80.24304536268801
G1 X101.69170011748318 Y108.00613380548113 Z0.2 A-79.53625122208041
G1 X101.72063266566404 Y107.90585877260175 Z0.2 A-78.83933370032673
G1 X101.74811370318513 Y107.80529736826506 Z0.2 A-78.14241617857304
G1 X101.77414682061612 Y107.7044319586329 Z0.2 A-77.44549865681935
G1 X101.79873582274507 Y107.60324495484436 Z0.2 A-76.74858113506568
G1 X101.83215218340663 Y107.50666082718111 Z0.2 A-76.04019835957588
G1 X101.86408512053934 Y107.40970794575784 Z0.2 A-75.33181558408607
G1 X101.89453930653117 Y107.31236799875246 Z0.2 A-74.62343280859626
G1 X101.92351963980747 Y107.21462273350849 Z0.2 A-73.91505003310647
G1 X101.9628232851206 Y107.11433938567609 Z0.2 A-73.23727455087271
G1 X102.00078705789325 Y107.01365245741596 Z0.2 A-72.55949906863896
G1 X102.03741582588037 Y106.91254612742823 Z0.2 A-71.88172358640519
G1 X102.07271464364871 Y106.81100463310143 Z0.2 A-71.20394810417143
G1 X102.11513554503712 Y106.71881309894873 Z0.2 A-70.49091581196824
G1 X102.15609665875961 Y106.62610436638552 Z0.2 A-69.77788351976506
G1 X102.19560453409943 Y106.53286030922114 Z0.2 A-69.06485122756187
G1 X102.233665945403 Y106.43906288417067 Z0.2 A-68.35181893535868
G1 X102.28183304224407 Y106.34518593080654 Z0.2 A-67.66206846510019
G1 X102.32865967353686 Y106.25075817547362 Z0.2 A-66.97231799484172
G1 X102.37415256703615 Y106.15576352139041 Z0.2 A-66.28256752458324
G1 X102.41831864378425 Y106.06018595393132 Z0.2 A-65.59281705432477
G1 X102.47021095329163 Y105.97079593875972 Z0.2 A-64.89018185279761
G1 X102.52074151813542 Y105.88076775120211 Z0.2 A-64.18754665127047
G1 X102.56991826661154 Y105.79008474018313 Z0.2 A-63.48491144974333
G1 X102.61774933061166 Y105.69873035310411 Z0.2 A-62.78227624821619
G1 X102.67486819080428 Y105.60981431441908 Z0.2 A-62.09341181341483
G1 X102.7307096486973 Y105.52022173796023 Z0.2 A-61.404547378613444
G1 X102.7852819304003 Y105.429937314847 Z0.2 A-60.71568294381206
G1 X102.83859344548183 Y105.33894583620511 Z0.2 A-60.026818509010695
G1 X102.89873323740461 Y105.2553758396008 Z0.2 A-59.32200911037634
G1 X102.95757161529265 Y105.17103379589271 Z0.2 A-58.617199711741996
G1 X103.01511817451083 Y105.08590375488477 Z0.2 A-57.912390313107615
G1 X103.07138270590039 Y104.99996988561966 Z0.2 A-57.20758091447326
G1 X103.13626790820264 Y104.91811735632865 Z0.2 A-56.512040459877795
G1 X103.19992408420998 Y104.83545172364974 Z0.2 A-55.81650000528236
G1 X103.26236119488264 Y104.75195812813176 Z0.2 A-55.12095955068689
G1 X103.32358938082841 Y104.66762183233624 Z0.2 A-54.42541909609143
G1 X103.39169971239906 Y104.59018079278141 Z0.2 A-53.7209766607922
G1 X103.45859146568915 Y104.51184530517399 Z0.2 A-53.016534225493004
G1 X103.52427572961811 Y104.43260045526954 Z0.2 A-52.3120917901938
G1 X103.58876377563087 Y104.35243146628386 Z0.2 A-51.607649354894576
G1 X103.66114715564139 Y104.27755200952532 Z0.2 A-50.910749358197855
G1 X103.73238226516754 Y104.20173973631074 Z0.2 A-50.21384936150117
G1 X103.80248053490071 Y104.12498074934274 Z0.2 A-49.516949364804475
G1 X103.87145356371815 Y104.04726129138221 Z0.2 A-48.82004936810776
G1 X103.94633041409821 Y103.97701958549807 Z0.2 A-48.125443695083284
G1 X104.02011292065708 Y103.9057968579175 Z0.2 A-47.43083802205878
G1 X104.09281305659991 Y103.83357991415456 Z0.2 A-46.73623234903428
G1 X104.16444295420682 Y103.76035570584234 Z0.2 A-46.041626676009805
G1 X104.30985624724644 Y103.63746047408932 Z0.2 A-45.17885350984857
G1 X104.4536612062507 Y103.51296691818193 Z0.2 A-44.31608034368737
G1 X104.5958820805884 Y103.38685100157454 Z0.2 A-43.45330717752616
G1 X104.73654347881332 Y103.25908905558546 Z0.2 A-42.59053401136493
G1 X104.86443180740707 Y103.17325435242032 Z0.2 A-41.5285512652872
G1 X104.9900424896888 Y103.08484782195556 Z0.2 A-40.46656851920947
G1 X105.11342358322499 Y102.99382769197916 Z0.2 A-39.40458577313171
G1 X105.23462391153487 Y102.90015308815485 Z0.2 A-38.34260302705397
G1 X105.3716655206663 Y102.82088939069506 Z0.2 A-37.30562927117818
G1 X105.50672195511723 Y102.73902031003607 Z0.2 A-36.268655515302406
G1 X105.63984069124078 Y102.65451034594177 Z0.2 A-35.231681759426614
G1 X105.77106984008435 Y102.56732486319902 Z0.2 A-34.19470800355082
G1 X105.91419651109045 Y102.4981674932099 Z0.2 A-33.14738932662582
G1 X106.05549624078218 Y102.42621266129903 Z0.2 A-32.10007064970085
G1 X106.19502046677117 Y102.35142744171657 Z0.2 A-31.05275197277587
G1 X106.33282121989745 Y102.27377985439718 Z0.2 A-30.00543329585087
G1 X106.39873427546549 Y102.25020054788806 Z0.2 A-29.123808807101284
G1 X106.46349501023835 Y102.2245529525101 Z0.2 A-28.242184318351725
G1 X106.52713538465163 Y102.19681958276165 Z0.2 A-27.360559829602167
G1 X106.58968762440055 Y102.16698344697483 Z0.2 A-26.478935340852583
G1 X106.68669375272563 Y102.12984853607709 Z0.2 A-25.79129927462756
G1 X106.78307319462814 Y102.09141675949941 Z0.2 A-25.10366320840251
G1 X106.87884155921755 Y102.05168068963356 Z0.2 A-24.41602714217746
G1 X106.97401454361963 Y102.0106330867347 Z0.2 A-23.728391075952434
G1 X107.15335316093528 Y101.95322067951346 Z0.2 A-22.854066300818694
G1 X107.33178739048415 Y101.89366248912056 Z0.2 A-21.979741525684954
G1 X107.50935008061342 Y101.83194496510532 Z0.2 A-21.10541675055119
G1 X107.68607428261554 Y101.76805505983596 Z0.2 A-20.23109197541745
G1 X107.83910168345105 Y101.7362434435437 Z0.2 A-19.182923453159766
G1 X107.9910294385221 Y101.70127104182204 Z0.2 A-18.13475493090211
G1 X108.14191555199041 Y101.66311826777788 Z0.2 A-17.086586408644425
G1 X108.29181837661434 Y101.62176659886411 Z0.2 A-16.038417886386743
G1 X108.44857996569577 Y101.60053786666823 Z0.2 A-14.999344635664372
G1 X108.60449039154963 Y101.57613240471687 Z0.2 A-13.960271384941999
G1 X108.75960740176896 Y101.54853530017739 Z0.2 A-12.921198134219601
G1 X108.91398900488402 Y101.51773268987901 Z0.2 A-11.882124883497228
G1 X109.06977841965005 Y101.50853053713928 Z0.2 A-10.833338441468985
G1 X109.2249380881015 Y101.49603754291444 Z0.2 A-9.784551999440742
G1 X109.37952835049258 Y101.48024273178987 Z0.2 A-8.7357655574125
G1 X109.53360973786006 Y101.4611362346429 Z0.2 A-7.686979115384258
G1 X109.69019810608961 Y101.46366801085631 Z0.2 A-6.627839666056698
G1 X109.84639208148624 Y101.46280559481539 Z0.2 A-5.568700216729112
G1 X110.00225447110046 Y101.45854227630089 Z0.2 A-4.509560767401552
G1 X110.15784819528662 Y101.45087250719173 Z0.2 A-3.4504213180739916
G1 X114.75354500558363 Y101.45726622488856 Z0.2 A-2.5923438672977657
G1 X119.3491403730431 Y101.46141939113133 Z0.2 A-1.7342664165215405
G1 X123.94466786290538 Y101.46333073800153 Z0.2 A-0.8761889657453149
G1 X128.5401610556347 Y101.46299950038635 Z0.2 A-0.01811151496908934
G1 X127.42027209681706 Y104.04573603065221 Z0.2 A6.411753593242981
G1 X126.31443228615939 Y106.50345310771979 Z0.2 A12.841618701455078
G1 X125.23655379268413 Y108.83851046449 Z0.2 A19.27148380966715
G1 X124.20019701423767 Y111.05481097125532 Z0.2 A25.70134891787922
G1 X123.21839997905008 Y113.1577515351063 Z0.2 A32.131214026091286
G1 X122.30351431903728 Y115.15415520340352 Z0.2 A38.561079134303384
G1 X121.46704987840604 Y117.0521853254969 Z0.2 A44.990944242515454
G1 X120.71952991248429 Y118.86124285259231 Z0.2 A51.420809350727524
G1 X120.07035869846776 Y120.59184806779894 Z0.2 A57.85067445893962
G1 X119.5277032236243 Y122.25550823426833 Z0.2 A64.28053956715172
G1 X119.09839043939317 Y123.86457282649614 Z0.2 A70.71040467536376
G1 X118.78782137398855 Y125.43207816606864 Z0.2 A77.14026978357586
G1 X118.59990318402517 Y126.97158341643572 Z0.2 A83.57013489178796
G1 X118.537 Y128.497 Z0.2 A90.0
G1 X118.62630761056937 Y129.46666128743115 Z0.2 A84.73549988898
G1 X118.79962456775058 Y130.4285817596831 Z0.2 A79.47099977796002
G1 X119.05588625030629 Y131.37508590713512 Z0.2 A74.20649966694006
G1 X119.39332827198932 Y132.2986282803315 Z0.2 A68.94199955592002
G1 X119.80950136682615 Y133.19185714733285 Z0.2 A63.67749944490008
G1 X120.30129205240364 Y134.04767651676525 Z0.2 A58.41299933388008
G1 X120.86494889683213 Y134.85930600330806 Z0.2 A53.14849922286009
G1 X121.49611416778357 Y135.62033803056502 Z0.2 A47.88399911184009
G1 X119.62398652174628 Y134.6172528406579 Z0.2 A55.22476297812369
G1 X117.88650552869511 Y133.52067206730933 Z0.2 A62.56552684440734
G1 X116.29451355259117 Y132.34856585962794 Z0.2 A69.90629071069094
G1 X114.85646804023831 Y131.12014241140727 Z0.2 A77.24705457697453
G1 X113.57830288325809 Y129.85553309233418 Z0.2 A84.58781844325813
G1 X112.46333114724257 Y128.57546244611018 Z0.2 A91.92858230954178
G1 X111.51219076258964 Y127.30090846501426 Z0.2 A99.26934617582538
G1 X110.72283406727965 Y126.05275870983029 Z0.2 A106.61011004210903
G1 X110.0905613730125 Y124.85146791216576 Z0.2 A113.95087390839262
G1 X109.60809800447481 Y123.71672267188788 Z0.2 A121.29163777467623
G1 X109.26571354887746 Y122.66711874609885 Z0.2 A128.6324016409598
G1 X109.05138136097439 Y121.71985621966404 Z0.2 A135.9731655072434
G1 X108.95097570888991 Y120.89045755418667 Z0.2 A143.31392937352706
G1 X108.94850332905668 Y120.19251313728874 Z0.2 A150.65469323981065
G1 X109.02636559451881 Y119.63745850326109 Z0.2 A157.9954571060943
G1 X109.1656469990266 Y119.23438687697542 Z0.2 A165.3362209723779
G1 X109.34642522797087 Y118.98990011391801 Z0.2 A172.67698483866153
G1 X109.54809773334303 Y118.9080004797976 Z0.2 A-179.98225129505488
G1 X109.3525062871796 Y118.8881821196627 Z0.2 A-179.11900665217527
G1 X109.15687993926745 Y118.87063343080546 Z0.2 A-178.25576200929567
G1 X108.9611844989472 Y118.85535362979911 Z0.2 A-177.39251736641606
G1 X108.76538579124298 Y118.84234141819303 Z0.2 A-176.52927272353648
G1 X108.60526090016789 Y118.80905689743811 Z0.2 A-175.48321803332894
G1 X108.4448735219548 Y118.77909514890588 Z0.2 A-174.4371633431214
G1 X108.28416303953907 Y118.75245082684847 Z0.2 A-173.39110865291386
G1 X108.12306894355075 Y118.72911747977871 Z0.2 A-172.34505396270632
G1 X107.96681001065379 Y118.68424510917723 Z0.2 A-171.2930339298783
G1 X107.81004073503398 Y118.6427051334536 Z0.2 A-170.2410138970503
G1 X107.65270001934047 Y118.60448762090644 Z0.2 A-169.18899386422228
G1 X107.49472695886901 Y118.56958151974997 Z0.2 A-168.13697383139427
G1 X107.34107445689567 Y118.51324852478679 Z0.2 A-167.09075210083356
G1 X107.18667707240093 Y118.46016544713636 Z0.2 A-166.0445303702729
G1 X107.03147558932613 Y118.41031814419759 Z0.2 A-164.9983086397122
G1 X106.8754110597143 Y118.36369139450095 Z0.2 A-163.95208690915152
G1 X106.7269479806308 Y118.29642980402504 Z0.2 A-162.90272914271011
G1 X106.57749878237185 Y118.23237418738356 Z0.2 A-161.8533713762687
G1 X106.42700491699925 Y118.17150594738705 Z0.2 A-160.80401360982734
G1 X106.2754081869777 Y118.1138054177342 Z0.2 A-159.75465584338593
G1 X106.13094284398521 Y118.0355311398628 Z0.2 A-158.71272591501054
G1 X105.98527695335828 Y117.96033812943358 Z0.2 A-157.67079598663517
G1 X105.83835468350847 Y117.888204046091 Z0.2 A-156.6288660582598
G1 X105.69012061831823 Y117.81910553792585 Z0.2 A-155.5869361298844
G1 X105.55346033101648 Y117.73107316752525 Z0.2 A-154.53427815530884
G1 X105.41534874674923 Y117.64608819507859 Z0.2 A-153.48162018073327
G1 X105.27573012574256 Y117.56412344405393 Z0.2 A-152.4289622061577
G1 X105.13454923689822 Y117.48515071849296 Z0.2 A-151.37630423158217
G1 X105.0005286505368 Y117.38533985106051 Z0.2 A-150.34159979409324
G1 X104.86489433852073 Y117.28836292486987 Z0.2 A-149.30689535660434
G1 X104.72759538862203 Y117.19419033713426 Z0.2 A-148.27219091911542
G1 X104.58858143148211 Y117.10279157051997 Z0.2 A-147.2374864816265
G1 X104.5330189685042 Y117.05167870704449 Z0.2 A-146.3545634053641
G1 X104.47614084961116 Y117.00254266206535 Z0.2 A-145.4716403291017
G1 X104.41791676961256 Y116.95536292753106 Z0.2 A-144.58871725283927
G1 X104.35831674293084 Y116.9101185308431 Z0.2 A-143.70579417657686
G1 X104.27734721716669 Y116.83790997423615 Z0.2 A-143.0165205114385
G1 X104.19550706934245 Y116.76685746550467 Z0.2 A-142.32724684630017
G1 X104.11278245542674 Y116.6969504475828 Z0.2 A-141.63797318116178
G1 X104.0291596593894 Y116.62817819762762 Z0.2 A-140.94869951602342
G1 X103.89050505455654 Y116.48974284054195 Z0.2 A-140.07192208066814
G1 X103.75034750862577 Y116.35310319186479 Z0.2 A-139.1951446453128
G1 X103.60865971953612 Y116.21823604326008 Z0.2 A-138.3183672099575
G1 X103.46541474355848 Y116.0851177713314 Z0.2 A-137.44158977460222
G1 X103.41849193287294 Y116.02463527843389 Z0.2 A-136.56555456733068
G1 X103.36996189459077 Y115.96585033562847 Z0.2 A-135.68951936005917
G1 X103.31979886255485 Y115.90873817142847 Z0.2 A-134.81348415278762
G1 X103.26797745235348 Y115.85327362330113 Z0.2 A-133.9374489455161
G1 X103.19978645942857 Y115.76753326302652 Z0.2 A-133.24517684653947
G1 X103.13053208249535 Y115.68279306582293 Z0.2 A-132.5529047475628
G1 X103.06020231506825 Y115.5990401107393 Z0.2 A-131.86063264858615
G1 X102.98878530765074 Y115.51626133270372 Z0.2 A-131.16836054960947
G1 X102.92509412577563 Y115.42757410598534 Z0.2 A-130.4732218918732
G1 X102.8602832196608 Y115.33984230941437 Z0.2 A-129.7780832341369
G1 X102.79434108028293 Y115.25305228799921 Z0.2 A-129.08294457640056
G1 X102.72725636513027 Y115.16719024812397 Z0.2 A-128.3878059186643
G1 X102.66948827189273 Y115.0771456750224 Z0.2 A-127.67888648335365
G1 X102.61050856042195 Y114.98803683392188 Z0.2 A-126.969967048043
G1 X102.55030574596412 Y114.89984866225389 Z0.2 A-126.26104761273234
G1 X102.48886853100859 Y114.81256595650584 Z0.2 A-125.5521281774217
G1 X102.43310324891507 Y114.71682411590723 Z0.2 A-124.86659381709536
G1 X102.37616339703149 Y114.62190064884793 Z0.2 A-124.18105945676908
G1 X102.31803926796289 Y114.52778144355604 Z0.2 A-123.49552509644276
G1 X102.25872132385004 Y114.43445227312516 Z0.2 A-122.80999073611643
G1 X102.21043047731285 Y114.33985100255437 Z0.2 A-122.09772206955516
G1 X102.16083046822787 Y114.24607089557315 Z0.2 A-121.38545340299387
G1 X102.10991118977562 Y114.15309561438298 Z0.2 A-120.67318473643257
G1 X102.05766273901453 Y114.06090869680867 Z0.2 A-119.96091606987129
G1 X102.01183765982384 Y113.96069565639881 Z0.2 A-119.27194840438798
G1 X101.96475128346918 Y113.86118961118 Z0.2 A-118.58298073890471
G1 X101.9163951998994 Y113.76237534361611 Z0.2 A-117.8940130734214
G1 X101.86676118265409 Y113.6642375361448 Z0.2 A-117.2050454079381
G1 X101.82634379631091 Y113.56276827956856 Z0.2 A-116.50962673192281
G1 X101.78460816264527 Y113.4619565534335 Z0.2 A-115.81420805590753
G1 X101.74154639827663 Y113.36178630967765 Z0.2 A-115.11878937989225
G1 X101.69715081518116 Y113.26224140574014 Z0.2 A-114.42337070387696
G1 X101.66129350302559 Y113.1582129919133 Z0.2 A-113.73322576175931
G1 X101.62410801698788 Y113.05476852451372 Z0.2 A-113.04308081964167
G1 X101.58558741977804 Y112.95189196331168 Z0.2 A-112.35293587752405
G1 X101.5457249678141 Y112.84956718568131 Z0.2 A-111.6627909354064
G1 X101.51672443830154 Y112.74759003179348 Z0.2 A-110.94925680391175
G1 X101.48627554448314 Y112.64616738163737 Z0.2 A-110.2357226724171
G1 X101.45437149332619 Y112.54528115544704 Z0.2 A-109.52218854092246
G1 X101.42100571747571 Y112.44491319026346 Z0.2 A-108.8086544094278
G1 X101.39505710921242 Y112.3368577757525 Z0.2 A-108.12488434825742
G1 X101.36775497259906 Y112.22924541324915 Z0.2 A-107.44111428708703
G1 X101.33909411674571 Y112.12205991852719 Z0.2 A-106.75734422591665
G1 X101.30906954427074 Y112.01528504656609 Z0.2 A-106.07357416474628
G1 X101.28981141333855 Y111.91062165785144 Z0.2 A-105.3706864493094
G1 X101.26910216567914 Y111.80635717464399 Z0.2 A-104.66779873387254
G1 X101.24693701695293 Y111.70247376550186 Z0.2 A-103.96491101843569
G1 X101.22331140192568 Y111.5989535416336 Z0.2 A-103.26202330299883
G1 X101.19829278323756 Y111.40499087913923 Z0.2 A-102.38478204428112
G1 X101.17098457013844 Y111.21153097914059 Z0.2 A-101.50754078556342
G1 X101.14137933361603 Y111.01853872867609 Z0.2 A-100.63029952684572
G1 X101.10947018311347 Y110.82597890516047 Z0.2 A-99.75305826812802
G1 X101.10906903331409 Y110.74840288616677 Z0.2 A-98.88256306347144
G1 X101.10638733599325 Y110.67118328035542 Z0.2 A-98.01206785881487
G1 X101.10141993957257 Y110.59428539954972 Z0.2 A-97.14157265415828
G1 X101.0941622200657 Y110.51767448131136 Z0.2 A-96.2710774495017
G1 X101.09269763108595 Y110.40875122790816 Z0.2 A-95.57507118863005
G1 X101.08976439823466 Y110.29997133118778 Z0.2 A-94.87906492775838
G1 X101.08536088847318 Y110.19131694051245 Z0.2 A-94.18305866688672
G1 X101.07948568572047 Y110.08277018672435 Z0.2 A-93.48705240601507
G1 X101.08342738548403 Y109.97463014224354 Z0.2 A-92.78635977384947
G1 X101.08587529138467 Y109.8665628000018 Z0.2 A-92.08566714168389
G1 X101.08682862604329 Y109.75854988682502 Z0.2 A-91.38497450951832
G1 X101.0862868356032 Y109.65057312139892 Z0.2 A-90.68428187735272
G1 X101.09524999994206 Y109.53971595466298 Z0.2 A-90.00019506541234
G1 X101.10278764855707 Y109.42885879278025 Z0.2 A-89.31610825347197
G1 X101.1088998829951 Y109.31798461611393 Z0.2 A-88.63202144153159
G1 X101.11358700799798 Y109.20707640745272 Z0.2 A-87.94793462959122
G1 X101.12807682638605 Y109.10253955251824 Z0.2 A-87.23130983305391
G1 X101.1410041251485 Y108.99792713349842 Z0.2 A-86.5146850365166
G1 X101.15236997159167 Y108.89321961365805 Z0.2 A-85.79806023997928
G1 X101.16217567728705 Y108.788397471139 Z0.2 A-85.08143544344198
G1 X101.18190289525089 Y108.67981332934433 Z0.2 A-84.39289384213488
G1 X101.20019288108138 Y108.571088085737 Z0.2 A-83.70435224082777
G1 X101.21704743418141 Y108.46220447924574 Z0.2 A-83.01581063952067
G1 X101.23246856125076 Y108.3531452716691 Z0.2 A-82.32726903821357
G1 X101.25727882634416 Y108.24711502716575 Z0.2 A-81.63165189983235
G1 X101.28063081059321 Y108.14087026557976 Z0.2 A-80.93603476145114
G1 X101.30252722581835 Y108.03439329844595 Z0.2 A-80.24041762306993
G1 X101.32297099838722 Y107.92766647152561 Z0.2 A-79.54480048468871
G1 X101.35297124683278 Y107.82264183919294 Z0.2 A-78.84936045772417
G1 X101.38152608266726 Y107.71733230128302 Z0.2 A-78.15392043075964
G1 X101.40863907038016 Y107.61172033520212 Z0.2 A-77.45848040379511
G1 X101.43431398687756 Y107.50578846291096 Z0.2 A-76.76304037683057
G1 X101.46897824908253 Y107.40484224578866 Z0.2 A-76.05388674143636
G1 X101.50215576928223 Y107.30352682710958 Z0.2 A-75.34473310604214
G1 X101.53385123086882 Y107.20182383411883 Z0.2 A-74.63557947064794
G1 X101.56406954427074 Y107.09971495343392 Z0.2 A-73.92642583525372
G1 X101.6045941167457 Y106.99619008147282 Z0.2 A-73.24265577408335
G1 X101.64375497259906 Y106.89225458675087 Z0.2 A-72.55888571291297
G1 X101.68155710921242 Y106.7878922242475 Z0.2 A-71.87511565174258
G1 X101.7180057174757 Y106.68308680973654 Z0.2 A-71.1913455905722
G1 X101.76212149332619 Y106.58671884455296 Z0.2 A-70.47781145907754
G1 X101.80477554448314 Y106.48983261836263 Z0.2 A-69.76427732758292
G1 X101.84597443830154 Y106.39240996820651 Z0.2 A-69.05074319608826
G1 X101.8857249678141 Y106.29443281431868 Z0.2 A-68.33720906459361
G1 X101.93583741977805 Y106.19635803668831 Z0.2 A-67.64706412247597
G1 X101.98460801698788 Y106.09773147548627 Z0.2 A-66.95691918035833
G1 X102.03204350302558 Y105.9985370080867 Z0.2 A-66.26677423824069
G1 X102.07815081518116 Y105.89875859425986 Z0.2 A-65.57662929612304
G1 X102.13254639827662 Y105.80421369032234 Z0.2 A-64.88121062010775
G1 X102.18560816264528 Y105.70904344656651 Z0.2 A-64.18579194409247
G1 X102.23734379631092 Y105.61323172043144 Z0.2 A-63.49037326807719
G1 X102.2877611826541 Y105.5167624638552 Z0.2 A-62.79495459206189
G1 X102.3471451998994 Y105.42387465638389 Z0.2 A-62.10598692657859
G1 X102.40525128346917 Y105.33031038882 Z0.2 A-61.417019261095284
G1 X102.46208765982382 Y105.2360543436012 Z0.2 A-60.72805159561201
G1 X102.51766273901453 Y105.14109130319135 Z0.2 A-60.039083930128704
G1 X102.5796611897756 Y105.05490438561704 Z0.2 A-59.326815263567426
G1 X102.64033046822787 Y104.96792910442684 Z0.2 A-58.61454659700615
G1 X102.69968047731285 Y104.88014899744563 Z0.2 A-57.90227793044487
G1 X102.75772132385003 Y104.79154772687484 Z0.2 A-57.19000926388359
G1 X102.82628926796289 Y104.70421855644396 Z0.2 A-56.504474903557266
G1 X102.8936633970315 Y104.61609935115206 Z0.2 A-55.81894054323097
G1 X102.95985324891507 Y104.52717588409277 Z0.2 A-55.13340618290466
G1 X103.0248685310086 Y104.43743404349416 Z0.2 A-54.447871822578335
G1 X103.09530574596413 Y104.3571513377461 Z0.2 A-53.73895238726769
G1 X103.16450856042195 Y104.27596316607811 Z0.2 A-53.03003295195702
G1 X103.23248827189272 Y104.19385432497761 Z0.2 A-52.32111351664635
G1 X103.29925636513028 Y104.11080975187602 Z0.2 A-51.61219408133571
G1 X103.37484108028293 Y104.0321977120008 Z0.2 A-50.91705542359942
G1 X103.4492832196608 Y103.95265769058562 Z0.2 A-50.221916765863114
G1 X103.52259412577563 Y103.87217589401465 Z0.2 A-49.526778108126805
G1 X103.59478530765074 Y103.79073866729628 Z0.2 A-48.83163945039052
G1 X103.67239044547868 Y103.71792372487104 Z0.2 A-48.12810495316628
G1 X103.74887287773484 Y103.64410242998073 Z0.2 A-47.42457045594204
G1 X103.82424504574014 Y103.56926107314227 Z0.2 A-46.72103595871779
G1 X103.89851955821199 Y103.49338609866912 Z0.2 A-46.01750146149355
G1 X104.04894444986148 Y103.36588793053987 Z0.2 A-45.15722183864003
G1 X104.19777089058651 Y103.23680005992458 Z0.2 A-44.29694221578653
G1 X104.34502292859035 Y103.10609866663407 Z0.2 A-43.436662592933025
G1 X104.49072496700545 Y102.97376029422733 Z0.2 A-42.5763829700795
G1 X104.62470936284636 Y102.882865450274 Z0.2 A-41.52110912369907
G1 X104.7564451278374 Y102.78943087755533 Z0.2 A-40.46583527731864
G1 X104.885979417449 Y102.69341559387759 Z0.2 A-39.41056143093821
G1 X105.01336013392128 Y102.59477949245837 Z0.2 A-38.35528758455778
G1 X105.15554782863569 Y102.51208594970112 Z0.2 A-37.315587062149206
G1 X105.29573943986765 Y102.42677365104694 Z0.2 A-36.27588653974061
G1 X105.4339828141012 Y102.33880680830485 Z0.2 A-35.23618601733202
G1 X105.57032643932696 Y102.24815050736005 Z0.2 A-34.196485494923444
G1 X105.71877367369183 Y102.17603036576159 Z0.2 A-33.146206574923156
G1 X105.86538368282314 Y102.10109688837404 Z0.2 A-32.09592765492289
G1 X106.01020834326229 Y102.02331687188293 Z0.2 A-31.045648734922622
G1 X106.15330013144514 Y101.94265806943864 Z0.2 A-29.99536981492233
G1 X106.2262964271287 Y101.9151086989985 Z0.2 A-29.130775491537023
G1 X106.29818424765278 Y101.8855703066472 Z0.2 A-28.266181168151714
G1 X106.3689937324563 Y101.85402639256421 Z0.2 A-27.401586844766378
G1 X106.43875526651989 Y101.82046091359503 Z0.2 A-26.53699252138107
G1 X106.5374936564668 Y101.78292252369211 Z0.2 A-25.82980395059742
G1 X106.63556829323225 Y101.74401291513884 Z0.2 A-25.122615379813798
G1 X106.73299615158031 Y101.70372400003815 Z0.2 A-24.41542680903015
G1 X106.82979430480654 Y101.66204790061931 Z0.2 A-23.7082382382465
G1 X107.01616348166027 Y101.6018932619223 Z0.2 A-22.84045224770059
G1 X107.2016422494255 Y101.53962460299715 Z0.2 A-21.972666257154707
G1 X107.38626272736714 Y101.47522868093625 Z0.2 A-21.10488026660882
G1 X107.570057231632 Y101.40869274080177 Z0.2 A-20.23709427606291
G1 X107.73020769817857 Y101.37468455361216 Z0.2 A-19.192666501099197
G1 X107.88926582001992 Y101.33753828650197 Z0.2 A-18.14823872613549
G1 X108.04728897859664 Y101.29723454990122 Z0.2 A-17.103810951171752
G1 X108.20433489924332 Y101.25375500339257 Z0.2 A-16.059383176208044
G1 X108.3658167568546 Y101.23188937775942 Z0.2 A-15.008163983077134
G1 X108.52642693618124 Y101.20677245763771 Z0.2 A-13.956944789946197
G1 X108.68622523285268 Y101.17838879824919 Z0.2 A-12.905725596815287
G1 X108.84527171578748 Y101.14672405443801 Z0.2 A-11.854506403684377
G1 X109.00785456709187 Y101.13672150256934 Z0.2 A-10.804616312086404
G1 X109.16980799928109 Y101.12342086384808 Z0.2 A-9.75472622048843
G1 X109.33119254891213 Y101.10681115910377 Z0.2 A-8.704836128890483
G1 X109.49206894355054 Y101.08688252022131 Z0.2 A-7.65494603729251
G1 X109.65716303953896 Y101.08854917315152 Z0.2 A-6.608891347085549
G1 X109.8218735219548 Y101.08690485109412 Z0.2 A-5.562836656878613
G1 X109.986260900168 Y101.08194310256191 Z0.2 A-4.516781966671651
G1 X110.15038579124318 Y101.07365858180698 Z0.2 A-3.4707272764646904
G1 X114.84218449894736 Y101.08014637020086 Z0.2 A-2.6074826335847954
G1 X119.53387993926756 Y101.08436656919451 Z0.2 A-1.7442379907049008
G1 X124.22550628717963 Y101.0863178803373 Z0.2 A-0.8809933478250315
G1 X128.917097733343 Y101.08599952020239 Z0.2 A-0.017748704945136713
G1 X127.79721366535021 Y103.7225866070586 Z0.2 A6.412090488265221
G1 X126.69137936748795 Y106.23415533002581 Z0.2 A12.841929681475603
G1 X125.61350682739916 Y108.62306547215813 Z0.2 A19.27176887468596
G1 X124.57715625884042 Y110.89321992714049 Z0.2 A25.70160806789632
G1 X123.59536550693136 Y113.05001559879595 Z0.2 A32.1314472611067
G1 X122.68048602508134 Y115.1002755051456 Z0.2 A38.56128645431706
G1 X121.84402748709127 Y117.05216294118814 Z0.2 A44.99112564752745
G1 X121.09651298929379 Y118.9150787802774 Z0.2 A51.4209648407378
G1 X120.44734666436625 Y120.69954320610117 Z0.2 A57.85080403394816
G1 X119.90469537230572 Y122.41706336313706 Z0.2 A64.28064322715852
G1 X119.47538595695686 Y124.07998859061273 Z0.2 A70.71048242036893
G1 X119.16481936066053 Y125.70135506120539 Z0.2 A77.14032161357929
G1 X118.976902677507 Y127.29472177900864 Z0.2 A83.57016080678964
G1 X118.91399999999999 Y128.874 Z0.2 A90.0
G1 X119.00330761056935 Y129.84366128743113 Z0.2 A84.73549988897996
G1 X119.17662456775057 Y130.80558175968312 Z0.2 A79.47099977795996
G1 X119.4328862503063 Y131.75208590713513 Z0.2 A74.20649966693996
G1 X119.77032827198931 Y132.6756282803315 Z0.2 A68.94199955591992
G1 X120.18650136682615 Y133.5688571473329 Z0.2 A63.67749944489992
G1 X120.67829205240366 Y134.42467651676526 Z0.2 A58.41299933387993
G1 X121.24194889683216 Y135.2363060033081 Z0.2 A53.14849922285988
G1 X121.87311416778361 Y135.99733803056506 Z0.2 A47.88399911183989
G1 X119.97939338055104 Y134.9943342753064 Z0.2 A55.224582460468625
G1 X118.22031233866475 Y133.89783910438163 Z0.2 A62.56516580909735
G1 X116.60671269224152 Y132.72582129179048 Z0.2 A69.90574915772609
G1 X115.14705141630299 Y131.4974875496352 Z0.2 A77.24633250635482
G1 X113.84726218729301 Y130.23296769908148 Z0.2 A84.58691585498354
G1 X112.71065812053496 Y128.9529847100698 Z0.2 A91.92749920361229
G1 X111.73787746291922 Y127.67851501836059 Z0.2 A99.26808255224101
G1 X110.92687313100559 Y126.43044468786461 Z0.2 A106.60866590086975
G1 X110.27294626602801 Y125.2292270543147 Z0.2 A113.94924924949848
G1 X109.76882325578048 Y124.09454746205073 Z0.2 A121.2898325981272
G1 X109.40477496087175 Y123.04500058942439 Z0.2 A128.630415946756
G1 X109.16877619103713 Y122.09778565198182 Z0.2 A135.97099929538467
G1 X109.04670281743353 Y121.26842447953535 Z0.2 A143.3115826440134
G1 X109.02256328992856 Y120.57050708829773 Z0.2 A150.65216599264218
G1 X109.07876076444126 Y120.01546891856195 Z0.2 A157.99274934127092
G1 X109.19638154364424 Y119.61240338936084 Z0.2 A165.33333268989966
G1 X109.35550510301756 Y119.36791284263892 Z0.2 A172.67391603852838
G1 X109.53553062042712 Y119.28600032020199 Z0.2 A-179.98550061284288
G1 X109.334685461134 Y119.26568872847503 Z0.2 A-179.1165473750205
G1 X109.13380483825506 Y119.24767692363574 Z0.2 A-178.24759413719806
G1 X108.93285387841925 Y119.23196410337822 Z0.2 A-177.37864089937565
G1 X108.73179772443343 Y119.21854893661623 Z0.2 A-176.50968766155324
G1 X108.56647050962117 Y119.18419993033687 Z0.2 A-175.4547124753444
G1 X108.4008746304451 Y119.15323047462773 Z0.2 A-174.39973728913552
G1 X108.23494790900602 Y119.12563505003789 Z0.2 A-173.34476210292667
G1 X108.06862827956736 Y119.10140699324815 Z0.2 A-172.28978691671784
G1 X107.90205803230131 Y119.0549155444381 Z0.2 A-171.25826550920198
G1 X107.73499519204084 Y119.01162759732536 Z0.2 A-170.2267441016861
G1 X107.56738216766374 Y118.97153376486625 Z0.2 A-169.19522269417024
G1 X107.39916154637089 Y118.93462362475576 Z0.2 A-168.1637012866544
G1 X107.24030186572207 Y118.87655623875179 Z0.2 A-167.1085187057793
G1 X107.08068551361383 Y118.8217949125242 Z0.2 A-166.05333612490415
G1 X106.92025173604895 Y118.77032515105603 Z0.2 A-164.99815354402904
G1 X106.75894005626384 Y118.72213134298104 Z0.2 A-163.9429709631539
G1 X106.60265044236212 Y118.65224208117728 Z0.2 A-162.9015154834388
G1 X106.4453894381892 Y118.5855106699959 Z0.2 A-161.86006000372367
G1 X106.28709980766877 Y118.52191893195823 Z0.2 A-160.81860452400858
G1 X106.12772465457023 Y118.46144765227548 Z0.2 A-159.77714904429345
G1 X105.97893162136434 Y118.38084511017188 Z0.2 A-158.72355548708384
G1 X105.82891160790088 Y118.30339343662743 Z0.2 A-157.66996192987423
G1 X105.67760688458415 Y118.22906953766288 Z0.2 A-156.61636837266462
G1 X105.52496015622242 Y118.15784926169232 Z0.2 A-155.56277481545501
G1 X105.37977129861316 Y118.0656976212992 Z0.2 A-154.5259582664375
G1 X105.23317406596868 Y117.97650214657239 Z0.2 A-153.48914171742004
G1 X105.08511519742812 Y117.89023686914163 Z0.2 A-152.45232516840258
G1 X104.93554191074519 Y117.80687486113978 Z0.2 A-151.4155086193851
G1 X104.79844681953618 Y117.70465901745854 Z0.2 A-150.36686129752144
G1 X104.65969550374528 Y117.60535473401423 Z0.2 A-149.31821397565778
G1 X104.51923495534746 Y117.50893121206198 Z0.2 A-148.2695666537941
G1 X104.3770127388535 Y117.41535668789808 Z0.2 A-147.22091933193047
G1 X104.31727110134275 Y117.36117803589698 Z0.2 A-146.33906165195248
G1 X104.2562164475588 Y117.3089710794587 Z0.2 A-145.45720397197448
G1 X104.19381858722124 Y117.25871537679186 Z0.2 A-144.57534629199648
G1 X104.13004764823933 Y117.21039002387636 Z0.2 A-143.69348861201848
G1 X104.04472908441527 Y117.13463919811889 Z0.2 A-143.00481479706707
G1 X103.95854117744058 Y117.06004223141696 Z0.2 A-142.31614098211566
G1 X103.87147012149231 Y116.9865885914942 Z0.2 A-141.62746716716424
G1 X103.7835022383357 Y116.91426758089823 Z0.2 A-140.93879335221283
G1 X103.64080712825972 Y116.77208281577104 Z0.2 A-140.06219285588105
G1 X103.496609378839 Y116.63169277923703 Z0.2 A-139.1855923595493
G1 X103.35088170844115 Y116.49307427241699 Z0.2 A-138.30899186321753
G1 X103.20359719354569 Y116.35620368176596 Z0.2 A-137.43239136688578
G1 X103.15185360904462 Y116.29099101421771 Z0.2 A-136.56467341070913
G1 X103.09853314454986 Y116.22744379238976 Z0.2 A-135.6969554545325
G1 X103.04361075945472 Y116.16553794509313 Z0.2 A-134.82923749835587
G1 X102.9870617805572 Y116.10524902468535 Z0.2 A-133.96151954217922
G1 X102.91696036471603 Y116.01709225802878 Z0.2 A-133.26044606142574
G1 X102.8457686275022 Y115.92996153806276 Z0.2 A-132.55937258067226
G1 X102.77347409610088 Y115.84384344709443 Z0.2 A-131.85829909991878
G1 X102.70006446280635 Y115.75872441582132 Z0.2 A-131.1572256191653
G1 X102.63341394741084 Y115.66632810156648 Z0.2 A-130.46377760196128
G1 X102.56564899092159 Y115.57488239209601 Z0.2 A-129.7703295847572
G1 X102.49675817011766 Y115.48437373009104 Z0.2 A-129.0768815675532
G1 X102.42673022669443 Y115.39478842097428 Z0.2 A-128.38343355034914
G1 X102.365717957343 Y115.30036937112953 Z0.2 A-127.67907690678065
G1 X102.30350961902727 Y115.20687405094135 Z0.2 A-126.97472026321215
G1 X102.24009394668579 Y115.11428768729557 Z0.2 A-126.27036361964362
G1 X102.17545985771464 Y115.02259536971258 Z0.2 A-125.56600697607512
G1 X102.11714294231354 Y114.922978782859 Z0.2 A-124.88122715917059
G1 X102.0576542498745 Y114.82417906834648 Z0.2 A-124.19644734226604
G1 X101.99698410133614 Y114.72618216348354 Z0.2 A-123.51166752536147
G1 X101.93512298639679 Y114.62897389090499 Z0.2 A-122.82688770845695
G1 X101.88527834041837 Y114.53141301725275 Z0.2 A-122.10744827529948
G1 X101.83409818179223 Y114.4346901510546 Z0.2 A-121.38800884214201
G1 X101.7815720935638 Y114.33878845720803 Z0.2 A-120.66856940898454
G1 X101.72768987098561 Y114.24369097113977 Z0.2 A-119.94912997582706
G1 X101.67903981296148 Y114.13825239640293 Z0.2 A-119.26664963848724
G1 X101.62915203429256 Y114.0335074510833 Z0.2 A-118.58416930114741
G1 X101.578018360793 Y113.92944134317706 Z0.2 A-117.90168896380759
G1 X101.52563079504804 Y113.82603918436516 Z0.2 A-117.21920862646776
G1 X101.48405383649637 Y113.72168590715033 Z0.2 A-116.51655712163846
G1 X101.44113114823023 Y113.61800407164469 Z0.2 A-115.81390561680918
G1 X101.39685459736997 Y113.51497712430462 Z0.2 A-115.11125411197989
G1 X101.35121625464811 Y113.41258841309548 Z0.2 A-114.4086026071506
G1 X101.31307494154771 Y113.3031719543277 Z0.2 A-113.72565921025718
G1 X101.27363295265286 Y113.19432714718673 Z0.2 A-113.04271581336374
G1 X101.23288356665701 Y113.0860384478815 Z0.2 A-112.35977241647032
G1 X101.19082024800264 Y112.9782902336117 Z0.2 A-111.6768290195769
G1 X101.16068497837806 Y112.87268128015897 Z0.2 A-110.95789992149683
G1 X101.12907944496949 Y112.76763546892843 Z0.2 A-110.23897082341676
G1 X101.09599669757483 Y112.66313430767376 Z0.2 A-109.52004172533671
G1 X101.06143001856779 Y112.55915921839774 Z0.2 A-108.80111262725664
G1 X101.03426239374825 Y112.44674901900918 Z0.2 A-108.11649713495012
G1 X101.00573782647189 Y112.33478276926402 Z0.2 A-107.4318816426436
G1 X100.9758511090686 Y112.2232442240298 Z0.2 A-106.74726615033708
G1 X100.94459722834515 Y112.11211707710984 Z0.2 A-106.06265065803058
G1 X100.92451995411551 Y112.00345049809674 Z0.2 A-105.35536323205181
G1 X100.90297323209516 Y111.89518744106212 Z0.2 A-104.64807580607304
G1 X100.87995219309646 Y111.78730973613143 Z0.2 A-103.94078838009428
G1 X100.85545219259494 Y111.67979915470848 Z0.2 A-103.2335009541155
G1 X100.82845295578628 Y111.47710966973945 Z0.2 A-102.37381978810348
G1 X100.79925477656491 Y111.27490260038589 Z0.2 A-101.51413862209145
G1 X100.76785066442697 Y111.07314490006532 Z0.2 A-100.65445745607943
G1 X100.73423412547653 Y110.87180342103163 Z0.2 A-99.7947762900674
G1 X100.73385081735955 Y110.79156429026504 Z0.2 A-98.90917388264744
G1 X100.73110729148657 Y110.71169514691748 Z0.2 A-98.02357147522747
G1 X100.72599811124182 Y110.63215946712022 Z0.2 A-97.13796906780752
G1 X100.7185184051742 Y110.5529206473387 Z0.2 A-96.25236666038755
G1 X100.71671021934655 Y110.43894513208015 Z0.2 A-95.55956310146344
G1 X100.71344683604586 Y110.3251112633634 Z0.2 A-94.86675954253933
G1 X100.70872664894631 Y110.21140143544643 Z0.2 A-94.17395598361522
G1 X100.70254826471776 Y110.0977980244515 Z0.2 A-93.4811524246911
G1 X100.7061149133902 Y109.98259823870598 Z0.2 A-92.79371325679273
G1 X100.70824375172505 Y109.86746861547829 Z0.2 A-92.10627408889434
G1 X100.70893404141515 Y109.75239189917335 Z0.2 A-91.41883492099596
G1 X100.70818525123548 Y109.63735082657996 Z0.2 A-90.73139575309757
G1 X100.7177496624262 Y109.52765163981665 Z0.2 A-90.01488750738352
G1 X100.72575023675407 Y109.41795285939453 Z0.2 A-89.29837926166944
G1 X100.73218709141699 Y109.30823492934218 Z0.2 A-88.58187101595537
G1 X100.73706058815317 Y109.19847829668298 Z0.2 A-87.86536277024132
G1 X100.7518706737004 Y109.08438136178721 Z0.2 A-87.17772143565168
G1 X100.76524213829367 Y108.97021350585456 Z0.2 A-86.49008010106205
G1 X100.77717593668602 Y108.85595746864615 Z0.2 A-85.8024387664724
G1 X100.78767323070733 Y108.74159600262455 Z0.2 A-85.11479743188278
G1 X100.80793760610406 Y108.62885146938066 Z0.2 A-84.42433760239352
G1 X100.8267566526048 Y108.51596584021024 Z0.2 A-83.73387777290428
G1 X100.84413217543215 Y108.4029217084142 Z0.2 A-83.04341794341502
G1 X100.86006618943709 Y108.2897016903111 Z0.2 A-82.35295811392577
G1 X100.88557994057106 Y108.18131658872375 Z0.2 A-81.6435147136907
G1 X100.90957681901061 Y108.07270867188049 Z0.2 A-80.93407131345563
G1 X100.93205969989086 Y107.96385917523719 Z0.2 A-80.22462791322056
G1 X100.95303169046551 Y107.8547493712875 Z0.2 A-79.51518451298548
G1 X100.9842202336728 Y107.74419806580386 Z0.2 A-78.82713192374102
G1 X101.01399401741737 Y107.63336732655108 Z0.2 A-78.13907933449657
G1 X101.04235649928876 Y107.52224018454639 Z0.2 A-77.4510267452521
G1 X101.06931134039904 Y107.41079971355107 Z0.2 A-76.76297415600763
G1 X101.10534102103858 Y107.30488807766761 Z0.2 A-76.05656795249809
G1 X101.1398954400625 Y107.19861016443687 Z0.2 A-75.35016174898854
G1 X101.17297922535523 Y107.09194781348887 Z0.2 A-74.64375554547898
G1 X101.20459722834515 Y106.98488292289016 Z0.2 A-73.93734934196944
G1 X101.2466011090686 Y106.8770057759702 Z0.2 A-73.25273384966292
G1 X101.28723782647188 Y106.76871723073597 Z0.2 A-72.5681183573564
G1 X101.32651239374825 Y106.66000098099083 Z0.2 A-71.88350286504989
G1 X101.36443001856779 Y106.55084078160226 Z0.2 A-71.19888737274337
G1 X101.40999669757483 Y106.45111569232624 Z0.2 A-70.4799582746633
G1 X101.4540794449695 Y106.35086453107158 Z0.2 A-69.76102917658324
G1 X101.49668497837807 Y106.25006871984102 Z0.2 A-69.04210007850318
G1 X101.53782024800265 Y106.1487097663883 Z0.2 A-68.3231709804231
G1 X101.59013356665702 Y106.04546155211848 Z0.2 A-67.64022758352968
G1 X101.64113295265285 Y105.94167285281327 Z0.2 A-66.95728418663626
G1 X101.6908249415477 Y105.83732804567231 Z0.2 A-66.27434078974284
G1 X101.7392162546481 Y105.73241158690452 Z0.2 A-65.5913973928494
G1 X101.79535459736996 Y105.63477287569538 Z0.2 A-64.88874588802011
G1 X101.85013114823025 Y105.5364959283553 Z0.2 A-64.18609438319083
G1 X101.90355383649637 Y105.43756409284966 Z0.2 A-63.483442878361565
G1 X101.95563079504805 Y105.33796081563484 Z0.2 A-62.78079137353227
G1 X102.01776836079301 Y105.24005865682292 Z0.2 A-62.09831103619244
G1 X102.07865203429256 Y105.14149254891672 Z0.2 A-61.41583069885259
G1 X102.13828981296147 Y105.04224760359708 Z0.2 A-60.73335036151276
G1 X102.19668987098561 Y104.94230902886024 Z0.2 A-60.05087002417294
G1 X102.2605720935638 Y104.85346154279199 Z0.2 A-59.33143059101546
G1 X102.3230981817922 Y104.7638098489454 Z0.2 A-58.61199115785798
G1 X102.38427834041836 Y104.67333698274724 Z0.2 A-57.892551724700525
G1 X102.44412298639679 Y104.58202610909501 Z0.2 A-57.17311229154305
G1 X102.51462960247918 Y104.49235805555622 Z0.2 A-56.47946580980392
G1 X102.58391433636741 Y104.40188062593195 Z0.2 A-55.785819328064825
G1 X102.65198707600658 Y104.3105790872832 Z0.2 A-55.0921728463257
G1 X102.71885788697583 Y104.21843882745522 Z0.2 A-54.39852636458657
G1 X102.79432430998074 Y104.13112323876067 Z0.2 A-53.7125010349415
G1 X102.86863516411223 Y104.04295918845125 Z0.2 A-53.026475705296434
G1 X102.94180069093001 Y103.95393290158627 Z0.2 A-52.34045037565139
G1 X103.01383129618867 Y103.86403072683586 Z0.2 A-51.654425046006324
G1 X103.09061903966595 Y103.78458389028364 Z0.2 A-50.940035577636
G1 X103.16619965512243 Y103.70415744716385 Z0.2 A-50.22564610926568
G1 X103.2405854502457 Y103.62273642299799 Z0.2 A-49.51125664089536
G1 X103.31378891847037 Y103.5403059979253 Z0.2 A-48.79686717252504
G1 X103.39749692446203 Y103.46044923840714 Z0.2 A-48.11828984145819
G1 X103.48016062520885 Y103.37965607894486 Z0.2 A-47.439712510391324
G1 X103.56179118385839 Y103.29791421736576 Z0.2 A-46.761135179324484
G1 X103.64239990847149 Y103.21521148456655 Z0.2 A-46.08255784825764
G1 X103.79527760148493 Y103.08601960534911 Z0.2 A-45.20260398909544
G1 X103.946481580319 Y102.95516580715619 Z0.2 A-44.3226501299332
G1 X104.0960375652615 Y102.82262458193715 Z0.2 A-43.442696270770966
G1 X104.24397166530646 Y102.68837081964861 Z0.2 A-42.56274241160876
G1 X104.38402093901071 Y102.59244620921088 Z0.2 A-41.51392815492191
G1 X104.52184934012453 Y102.49401258821811 Z0.2 A-40.46511389823507
G1 X104.65750316625609 Y102.39302972563718 Z0.2 A-39.41629964154825
G1 X104.79102944365559 Y102.28945824461762 Z0.2 A-38.3674853848614
G1 X104.93845803295963 Y102.20339208606885 Z0.2 A-37.32214466023984
G1 X105.08386852083174 Y102.1146789136749 Z0.2 A-36.27680393561826
G1 X105.22730953427087 Y102.02328235048871 Z0.2 A-35.23146321099671
G1 X105.36883035583035 Y101.9291669127502 Z0.2 A-34.18612248637515
G1 X105.52273133922762 Y101.85387417164016 Z0.2 A-33.13736344561666
G1 X105.67480084374607 Y101.77577594838216 Z0.2 A-32.08860440485817
G1 X105.82509052570786 Y101.69483919088397 Z0.2 A-31.039845364099698
G1 X105.9736526377433 Y101.61103179807013 Z0.2 A-29.991086323341204
G1 X106.05053526181555 Y101.581700695002 Z0.2 A-29.120863855107746
G1 X106.12629528121596 Y101.55035439661815 Z0.2 A-28.25064138687429
G1 X106.20096343153288 Y101.51697608560778 Z0.2 A-27.38041891864083
G1 X106.27457070022538 Y101.48154941340157 Z0.2 A-26.51019645040737
G1 X106.3805307199022 Y101.44050148795212 Z0.2 A-25.818900677520737
G1 X106.48585673350009 Y101.39814316128368 Z0.2 A-25.127604904634133
G1 X106.59056459728042 Y101.35446687943164 Z0.2 A-24.436309131747496
G1 X106.69467025748978 Y101.30946528028852 Z0.2 A-23.745013358860863
G1 X106.88461582472127 Y101.24833298769305 Z0.2 A-22.863471892275495
G1 X107.073641655128 Y101.18501949473017 Z0.2 A-21.981930425690123
G1 X107.26178141576014 Y101.11951090923529 Z0.2 A-21.10038895910478
G1 X107.44906898341671 Y101.05179385866212 Z0.2 A-20.218847492519412
G1 X107.6170683508611 Y101.01534201095073 Z0.2 A-19.18120464766872
G1 X107.78399013919712 Y100.97579250604701 Z0.2 A-18.143561802818056
G1 X107.94989062151868 Y100.93312633772852 Z0.2 A-17.10591895796737
G1 X108.11482640588088 Y100.88732552195567 Z0.2 A-16.068276113116678
G1 X108.28157247960648 Y100.86463784347686 Z0.2 A-15.008197929998365
G1 X108.44743211973011 Y100.83864384211658 Z0.2 A-13.948119746880053
G1 X108.61246664758399 Y100.80932768403676 Z0.2 A-12.888041563761767
G1 X108.77673766694365 Y100.77667467260291 Z0.2 A-11.827963380643455
G1 X108.94956040730665 Y100.76467071637417 Z0.2 A-10.798525806303267
G1 X109.12177834906014 Y100.74949585155471 Z0.2 A-9.769088231963105
G1 X109.29344855870836 Y100.73113972406304 Z0.2 A-8.739650657622942
G1 X109.46462827956746 Y100.70959300675183 Z0.2 A-7.7102130832827545
G1 X109.63444790900608 Y100.71111494996208 Z0.2 A-6.655237897073604
G1 X109.8038746304451 Y100.70926952537228 Z0.2 A-5.600262710864481
G1 X109.97297050962112 Y100.70405006966314 Z0.2 A-4.545287524655331
G1 X110.14179772443333 Y100.69545106338376 Z0.2 A-3.490312338446181
G1 X114.92985387841917 Y100.70228589662177 Z0.2 A-2.6213591006239154
G1 X119.71780483825502 Y100.70682307636426 Z0.2 A-1.7524058628016494
G1 X124.50568546113398 Y100.70906127152497 Z0.2 A-0.8834526249793583
G1 X129.2935306204271 Y100.70899967979801 Z0.2 A-0.014499387157092489
G1 X128.17369035627016 Y103.39938492562446 Z0.2 A6.415107711925563
G1 X127.06790543206773 Y105.96476156334246 Z0.2 A12.844714811008217
G1 X125.9900862110871 Y108.40748982509992 Z0.2 A19.274321910090848
G1 X124.9537912584453 Y110.73147281401934 Z0.2 A25.703929009173503
G1 X123.9720567794005 Y112.94210740461166 Z0.2 A32.13353610825616
G1 X123.057232628736 Y115.04621635210106 Z0.2 A38.56314320733881
G1 X122.22082695417825 Y117.05196246470071 Z0.2 A44.99275030642144
G1 X121.47336142817657 Y118.96874591851999 Z0.2 A51.42235740550412
G1 X120.8242388891753 Y120.80708600684359 Z0.2 A57.85196450458675
G1 X120.2816250574016 Y122.57848881133252 Z0.2 A64.28157160366938
G1 X119.85234581314067 Y124.29530245979427 Z0.2 A70.71117870275206
G1 X119.54180132969934 Y125.97056179132551 Z0.2 A77.1407858018347
G1 X119.35389814123336 Y127.61782438288186 Z0.2 A83.57039290091737
G1 X119.291 Y129.251 Z0.2 A90.0
G1 X119.3830921752842 Y130.2251413628549 Z0.2 A84.72554521617354
G1 X119.5595101291753 Y131.19149797821603 Z0.2 A79.45109043234703
G1 X119.81918118233193 Y132.14235102321823 Z0.2 A74.17663564852052
G1 X120.16032763194843 Y133.07011296597494 Z0.2 A68.90218086469405
G1 X120.58048180611537 Y133.96739182009955 Z0.2 A63.62772608086754
G1 X121.07650696113906 Y134.82705374326176 Z0.2 A58.353271297041026
G1 X121.64462384485172 Y135.6422834496681 Z0.2 A53.07881651321456
G1 X122.28044270096298 Y136.4066419248673 Z0.2 A47.80436172938808
G1 X120.36209579251073 Y135.40403611197962 Z0.2 A55.149510830573234
G1 X118.57843317574846 Y134.30764615545152 Z0.2 A62.494659931758356
G1 X116.94033957714213 Y133.1354605197621 Z0.2 A69.83980903294349
G1 X115.45631064666567 Y131.90671162691376 Z0.2 A77.18495813412866
G1 X114.13231352732409 Y130.64156021421724 Z0.2 A84.53010723531385
G1 X112.97168892249394 Y129.3607644565804 Z0.2 A91.87525633649898
G1 X111.97509626835085 Y128.08533928366026 Z0.2 A99.22040543768411
G1 X111.1405029112131 Y126.83621148315976 Z0.2 A106.56555453886924
G1 X110.46321746742267 Y125.63387625070935 Z0.2 A113.91070364005441
G1 X109.93596681826176 Y124.49806082303066 Z0.2 A121.2558527412396
G1 X109.54901547626568 Y123.44740071483037 Z0.2 A128.60100184242472
G1 X109.2903253638937 Y122.49913387301868 Z0.2 A135.94615094360984
G1 X109.14575338227279 Y121.66881776778915 Z0.2 A143.29130004479498
G1 X109.09928352751942 Y120.97007406365675 Z0.2 A150.63644914598015
G1 X109.13328974514941 Y120.41436506090888 Z0.2 A157.98159824716532
G1 X109.22882520861366 Y120.01080557650879 Z0.2 A165.32674734835047
G1 X109.36593327432472 Y119.76601335185967 Z0.2 A172.67189644953558
G1 X109.52397500978503 Y119.68400044253417 Z0.2 A-179.98295444927928
G1 X109.3151477106462 Y119.66342661210237 Z0.2 A-179.12106138670296
G1 X109.10628570010229 Y119.64511535265333 Z0.2 A-178.25916832412665
G1 X108.89735494779913 Y119.62906588605604 Z0.2 A-177.39727526155036
G1 X108.6883214389377 Y119.61527692237257 Z0.2 A-176.53538219897408
G1 X108.51699435094096 Y119.57994398551122 Z0.2 A-175.4732550818988
G1 X108.34539605227259 Y119.54803666274685 Z0.2 A-174.41112796482355
G1 X108.17346309045192 Y119.51954933819074 Z0.2 A-173.34900084774827
G1 X108.00113212799964 Y119.49447522072873 Z0.2 A-172.286873730673
G1 X107.82705449451011 Y119.44645344534958 Z0.2 A-171.25683678520718
G1 X107.65248560509617 Y119.40162594598536 Z0.2 A-170.22679983974137
G1 X107.47736811702137 Y119.35998337537261 Z0.2 A-169.1967628942756
G1 X107.30164486484709 Y119.3215153569328 Z0.2 A-168.16672594880978
G1 X107.13653846676675 Y119.26155317208762 Z0.2 A-167.10859746120585
G1 X106.97067117099957 Y119.20491553332424 Z0.2 A-166.05046897360185
G1 X106.80398171364928 Y119.15158782239554 Z0.2 A-164.9923404859979
G1 X106.6364091112186 Y119.10155429220062 Z0.2 A-163.93421199839395
G1 X106.4730800521766 Y119.02910502206936 Z0.2 A-162.8944441410033
G1 X106.30878235993036 Y118.9598032573576 Z0.2 A-161.8546762836127
G1 X106.14345907815571 Y118.89363090261726 Z0.2 A-160.81490842622208
G1 X105.97705358827363 Y118.83056883182893 Z0.2 A-159.77514056883143
G1 X105.82103022682509 Y118.74678615701511 Z0.2 A-158.72448635892337
G1 X105.66378677241755 Y118.66613681482153 Z0.2 A-157.6738321490153
G1 X105.5052659763031 Y118.58859790640817 Z0.2 A-156.62317793910722
G1 X105.34541101923973 Y118.51414548705195 Z0.2 A-155.57252372919913
G1 X105.19388970570355 Y118.4185395331686 Z0.2 A-154.53472635352713
G1 X105.0409578045647 Y118.32589555639899 Z0.2 A-153.49692897785516
G1 X104.88656189990756 Y118.23618752232386 Z0.2 A-152.45913160218316
G1 X104.7306490561138 Y118.14938843332605 Z0.2 A-151.4213342265112
G1 X104.58934155375465 Y118.04413357165095 Z0.2 A-150.36425928876017
G1 X104.4463509652349 Y117.94183717890482 Z0.2 A-149.30718435100914
G1 X104.30162299799935 Y117.84246770136514 Z0.2 A-148.25010941325814
G1 X104.15510395084804 Y117.745992589069 Z0.2 A-147.19303447550712
G1 X104.08941422379819 Y117.68768878310705 Z0.2 A-146.32086509767058
G1 X104.02243955923062 Y117.6313131804825 Z0.2 A-145.44869571983403
G1 X103.95415075559698 Y117.57684599894608 Z0.2 A-144.5765263419975
G1 X103.88451891585032 Y117.52426701404505 Z0.2 A-143.70435696416095
G1 X103.79561727934613 Y117.44555166067764 Z0.2 A-143.01279019562884
G1 X103.70583914260952 Y117.36800000279716 Z0.2 A-142.32122342709675
G1 X103.61517052388761 Y117.29160137643305 Z0.2 A-141.62965665856464
G1 X103.52359757115829 Y117.21634494963415 Z0.2 A-140.93808989003253
G1 X103.37683516795931 Y117.07027494877224 Z0.2 A-140.05824689627275
G1 X103.22855886419762 Y116.92601287374632 Z0.2 A-139.17840390251294
G1 X103.07874107666522 Y116.78353526461437 Z0.2 A-138.29856090875316
G1 X102.92735458564668 Y116.642818240645 Z0.2 A-137.41871791499335
G1 X102.870674414238 Y116.57278150745812 Z0.2 A-136.56016939566956
G1 X102.8124503846962 Y116.50437508673338 Z0.2 A-135.70162087634577
G1 X102.75265824184298 Y116.43757566236889 Z0.2 A-134.84307235702195
G1 X102.69127408258996 Y116.37235955744221 Z0.2 A-133.98452383769816
G1 X102.6187967401239 Y116.2813093268771 Z0.2 A-133.27644253432945
G1 X102.54520746251507 Y116.19130606815246 Z0.2 A-132.5683612309607
G1 X102.47049339615941 Y116.10233595998389 Z0.2 A-131.860279927592
G1 X102.39464185923835 Y116.01438502329717 Z0.2 A-131.15219862422327
G1 X102.32415879526965 Y115.91732206146091 Z0.2 A-130.46382308897705
G1 X102.25257753510773 Y115.82119584921142 Z0.2 A-129.7754475537308
G1 X102.17988690378003 Y115.72599312506894 Z0.2 A-129.08707201848458
G1 X102.10607588644575 Y115.63170049425318 Z0.2 A-128.39869648323835
G1 X102.04239069919959 Y115.53357764114052 Z0.2 A-127.6938592230427
G1 X101.97750804886891 Y115.4363800876859 Z0.2 A-126.98902196284702
G1 X101.91141664355985 Y115.34009303337913 Z0.2 A-126.28418470265133
G1 X101.84410537430028 Y115.24470153992357 Z0.2 A-125.57934744245567
G1 X101.78485620887781 Y115.14303471902983 Z0.2 A-124.87909040628544
G1 X101.724381668226 Y115.04222206708648 Z0.2 A-124.1788333701152
G1 X101.66267140464781 Y114.94224854439285 Z0.2 A-123.47857633394496
G1 X101.59971525502647 Y114.8430989859072 Z0.2 A-122.77831929777471
G1 X101.54521784602436 Y114.73830278277701 Z0.2 A-122.08114117297927
G1 X101.48946593190048 Y114.63429295394124 Z0.2 A-121.38396304818383
G1 X101.43245003711716 Y114.53105417667562 Z0.2 A-120.68678492338842
G1 X101.37416087328124 Y114.42857101409432 Z0.2 A-119.98960679859297
G1 X101.32390803952828 Y114.31986367545069 Z0.2 A-119.30040607906794
G1 X101.27239340671424 Y114.21186443717534 Z0.2 A-118.61120535954288
G1 X101.21960854871678 Y114.10455807045044 Z0.2 A-117.92200464001786
G1 X101.16554522320345 Y113.99792924620608 Z0.2 A-117.23280392049283
G1 X101.12243779872314 Y113.88995143334024 Z0.2 A-116.52446192141339
G1 X101.07796285364283 Y113.78265617023588 Z0.2 A-115.81611992233395
G1 X101.03211205438843 Y113.67602649864287 Z0.2 A-115.1077779232545
G1 X100.98487727767049 Y113.57004535858246 Z0.2 A-114.39943592417507
G1 X100.94534522636934 Y113.45674420227091 Z0.2 A-113.7111261533897
G1 X100.90449183129084 Y113.34402338138378 Z0.2 A-113.02281638260436
G1 X100.86231021622167 Y113.23186698076486 Z0.2 A-112.33450661181902
G1 X100.81879369663318 Y113.12025900380252 Z0.2 A-111.64619684103367
G1 X100.78643101915702 Y113.00868616813716 Z0.2 A-110.93793095438313
G1 X100.75264117762842 Y112.8976593962859 Z0.2 A-110.2296650677326
G1 X100.71741753105232 Y112.78716100498623 Z0.2 A-109.52139918108207
G1 X100.68075365752836 Y112.67717323023567 Z0.2 A-108.81313329443154
G1 X100.6528896027012 Y112.56162373037658 Z0.2 A-108.11875955077535
G1 X100.62362966555092 Y112.44653098110126 Z0.2 A-107.42438580711917
G1 X100.59296841331063 Y112.33187803243338 Z0.2 A-106.73001206346298
G1 X100.56090061902601 Y112.2176478698027 Z0.2 A-106.0356383198068
G1 X100.53840006641161 Y112.10033508748603 Z0.2 A-105.34713660127807
G1 X100.51450703128177 Y111.9834044768712 Z0.2 A-104.65863488274934
G1 X100.48921702186965 Y111.8668392778327 Z0.2 A-103.9701331642206
G1 X100.46252574812794 Y111.75062267748055 Z0.2 A-103.28163144569187
G1 X100.43577084880619 Y111.54586535426633 Z0.2 A-102.39871744975932
G1 X100.40669677223491 Y111.34161788081711 Z0.2 A-101.51580345382678
G1 X100.37529593741561 Y111.13784446005775 Z0.2 A-100.63288945789421
G1 X100.34156131585226 Y110.93450918234652 Z0.2 A-99.74997546196165
G1 X100.33972723690894 Y110.84531563154118 Z0.2 A-98.88596864370906
G1 X100.3356465008854 Y110.75647333418411 Z0.2 A-98.0219618254565
G1 X100.32931406660256 Y110.6679483725647 Z0.2 A-97.15795500720392
G1 X100.32072540490631 Y110.57970675681176 Z0.2 A-96.29394818895133
G1 X100.31848259966242 Y110.46049886314185 Z0.2 A-95.60243028363669
G1 X100.31479009875338 Y110.34143317545707 Z0.2 A-94.91091237832204
G1 X100.30964629148448 Y110.22249218706487 Z0.2 A-94.21939447300738
G1 X100.30304977856609 Y110.10365837310827 Z0.2 A-93.52787656769273
G1 X100.30722425187481 Y109.98897421650054 Z0.2 A-92.81019990141067
G1 X100.30983167060147 Y109.8743669812878 Z0.2 A-92.09252323512861
G1 X100.31087119419848 Y109.75981703330429 Z0.2 A-91.37484656884656
G1 X100.31034222811186 Y109.64530472939606 Z0.2 A-90.6571699025645
G1 X100.31974861020967 Y109.52577217265242 Z0.2 A-89.96979267441576
G1 X100.32771573067964 Y109.40623885710512 Z0.2 A-89.28241544626702
G1 X100.33424370219859 Y109.28668751640718 Z0.2 A-88.59503821811829
G1 X100.33933284457461 Y109.16710088680593 Z0.2 A-87.90766098996956
G1 X100.35448126406747 Y109.04801156223871 Z0.2 A-87.21999779088296
G1 X100.36819091917859 Y108.9288523737144 Z0.2 A-86.53233459179637
G1 X100.38046275201822 Y108.80960605864801 Z0.2 A-85.84467139270978
G1 X100.39129791180913 Y108.69025536700478 Z0.2 A-85.15700819362318
G1 X100.41211044672815 Y108.57832932929166 Z0.2 A-84.43453939611135
G1 X100.4313405131032 Y108.46624909224911 Z0.2 A-83.7120705985995
G1 X100.44899018105625 Y108.35399471459186 Z0.2 A-82.98960180108764
G1 X100.4650617719869 Y108.24154628272233 Z0.2 A-82.26713300357581
G1 X100.49188468811546 Y108.12337172505875 Z0.2 A-81.58672842140571
G1 X100.51731256929672 Y108.00499083636346 Z0.2 A-80.90632383923563
G1 X100.54134796408071 Y107.88638706511557 Z0.2 A-80.22591925706556
G1 X100.56399361738744 Y107.76754389122533 Z0.2 A-79.54551467489546
G1 X100.59597816979065 Y107.65487463471769 Z0.2 A-78.8421610628982
G1 X100.62648426404678 Y107.54191376602496 Z0.2 A-78.13880745090091
