; generated by PrusaSlicer 2.4.2+win64 on 2023-01-19 at 21:43:18 UTC


;
;

;
;
; 

; external perimeters extrusion width = 6.00mm
; perimeters extrusion width = 6.00mm
; infill extrusion width = 6.00mm
; solid infill extrusion width = 6.00mm
; top infill extrusion width = 6.00mm
; first layer extrusion width = 6.00mm

M73 P0 R28
M107
;TYPE:Custom
G90 ; use absolute coordinates
M83 ; extruder relative mode
M104 S170 ; set extruder temp for bed leveling
M140 S100 ; set bed temp
M109 R170 ; wait for bed leveling temp
M190 S100 ; wait for bed temp
G28 ; home all without mesh bed level
G29 ; mesh bed leveling 
M104 S215 ; set extruder temp
G92 E0.0
G1 Y-2.0 X179 F2400
G1 Z3 F720
M109 S215 ; wait for extruder temp

; intro line
G1 X170 F1000
G1 Z0.2 F720
G1 X110.0 E8.0 F900
G1 X40.0 E10.0 F700
G92 E0.0

M221 S95 ; set flow
G21 ; set units to millimeters
G90 ; use absolute coordinates
M83 ; use relative distances for extrusion
M900 K0.2 ; Filament gcode LA 1.5
; ; Filament gcode LA 1.0
M107
;LAYER_CHANGE
;Z:0.075
;HEIGHT:0.075
;BEFORE_LAYER_CHANGE
G92 E0.0
;0.075


M73 P0 R27
G1 Z.075 F9000
;AFTER_LAYER_CHANGE
;0.075
G1 X79.193 Y78.912
M204 S800
;TYPE:Skirt/Brim
;WIDTH:6
G1 F13.369
G1 X80.364 Y77.88 E.32746
G1 X81.632 Y76.972 E.3274
M73 P1 R27
G1 X82.985 Y76.196 E.32745
G1 X84.161 Y75.66 E.27124
M73 P2 R27
G1 X85.633 Y75.145 E.32741
G1 X87.151 Y74.781 E.32752
G1 X88.697 Y74.572 E.32739
M73 P3 R27
G1 X90.208 Y74.518 E.31747
G1 X91.561 Y74.596 E.2845
M73 P4 R26
G1 X93.104 Y74.831 E.32746
G1 X94.614 Y75.22 E.32742
G1 X96.078 Y75.76 E.32743
M73 P5 R26
G1 X97.244 Y76.316 E.27121
G1 X98.584 Y77.115 E.32742
M73 P6 R26
G1 X99.838 Y78.044 E.32747
G1 X100.991 Y79.095 E.32747
G1 X102.032 Y80.256 E.32739
M73 P7 R26
G1 X102.812 Y81.307 E.27467
M73 P7 R25
G1 X103.622 Y82.64 E.32742
M73 P8 R25
G1 X104.293 Y84.049 E.32746
G1 X104.82 Y85.517 E.32737
G1 X105.196 Y87.031 E.32753
M73 P9 R25
G1 X105.417 Y88.575 E.32734
G1 X105.482 Y90.134 E.32744
M73 P10 R25
G1 X105.39 Y91.691 E.32741
G1 X105.142 Y93.232 E.3275
M73 P11 R25
G1 X104.82 Y94.483 E.27124
M73 P11 R24
G1 X104.293 Y95.951 E.32738
G1 X103.622 Y97.36 E.32746
M73 P12 R24
G1 X102.812 Y98.693 E.32743
G1 X101.872 Y99.938 E.32749
M73 P13 R24
G1 X100.812 Y101.083 E.32739
G1 X99.642 Y102.114 E.32747
G1 X98.374 Y103.023 E.32747
M73 P14 R24
G1 X97.021 Y103.8 E.32741
M73 P14 R23
G1 X95.64 Y104.419 E.31751
M73 P15 R23
G1 X94.358 Y104.857 E.2845
G1 X92.841 Y105.22 E.32741
G1 X91.295 Y105.429 E.32746
M73 P16 R23
G1 X89.735 Y105.481 E.32743
G1 X88.446 Y105.405 E.27119
M73 P17 R23
G1 X86.903 Y105.171 E.32744
G1 X85.392 Y104.782 E.32747
G1 X83.928 Y104.243 E.32743
M73 P18 R22
G1 X82.526 Y103.56 E.32743
G1 X81.407 Y102.881 E.27463
M73 P19 R22
G1 X80.155 Y101.951 E.32744
G1 X79.002 Y100.899 E.32743
G1 X77.961 Y99.737 E.32741
M73 P20 R22
G1 X77.043 Y98.477 E.32741
G1 X76.381 Y97.367 E.27123
M73 P21 R22
G1 X75.709 Y95.959 E.32746
G1 X75.182 Y94.491 E.32745
M73 P21 R21
G1 X74.805 Y92.977 E.32745
M73 P22 R21
G1 X74.583 Y91.433 E.32743
G1 X74.517 Y89.874 E.32741
M73 P23 R21
G1 X74.608 Y88.317 E.3274
G1 X74.855 Y86.776 E.32746
G1 X75.257 Y85.269 E.32745
M73 P24 R21
G1 X75.789 Y83.853 E.31755
G1 X76.381 Y82.633 E.28449
M73 P25 R21
G1 X77.191 Y81.3 E.32745
M73 P25 R20
G1 X78.132 Y80.056 E.32741
M73 P26 R20
G1 X78.581 Y79.572 E.13857
M204 S1250
; printing object helper_disk.stl id:0 copy 0
G1 X86.69 Y86.964 F9000
M204 S800
;TYPE:External perimeter
G1 F13.369
G1 X86.834 Y86.807 E.04459
G1 X87.171 Y86.505 E.09508
G1 X87.537 Y86.238 E.09508
G1 X87.928 Y86.009 E.09509
G1 X88.34 Y85.821 E.09508
M73 P27 R20
G1 X88.769 Y85.675 E.09508
G1 X89.21 Y85.574 E.09509
G1 X89.663 Y85.516 E.09579
G1 X90.101 Y85.504 E.09183
G1 X90.396 Y85.52 E.06204
G1 X90.863 Y85.587 E.09902
G1 X91.302 Y85.697 E.09508
G1 X91.729 Y85.85 E.09509
G1 X92.138 Y86.045 E.09508
M73 P28 R20
G1 X92.525 Y86.28 E.09509
G1 X92.886 Y86.553 E.09508
G1 X93.219 Y86.861 E.09509
G1 X93.535 Y87.22 E.10038
G1 X93.685 Y87.422 E.05283
G1 X93.937 Y87.829 E.10039
G1 X94.135 Y88.236 E.09508
G1 X94.292 Y88.661 E.09509
M73 P28 R19
G1 X94.405 Y89.1 E.09509
M73 P29 R19
G1 X94.473 Y89.548 E.09508
G1 X94.496 Y90 E.09509
G1 X94.473 Y90.452 E.09509
G1 X94.405 Y90.9 E.09508
G1 X94.292 Y91.339 E.09509
G1 X94.135 Y91.764 E.09509
G1 X93.937 Y92.171 E.09508
G1 X93.698 Y92.557 E.09509
M73 P30 R19
G1 X93.422 Y92.916 E.09509
G1 X93.111 Y93.245 E.09508
G1 X92.769 Y93.542 E.09508
G1 X92.398 Y93.803 E.09509
G1 X92.004 Y94.025 E.09508
G1 X91.588 Y94.206 E.09509
G1 X91.157 Y94.345 E.09509
G1 X90.714 Y94.439 E.09508
M73 P31 R19
G1 X90.239 Y94.491 E.10038
G1 X89.987 Y94.498 E.05285
G1 X89.509 Y94.469 E.10038
G1 X89.062 Y94.397 E.09509
G1 X88.624 Y94.281 E.09508
G1 X88.201 Y94.121 E.09508
G1 X87.773 Y93.907 E.10039
G1 X87.557 Y93.777 E.05284
G1 X87.171 Y93.495 E.10038
M73 P32 R19
G1 X86.834 Y93.193 E.09508
G1 X86.528 Y92.858 E.09509
G1 X86.258 Y92.494 E.09508
G1 X86.026 Y92.105 E.09509
M73 P32 R18
G1 X85.835 Y91.694 E.09508
G1 X85.685 Y91.267 E.09509
G1 X85.58 Y90.826 E.09508
G1 X85.519 Y90.377 E.09509
M73 P33 R18
G1 X85.504 Y89.924 E.09508
G1 X85.534 Y89.472 E.09508
G1 X85.61 Y89.026 E.09508
G1 X85.731 Y88.586 E.09579
G1 X85.888 Y88.177 E.09183
G1 X86.153 Y87.683 E.11763
M204 S1250
; stop printing object helper_disk.stl id:0 copy 0
M106 S84.15
;LAYER_CHANGE
;Z:0.15
;HEIGHT:0.075
;BEFORE_LAYER_CHANGE
G92 E0.0
;0.15


G1 Z.15 F9000
;AFTER_LAYER_CHANGE
;0.15
M140 S60 ; set bed temperature
G1 X76.776 Y81.983
;TYPE:Skirt/Brim
G1 F13.369
G1 X77.191 Y81.3 E.16767
G1 X78.132 Y80.056 E.32741
M73 P34 R18
G1 X79.193 Y78.912 E.32747
G1 X80.364 Y77.88 E.32746
G1 X81.632 Y76.972 E.3274
M73 P35 R18
G1 X82.985 Y76.196 E.32745
G1 X84.161 Y75.66 E.27124
M73 P36 R17
G1 X85.633 Y75.145 E.32741
G1 X87.151 Y74.781 E.32752
G1 X88.697 Y74.572 E.32739
M73 P37 R17
G1 X90.208 Y74.518 E.31747
G1 X91.561 Y74.596 E.2845
M73 P38 R17
G1 X93.104 Y74.831 E.32746
G1 X94.614 Y75.22 E.32742
G1 X96.078 Y75.76 E.32743
M73 P39 R17
G1 X97.244 Y76.316 E.27121
M73 P39 R16
G1 X98.584 Y77.115 E.32742
M73 P40 R16
G1 X99.838 Y78.044 E.32747
G1 X100.991 Y79.095 E.32747
G1 X102.032 Y80.256 E.32739
M73 P41 R16
G1 X102.812 Y81.307 E.27467
G1 X103.622 Y82.64 E.32742
M73 P42 R16
G1 X104.293 Y84.049 E.32746
G1 X104.82 Y85.517 E.32737
G1 X105.196 Y87.031 E.32753
M73 P43 R15
G1 X105.417 Y88.575 E.32734
G1 X105.482 Y90.134 E.32744
M73 P44 R15
G1 X105.39 Y91.691 E.32741
G1 X105.142 Y93.232 E.3275
M73 P45 R15
G1 X104.82 Y94.483 E.27124
G1 X104.293 Y95.951 E.32738
G1 X103.622 Y97.36 E.32746
M73 P46 R15
G1 X102.812 Y98.693 E.32743
G1 X101.872 Y99.938 E.32749
M73 P47 R14
G1 X100.812 Y101.083 E.32739
G1 X99.642 Y102.114 E.32747
G1 X98.374 Y103.023 E.32747
M73 P48 R14
G1 X97.021 Y103.8 E.32741
G1 X95.64 Y104.419 E.31751
M73 P49 R14
G1 X94.358 Y104.857 E.2845
G1 X92.841 Y105.22 E.32741
G1 X91.295 Y105.429 E.32746
M73 P50 R13
G1 X89.735 Y105.481 E.32743
G1 X88.446 Y105.405 E.27119
M73 P51 R13
G1 X86.903 Y105.171 E.32744
G1 X85.392 Y104.782 E.32747
G1 X83.928 Y104.243 E.32743
M73 P52 R13
G1 X82.526 Y103.56 E.32743
G1 X81.407 Y102.881 E.27463
M73 P53 R13
G1 X80.155 Y101.951 E.32744
G1 X79.002 Y100.899 E.32743
M73 P53 R12
G1 X77.961 Y99.737 E.32741
M73 P54 R12
G1 X77.043 Y98.477 E.32741
G1 X76.381 Y97.367 E.27123
M73 P55 R12
G1 X75.709 Y95.959 E.32746
G1 X75.182 Y94.491 E.32745
G1 X74.805 Y92.977 E.32745
M73 P56 R12
G1 X74.583 Y91.433 E.32743
G1 X74.517 Y89.874 E.32741
M73 P57 R12
G1 X74.608 Y88.317 E.3274
M73 P57 R11
G1 X74.855 Y86.776 E.32746
G1 X75.257 Y85.269 E.32745
M73 P58 R11
G1 X75.789 Y83.853 E.31755
G1 X76.32 Y82.758 E.25537
; printing object helper_disk.stl id:0 copy 0
M73 P59 R11
G1 X86.111 Y87.74 F9000
M204 S800
;TYPE:External perimeter
G1 F13.369
G1 X86.243 Y87.526 E.05284
G1 X86.528 Y87.142 E.10038
G1 X86.834 Y86.807 E.09509
G1 X87.171 Y86.505 E.09508
G1 X87.537 Y86.238 E.09508
G1 X87.928 Y86.009 E.09509
M73 P60 R11
G1 X88.34 Y85.821 E.09508
G1 X88.769 Y85.675 E.09508
G1 X89.21 Y85.574 E.09508
G1 X89.671 Y85.515 E.09754
G1 X90.025 Y85.504 E.07414
G1 X90.406 Y85.522 E.08012
G1 X90.863 Y85.587 E.09689
G1 X91.302 Y85.697 E.09508
M73 P61 R10
G1 X91.729 Y85.85 E.09509
G1 X92.138 Y86.045 E.09508
G1 X92.525 Y86.28 E.09508
G1 X92.886 Y86.553 E.09508
G1 X93.219 Y86.861 E.09509
G1 X93.535 Y87.22 E.10038
G1 X93.685 Y87.422 E.05283
G1 X93.937 Y87.829 E.10039
G1 X94.135 Y88.236 E.09508
M73 P62 R10
G1 X94.292 Y88.661 E.09508
G1 X94.405 Y89.1 E.09509
G1 X94.473 Y89.548 E.09508
G1 X94.496 Y90 E.09508
G1 X94.473 Y90.452 E.09509
G1 X94.405 Y90.9 E.09508
G1 X94.292 Y91.339 E.09509
G1 X94.135 Y91.764 E.09509
M73 P63 R10
G1 X93.937 Y92.171 E.09508
G1 X93.698 Y92.557 E.09509
G1 X93.422 Y92.916 E.09508
G1 X93.111 Y93.245 E.09509
G1 X92.769 Y93.542 E.09508
G1 X92.398 Y93.803 E.09509
G1 X92.004 Y94.025 E.09508
G1 X91.588 Y94.206 E.09508
G1 X91.157 Y94.345 E.09509
M73 P64 R10
G1 X90.714 Y94.439 E.09508
G1 X90.239 Y94.491 E.10038
G1 X89.987 Y94.498 E.05285
M73 P64 R9
G1 X89.509 Y94.469 E.10038
G1 X89.062 Y94.397 E.09508
G1 X88.624 Y94.281 E.09509
G1 X88.201 Y94.121 E.09509
G1 X87.773 Y93.907 E.10038
M73 P65 R9
G1 X87.557 Y93.777 E.05285
G1 X87.171 Y93.495 E.10038
G1 X86.834 Y93.193 E.09508
G1 X86.528 Y92.858 E.09509
G1 X86.258 Y92.494 E.09508
G1 X86.026 Y92.105 E.09509
G1 X85.835 Y91.694 E.09508
G1 X85.685 Y91.267 E.09509
G1 X85.58 Y90.826 E.09508
M73 P66 R9
G1 X85.519 Y90.377 E.09508
G1 X85.504 Y89.924 E.09508
G1 X85.534 Y89.472 E.09508
G1 X85.61 Y89.026 E.09508
G1 X85.742 Y88.56 E.10162
M204 S1250
; stop printing object helper_disk.stl id:0 copy 0
M106 S170.85
;LAYER_CHANGE
;Z:0.225
;HEIGHT:0.075
;BEFORE_LAYER_CHANGE
G92 E0.0
;0.225


G1 Z.225 F9000
;AFTER_LAYER_CHANGE
;0.225
G1 X75.471 Y84.699
;TYPE:Skirt/Brim
G1 F13.369
G1 X75.789 Y83.853 E.18968
G1 X76.381 Y82.633 E.28449
M73 P67 R9
G1 X77.191 Y81.3 E.32745
G1 X78.132 Y80.056 E.32741
G1 X79.193 Y78.912 E.32747
M73 P68 R8
G1 X80.364 Y77.88 E.32746
G1 X81.632 Y76.972 E.3274
M73 P69 R8
G1 X82.985 Y76.196 E.32745
G1 X84.161 Y75.66 E.27124
G1 X85.633 Y75.145 E.32741
M73 P70 R8
G1 X87.151 Y74.781 E.32752
G1 X88.697 Y74.572 E.32739
M73 P71 R8
G1 X90.208 Y74.518 E.31747
G1 X91.561 Y74.596 E.2845
M73 P71 R7
G1 X93.104 Y74.831 E.32746
M73 P72 R7
G1 X94.614 Y75.22 E.32742
G1 X96.078 Y75.76 E.32743
M73 P73 R7
G1 X97.244 Y76.316 E.27121
G1 X98.584 Y77.115 E.32742
G1 X99.838 Y78.044 E.32747
M73 P74 R7
G1 X100.991 Y79.095 E.32747
G1 X102.032 Y80.256 E.32739
M73 P75 R7
G1 X102.812 Y81.307 E.27467
M73 P75 R6
G1 X103.622 Y82.64 E.32742
G1 X104.293 Y84.049 E.32746
M73 P76 R6
G1 X104.82 Y85.517 E.32737
G1 X105.196 Y87.031 E.32753
M73 P77 R6
G1 X105.417 Y88.575 E.32734
G1 X105.482 Y90.134 E.32744
G1 X105.39 Y91.691 E.32741
M73 P78 R6
G1 X105.142 Y93.232 E.3275
M73 P78 R5
G1 X104.82 Y94.483 E.27124
M73 P79 R5
G1 X104.293 Y95.951 E.32738
G1 X103.622 Y97.36 E.32746
G1 X102.812 Y98.693 E.32743
M73 P80 R5
G1 X101.872 Y99.938 E.32749
G1 X100.812 Y101.083 E.32739
M73 P81 R5
G1 X99.642 Y102.114 E.32747
G1 X98.374 Y103.023 E.32747
M73 P82 R5
G1 X97.021 Y103.8 E.32741
M73 P82 R4
G1 X95.64 Y104.419 E.31751
G1 X94.358 Y104.857 E.2845
M73 P83 R4
G1 X92.841 Y105.22 E.32741
G1 X91.295 Y105.429 E.32746
M73 P84 R4
G1 X89.735 Y105.481 E.32743
G1 X88.446 Y105.405 E.27119
G1 X86.903 Y105.171 E.32744
M73 P85 R4
G1 X85.392 Y104.782 E.32747
G1 X83.928 Y104.243 E.32743
M73 P86 R3
G1 X82.526 Y103.56 E.32743
G1 X81.407 Y102.881 E.27463
G1 X80.155 Y101.951 E.32744
M73 P87 R3
G1 X79.002 Y100.899 E.32743
G1 X77.961 Y99.737 E.32741
M73 P88 R3
G1 X77.043 Y98.477 E.32741
G1 X76.381 Y97.367 E.27123
G1 X75.709 Y95.959 E.32746
M73 P89 R3
G1 X75.182 Y94.491 E.32745
M73 P89 R2
G1 X74.805 Y92.977 E.32745
M73 P90 R2
G1 X74.583 Y91.433 E.32743
G1 X74.517 Y89.874 E.32741
G1 X74.608 Y88.317 E.3274
M73 P91 R2
G1 X74.855 Y86.776 E.32746
G1 X75.182 Y85.55 E.26643
; printing object helper_disk.stl id:0 copy 0
M73 P92 R2
G1 X85.737 Y88.565 F9000
M204 S800
;TYPE:External perimeter
G1 F13.369
G1 X85.824 Y88.328 E.05284
G1 X86.026 Y87.895 E.10038
G1 X86.258 Y87.506 E.09508
G1 X86.528 Y87.142 E.09509
G1 X86.834 Y86.807 E.09509
G1 X87.171 Y86.505 E.09508
M73 P93 R1
G1 X87.537 Y86.238 E.09508
G1 X87.928 Y86.009 E.09508
G1 X88.34 Y85.821 E.09509
G1 X88.769 Y85.675 E.09508
G1 X89.21 Y85.574 E.09508
G1 X89.683 Y85.514 E.09991
G1 X89.949 Y85.503 E.05591
G1 X90.413 Y85.523 E.09757
G1 X90.863 Y85.587 E.09531
M73 P94 R1
G1 X91.302 Y85.697 E.09509
G1 X91.729 Y85.85 E.09509
G1 X92.138 Y86.045 E.09508
G1 X92.525 Y86.28 E.09508
G1 X92.886 Y86.553 E.09509
G1 X93.219 Y86.861 E.09508
G1 X93.535 Y87.22 E.10038
G1 X93.685 Y87.422 E.05283
M73 P95 R1
G1 X93.937 Y87.829 E.10039
G1 X94.135 Y88.236 E.09508
G1 X94.292 Y88.661 E.09509
G1 X94.405 Y89.1 E.09508
G1 X94.473 Y89.548 E.09509
G1 X94.496 Y90 E.09508
G1 X94.473 Y90.452 E.09509
G1 X94.405 Y90.9 E.09508
G1 X94.292 Y91.339 E.09508
M73 P96 R1
G1 X94.135 Y91.764 E.09509
G1 X93.937 Y92.171 E.09508
G1 X93.698 Y92.557 E.09509
G1 X93.422 Y92.916 E.09508
M73 P96 R0
G1 X93.111 Y93.245 E.09508
G1 X92.769 Y93.542 E.09508
G1 X92.398 Y93.803 E.09508
G1 X92.004 Y94.025 E.09509
M73 P97 R0
G1 X91.588 Y94.206 E.09509
G1 X91.157 Y94.345 E.09508
G1 X90.714 Y94.439 E.09508
G1 X90.239 Y94.491 E.10038
G1 X89.987 Y94.498 E.05285
G1 X89.509 Y94.469 E.10038
G1 X89.062 Y94.397 E.09508
G1 X88.624 Y94.281 E.09509
G1 X88.201 Y94.121 E.09508
M73 P98 R0
G1 X87.773 Y93.907 E.10039
G1 X87.557 Y93.777 E.05284
G1 X87.171 Y93.495 E.10039
G1 X86.834 Y93.193 E.09508
G1 X86.528 Y92.858 E.09509
G1 X86.258 Y92.494 E.09508
G1 X86.026 Y92.105 E.09509
G1 X85.835 Y91.694 E.09509
M73 P99 R0
G1 X85.685 Y91.267 E.09508
G1 X85.58 Y90.826 E.09508
G1 X85.519 Y90.377 E.09509
G1 X85.504 Y89.924 E.09508
G1 X85.54 Y89.442 E.10162
M204 S1250
; stop printing object helper_disk.stl id:0 copy 0
M107
;TYPE:Custom
; Filament-specific end gcode
G1 E-1 F2100 ; retract
G1 Z2.225 F720 ; Move print head up
G1 X178 Y178 F4200 ; park print head
G1 Z30.225 F720 ; Move print head further up
G4 ; wait
M104 S0 ; turn off temperature
M140 S0 ; turn off heatbed
M107 ; turn off fan
M221 S100 ; reset flow
M900 K0 ; reset LA
M84 ; disable motors
M73 P100 R0
; filament used [mm] = 77.88
; filament used [cm3] = 0.17
; filament used [g] = 0.45
; filament cost = 0.00
; total filament used [g] = 0.45
; total filament cost = 0.00
; estimated printing time (normal mode) = 28m 6s

; prusaslicer_config = begin
; avoid_crossing_perimeters = 0
; avoid_crossing_perimeters_max_detour = 0
; bed_custom_model = 
; bed_custom_texture = 
; bed_shape = 0x0,180x0,180x180,0x180
; bed_temperature = 60
; before_layer_gcode = ;BEFORE_LAYER_CHANGE\nG92 E0.0\n;[layer_z]\n\n
; between_objects_gcode = 
; bottom_fill_pattern = monotonic
; bottom_solid_layers = 5
; bottom_solid_min_thickness = 0.5
; bridge_acceleration = 1000
; bridge_angle = 0
; bridge_fan_speed = 100
; bridge_flow_ratio = 0.85
; bridge_speed = 5
; brim_separation = 0
; brim_type = outer_only
; brim_width = 0
; clip_multipart_objects = 1
; color_change_gcode = M600
; compatible_printers_condition_cummulative = "printer_notes=~/.*PRINTER_VENDOR_PRUSA3D.*/ and printer_notes=~/.*PRINTER_MODEL_MINI.*/ and nozzle_diameter[0]==0.4";"nozzle_diameter[0]!=0.8 and ! (printer_notes=~/.*PRINTER_VENDOR_PRUSA3D.*/ and printer_notes=~/.*PRINTER_MODEL_MK(2.5|3).*/ and single_extruder_multi_material)"
; complete_objects = 0
; cooling = 1
; cooling_tube_length = 5
; cooling_tube_retraction = 91.5
; default_acceleration = 1250
; default_filament_profile = "Prusament PLA"
; default_print_profile = 0.15mm QUALITY @MINI
; deretract_speed = 40
; disable_fan_first_layers = 1
; dont_support_bridges = 1
; draft_shield = disabled
; duplicate_distance = 6
; elefant_foot_compensation = 0.2
; end_filament_gcode = "; Filament-specific end gcode"
