; generated by PrusaSlicer 2.4.2+win64 on 2023-01-31 at 19:14:47 UTC


;
;

;
;
; 

; external perimeters extrusion width = 0.45mm
; perimeters extrusion width = 0.45mm
; infill extrusion width = 0.45mm
; solid infill extrusion width = 0.45mm
; top infill extrusion width = 0.40mm
; first layer extrusion width = 0.42mm

M73 P0 R113
M201 X2500 Y2500 Z400 E5000 ; sets maximum accelerations, mm/sec^2
M203 X180 Y180 Z12 E80 ; sets maximum feedrates, mm / sec
M204 P1250 R1250 T2500 ; sets acceleration (P, T) and retract acceleration (R), mm/sec^2
M205 X8.00 Y8.00 Z2.00 E10.00 ; sets the jerk limits, mm/sec
M205 S0 T0 ; sets the minimum extruding and travel feed rate, mm/sec
M107
;TYPE:Custom
M862.3 P "MINI" ; printer model check
G90 ; use absolute coordinates
M83 ; extruder relative mode
M104 S170 ; set extruder temp for bed leveling
M140 S60 ; set bed temp
M109 R170 ; wait for bed leveling temp
M190 S60 ; wait for bed temp
M204 T1250 ; set travel acceleration
G28 ; home all without mesh bed level
G29 ; mesh bed leveling 
M204 T2500 ; restore travel acceleration
M104 S215 ; set extruder temp
G92 E0
G1 Y-2 X179 F2400
G1 Z3 F720
M109 S215 ; wait for extruder temp

; intro line
G1 X170 F1000
G1 Z0.2 F720
G1 X110 E8 F900
M73 P0 R112
G1 X40 E10 F700
G92 E0

M221 S95 ; set flow
G21 ; set units to millimeters
G90 ; use absolute coordinates
M83 ; use relative distances for extrusion
M900 K0.2 ; Filament gcode LA 1.5
; ; Filament gcode LA 1.0
M107
;LAYER_CHANGE
;Z:0.2
;HEIGHT:0.2
;BEFORE_LAYER_CHANGE
G92 E0.0
;0.2


G1 E-3.2 F4200
G1 Z.2 F720
;AFTER_LAYER_CHANGE
;0.2
G1 Z.4
G1 X71.013 Y71.013 F9000
G1 Z.2 F720
G1 E3.2 F2400
M204 P800
;TYPE:Skirt/Brim
;WIDTH:0.42
G1 F1200
G1 X72.507 Y69.519 E.06624
G1 X74.188 Y68.823 E.05704
G1 X105.812 Y68.823 E.99158
G1 X107.493 Y69.519 E.05704
G1 X110.481 Y72.507 E.13247
G1 X111.177 Y74.188 E.05704
G1 X111.177 Y83.362 E.28767
G1 X110.488 Y85.037 E.05677
G1 X85.223 Y110.481 E1.12426
G1 X83.542 Y111.177 E.05704
G1 X74.188 Y111.177 E.29332
G1 X72.507 Y110.481 E.05704
G1 X69.519 Y107.493 E.13247
G1 X68.823 Y105.812 E.05704
G1 X68.823 Y74.188 E.99158
G1 X69.519 Y72.507 E.05704
G1 X70.97 Y71.055 E.06435
M204 P1000
G1 E-2.24 F4200
;WIPE_START
G1 F7200
G1 X72.134 Y69.892 E-.912
;WIPE_END
G1 E-.048 F4200
G1 Z.4 F720
G1 X72.78 Y73.008 F9000
G1 Z.2 F720
G1 E3.2 F2400
M204 P800
G1 F1200
G1 X73.301 Y72.526 E.02226
G1 X73.904 Y72.098 E.02321
G1 X75.854 Y71.486 E.06406
G1 X104.089 Y71.49 E.8853
G1 X105.11 Y71.684 E.03256
G1 X106.088 Y72.1 E.03332
G1 X107.209 Y72.993 E.04494
G1 X108.016 Y74.145 E.04411
G1 X108.458 Y75.486 E.04427
G1 X108.485 Y81.879 E.20046
G1 X108.103 Y83.224 E.04385
G1 X107.335 Y84.419 E.04454
G1 X106.297 Y85.319 E.04308
G1 X105.205 Y85.835 E.03786
G1 X104.051 Y86.063 E.0369
G1 X86.243 Y86.063 E.55833
G1 X86.243 Y104.041 E.56366
G1 X85.989 Y105.283 E.03977
G1 X85.396 Y106.452 E.04109
G1 X84.47 Y107.444 E.04256
G1 X83.407 Y108.101 E.03919
G1 X81.901 Y108.507 E.04891
G1 X75.786 Y108.501 E.19172
G1 X74.342 Y108.109 E.04693
G1 X73.059 Y107.275 E.04796
G1 X72.526 Y106.699 E.02462
G1 X72.098 Y106.096 E.0232
G1 X71.487 Y104.146 E.06405
G1 X71.487 Y75.88 E.88626
G1 X71.867 Y74.395 E.04806
G1 X72.736 Y73.049 E.05024
M204 P1000
G1 X72.999 Y73.32 F9000
M204 P800
G1 F1200
G1 X73.548 Y72.811 E.02347
G1 X74.098 Y72.423 E.02111
G1 X75.883 Y71.864 E.05864
G1 X104.071 Y71.867 E.88383
G1 X105.017 Y72.05 E.03022
G1 X105.915 Y72.436 E.03062
G1 X106.951 Y73.269 E.04169
G1 X107.69 Y74.336 E.0407
G1 X108.09 Y75.573 E.04077
G1 X108.107 Y81.853 E.19689
G1 X107.749 Y83.092 E.04045
G1 X107.034 Y84.191 E.04112
G1 X106.111 Y84.99 E.03827
G1 X105.107 Y85.47 E.03489
G1 X104.032 Y85.686 E.0344
G1 X85.866 Y85.686 E.56956
G1 X85.866 Y104.021 E.57487
G1 X85.625 Y105.181 E.03714
G1 X85.073 Y106.255 E.03786
G1 X84.214 Y107.167 E.03929
G1 X83.234 Y107.765 E.036
G1 X81.876 Y108.13 E.04409
G1 X75.859 Y108.13 E.18868
G1 X74.52 Y107.776 E.0434
G1 X73.32 Y107.001 E.0448
G1 X72.811 Y106.452 E.02347
G1 X72.423 Y105.902 E.02111
G1 X71.864 Y104.118 E.05863
G1 X71.864 Y75.905 E.8846
G1 X72.224 Y74.52 E.04486
G1 X72.966 Y73.37 E.04291
M204 P1000
G1 X73.273 Y73.58 F9000
M204 P800
G1 F1200
G1 X73.795 Y73.096 E.0223
G1 X74.29 Y72.748 E.019
G1 X75.911 Y72.241 E.05325
G1 X104.052 Y72.244 E.88234
G1 X104.924 Y72.416 E.02785
G1 X105.74 Y72.771 E.0279
G1 X106.691 Y73.544 E.03843
G1 X107.363 Y74.525 E.03728
G1 X107.721 Y75.659 E.03729
G1 X107.73 Y81.825 E.19335
G1 X107.396 Y82.957 E.03701
G1 X106.734 Y83.961 E.03771
G1 X105.924 Y84.662 E.03357
G1 X105.008 Y85.106 E.03192
G1 X104.012 Y85.309 E.03186
G1 X85.489 Y85.309 E.58077
G1 X85.489 Y104.001 E.58607
G1 X85.262 Y105.077 E.03447
G1 X84.752 Y106.056 E.03462
G1 X83.959 Y106.888 E.03602
G1 X83.063 Y107.429 E.03283
G1 X81.851 Y107.753 E.03933
G1 X75.929 Y107.759 E.18569
G1 X74.697 Y107.442 E.03987
G1 X73.58 Y106.727 E.0416
G1 X73.096 Y106.205 E.0223
G1 X72.748 Y105.71 E.019
G1 X72.241 Y104.089 E.05324
G1 X72.241 Y75.928 E.88296
G1 X72.558 Y74.697 E.03986
G1 X73.241 Y73.63 E.03972
M204 P1000
G1 X73.546 Y73.84 F9000
M204 P800
G1 F1200
G1 X74.041 Y73.382 E.02115
G1 X74.482 Y73.074 E.01687
G1 X75.94 Y72.618 E.04789
G1 X104.033 Y72.621 E.88085
G1 X104.829 Y72.781 E.02544
G1 X105.564 Y73.105 E.02518
G1 X106.43 Y73.817 E.03515
G1 X107.034 Y74.712 E.03386
G1 X107.353 Y75.742 E.03382
G1 X107.353 Y81.797 E.18983
G1 X107.043 Y82.821 E.03356
G1 X106.466 Y83.695 E.03282
G1 X105.735 Y84.335 E.03049
G1 X104.907 Y84.742 E.02892
G1 X103.993 Y84.932 E.02928
G1 X85.112 Y84.932 E.59198
G1 X85.112 Y103.981 E.59725
G1 X84.899 Y104.971 E.03177
G1 X84.431 Y105.855 E.03136
G1 X83.706 Y106.607 E.03275
G1 X82.893 Y107.091 E.02967
G1 X81.826 Y107.376 E.03462
G1 X75.953 Y107.382 E.18414
G1 X74.823 Y107.085 E.03665
G1 X73.84 Y106.454 E.03661
G1 X73.382 Y105.959 E.02115
G1 X73.074 Y105.518 E.01687
G1 X72.618 Y104.06 E.04788
G1 X72.618 Y75.953 E.88129
G1 X72.915 Y74.823 E.03665
G1 X73.514 Y73.891 E.03473
M204 P1000
G1 X73.821 Y74.1 F9000
M204 P800
G1 F1200
G1 X74.287 Y73.668 E.01994
G1 X74.673 Y73.4 E.01473
G1 X75.968 Y72.995 E.04255
G1 X104.015 Y72.998 E.87937
G1 X104.696 Y73.135 E.02178
G1 X105.387 Y73.439 E.02369
G1 X106.167 Y74.088 E.03181
G1 X106.704 Y74.896 E.03042
G1 X106.984 Y75.824 E.03037
G1 X106.976 Y81.768 E.1864
G1 X106.713 Y82.638 E.0285
G1 X106.196 Y83.43 E.02964
G1 X105.545 Y84.008 E.0273
G1 X104.762 Y84.393 E.02734
G1 X103.974 Y84.555 E.02525
G1 X84.735 Y84.555 E.60321
G1 X84.735 Y103.961 E.60847
G1 X84.553 Y104.818 E.02747
G1 X84.111 Y105.654 E.02965
G1 X83.455 Y106.325 E.0294
G1 X82.725 Y106.753 E.02654
G1 X81.801 Y106.999 E.02997
G1 X75.977 Y107.005 E.18263
G1 X74.999 Y106.751 E.03166
G1 X74.1 Y106.179 E.03341
G1 X73.668 Y105.713 E.01994
G1 X73.4 Y105.327 E.01473
G1 X72.995 Y104.032 E.04254
G1 X72.995 Y75.977 E.87964
G1 X73.249 Y74.999 E.03167
G1 X73.789 Y74.151 E.03153
M204 P1000
G1 X74.095 Y74.36 F9000
M204 P800
G1 F1200
G1 X74.533 Y73.954 E.01876
G1 X74.863 Y73.727 E.01256
G1 X75.997 Y73.372 E.03725
G1 X103.995 Y73.376 E.87785
G1 X104.599 Y73.5 E.01932
G1 X105.208 Y73.772 E.02093
G1 X105.902 Y74.358 E.02846
G1 X106.373 Y75.078 E.02698
G1 X106.614 Y75.903 E.02694
G1 X106.599 Y81.738 E.18297
G1 X106.361 Y82.5 E.02504
G1 X105.926 Y83.167 E.02497
G1 X105.352 Y83.683 E.02418
G1 X104.66 Y84.029 E.02428
G1 X103.954 Y84.178 E.02263
G1 X84.358 Y84.178 E.6144
G1 X84.358 Y103.942 E.61969
G1 X84.207 Y104.669 E.02327
G1 X83.82 Y105.413 E.0263
G1 X83.239 Y106.015 E.02621
G1 X82.602 Y106.395 E.02329
G1 X81.728 Y106.628 E.02835
G1 X76.002 Y106.628 E.17953
G1 X75.125 Y106.394 E.02845
G1 X74.36 Y105.905 E.02846
G1 X73.954 Y105.467 E.01876
G1 X73.727 Y105.137 E.01256
G1 X73.372 Y104.003 E.03724
G1 X73.372 Y76.002 E.87795
G1 X73.606 Y75.125 E.02845
G1 X74.062 Y74.411 E.02658
M204 P1000
G1 X74.368 Y74.621 F9000
M204 P800
G1 F1200
G1 X74.779 Y74.24 E.01756
G1 X75.052 Y74.054 E.01037
G1 X76.026 Y73.749 E.03199
G1 X103.975 Y73.753 E.87631
G1 X104.499 Y73.864 E.01681
G1 X105.027 Y74.104 E.01817
G1 X105.634 Y74.625 E.0251
G1 X106.04 Y75.257 E.02354
G1 X106.244 Y75.979 E.02353
M73 P0 R111
G1 X106.222 Y81.706 E.17958
G1 X106.011 Y82.359 E.02152
G1 X105.653 Y82.905 E.02047
G1 X105.157 Y83.359 E.02109
G1 X104.555 Y83.666 E.02119
G1 X103.933 Y83.801 E.01996
G1 X83.981 Y83.801 E.62558
G1 X83.981 Y103.924 E.63093
G1 X83.859 Y104.522 E.01914
M73 P1 R111
G1 X83.527 Y105.174 E.02296
G1 X83.021 Y105.706 E.02303
G1 X82.475 Y106.039 E.02004
G1 X81.702 Y106.251 E.02513
G1 X76.028 Y106.251 E.17791
G1 X75.254 Y106.039 E.02517
G1 X74.621 Y105.632 E.02358
G1 X74.24 Y105.221 E.01756
G1 X74.054 Y104.948 E.01037
G1 X73.749 Y103.974 E.03198
G1 X73.749 Y76.028 E.87624
G1 X73.961 Y75.254 E.02517
G1 X74.336 Y74.672 E.0217
M204 P1000
G1 X74.641 Y74.882 F9000
M204 P800
G1 F1200
G1 X75.024 Y74.527 E.01636
G1 X75.24 Y74.382 E.00814
G1 X76.055 Y74.126 E.02679
G1 X103.953 Y74.13 E.87474
G1 X104.397 Y74.227 E.01423
G1 X104.843 Y74.434 E.01541
G1 X105.366 Y74.891 E.02178
G1 X105.685 Y75.386 E.01847
G1 X105.874 Y76.056 E.02182
G1 X105.846 Y81.673 E.17611
G1 X105.662 Y82.214 E.01793
G1 X105.379 Y82.646 E.01618
G1 X104.959 Y83.038 E.01801
G1 X104.447 Y83.304 E.01809
G1 X103.911 Y83.424 E.01721
G1 X83.604 Y83.424 E.63673
G1 X83.604 Y103.905 E.64218
G1 X83.509 Y104.378 E.01511
G1 X83.232 Y104.938 E.01961
G1 X82.799 Y105.401 E.01986
G1 X82.345 Y105.684 E.01678
G1 X81.675 Y105.874 E.02183
G1 X76.055 Y105.874 E.17622
G1 X75.385 Y105.684 E.02184
G1 X74.882 Y105.359 E.01878
G1 X74.527 Y104.976 E.01636
G1 X74.382 Y104.76 E.00814
G1 X74.126 Y103.945 E.02678
G1 X74.126 Y76.055 E.87449
G1 X74.316 Y75.385 E.02184
G1 X74.609 Y74.932 E.01689
M204 P1000
G1 X74.914 Y75.143 F9000
M204 P800
G1 F1200
G1 X75.268 Y74.815 E.01513
G1 X75.425 Y74.712 E.00588
G1 X76.084 Y74.503 E.02167
G1 X103.931 Y74.507 E.87313
G1 X104.291 Y74.59 E.01157
G1 X104.656 Y74.762 E.01266
G1 X105.096 Y75.154 E.01848
G1 X105.331 Y75.52 E.01362
G1 X105.497 Y76.083 E.01842
G1 X105.478 Y81.584 E.17248
G1 X105.331 Y82.033 E.0148
G1 X105.104 Y82.387 E.01319
G1 X104.722 Y82.743 E.01637
G1 X104.3 Y82.957 E.01485
G1 X103.891 Y83.047 E.01311
G1 X83.227 Y83.047 E.64791
G1 X83.227 Y103.888 E.65345
G1 X83.158 Y104.238 E.0112
G1 X82.934 Y104.705 E.01626
G1 X82.573 Y105.098 E.01672
G1 X82.211 Y105.331 E.01351
G1 X81.647 Y105.497 E.01842
G1 X76.083 Y105.497 E.17446
G1 X75.519 Y105.331 E.01844
G1 X75.143 Y105.086 E.01407
G1 X74.815 Y104.732 E.01513
G1 X74.712 Y104.575 E.00588
G1 X74.503 Y103.916 E.02167
G1 X74.503 Y76.083 E.8727
G1 X74.669 Y75.519 E.01844
G1 X74.882 Y75.193 E.01218
M204 P1000
G1 X75.187 Y75.404 F9000
M204 P800
G1 F1200
G1 X75.512 Y75.104 E.01387
G1 X75.607 Y75.043 E.00355
G1 X76.113 Y74.88 E.01667
G1 X103.909 Y74.884 E.87152
G1 X104.147 Y74.939 E.00767
G1 X104.468 Y75.091 E.01111
G1 X104.823 Y75.415 E.01508
G1 X104.979 Y75.657 E.00902
G1 X105.12 Y76.112 E.01494
G1 X105.11 Y81.495 E.16877
G1 X104.98 Y81.892 E.0131
G1 X104.826 Y82.131 E.00892
G1 X104.526 Y82.42 E.01306
G1 X104.151 Y82.609 E.01316
G1 X103.871 Y82.67 E.00898
G1 X82.85 Y82.67 E.65912
G1 X82.85 Y103.871 E.66475
G1 X82.807 Y104.098 E.00724
G1 X82.608 Y104.514 E.01448
G1 X82.316 Y104.822 E.01328
G1 X82.073 Y104.979 E.00908
G1 X81.618 Y105.12 E.01495
G1 X76.112 Y105.12 E.17261
G1 X75.657 Y104.979 E.01495
G1 X75.404 Y104.813 E.00948
G1 X75.104 Y104.488 E.01387
G1 X75.043 Y104.393 E.00355
G1 X74.88 Y103.887 E.01667
G1 X74.88 Y76.112 E.87084
G1 X75.021 Y75.657 E.01495
G1 X75.154 Y75.455 E.0076
M204 P1000
G1 X75.46 Y75.666 F9000
M204 P800
G1 F1200
G1 X75.783 Y75.376 E.01361
G1 X76.144 Y75.257 E.01193
G1 X103.887 Y75.261 E.86986
G1 X104.004 Y75.288 E.00377
G1 X104.278 Y75.418 E.0095
G1 X104.547 Y75.673 E.0116
G1 X104.63 Y75.8 E.00476
G1 X104.743 Y76.144 E.01136
G1 X104.743 Y81.406 E.16498
G1 X104.63 Y81.75 E.01136
G1 X104.545 Y81.879 E.00484
G1 X104.327 Y82.098 E.00967
G1 X104.004 Y82.261 E.01136
G1 X103.853 Y82.293 E.00484
G1 X82.473 Y82.293 E.67035
G1 X82.473 Y103.856 E.6761
G1 X82.453 Y103.967 E.00352
G1 X82.311 Y104.279 E.01077
G1 X82.057 Y104.547 E.01156
G1 X81.93 Y104.63 E.00476
G1 X81.586 Y104.743 E.01136
G1 X76.144 Y104.743 E.17062
G1 X75.801 Y104.63 E.01134
G1 X75.666 Y104.54 E.00506
G1 X75.376 Y104.217 E.01361
G1 X75.257 Y103.856 E.01193
G1 X75.257 Y76.144 E.86888
G1 X75.37 Y75.801 E.01134
G1 X75.426 Y75.716 E.00318
M204 P1000
G1 X75.732 Y75.928 F9000
M204 P800
G1 F1200
G1 X75.966 Y75.711 E.01002
G1 X76.179 Y75.634 E.00709
G1 X103.835 Y75.634 E.86713
G1 X104.085 Y75.744 E.00856
G1 X104.266 Y75.925 E.00802
G1 X104.366 Y76.179 E.00856
G1 X104.366 Y81.371 E.16278
G1 X104.266 Y81.625 E.00856
G1 X104.085 Y81.806 E.00802
G1 X103.835 Y81.916 E.00856
G1 X82.096 Y81.916 E.68162
G1 X82.089 Y103.867 E.68827
G1 X81.986 Y104.085 E.00757
G1 X81.805 Y104.266 E.00802
G1 X81.551 Y104.366 E.00856
G1 X76.179 Y104.366 E.16842
G1 X75.928 Y104.268 E.00845
G1 X75.711 Y104.034 E.01002
G1 X75.634 Y103.821 E.00709
G1 X75.634 Y76.179 E.86668
G1 X75.705 Y75.981 E.0066
M204 P1000
G1 X76.04 Y76.152 F9000
M204 P800
G1 F1200
G1 X76.152 Y76.04 E.00495
G1 X76.221 Y76.011 E.00235
G1 X103.779 Y76.011 E.86406
G1 X103.848 Y76.04 E.00235
G1 X103.96 Y76.152 E.00495
G1 X103.989 Y76.221 E.00235
G1 X103.989 Y81.329 E.16015
G1 X103.96 Y81.398 E.00235
G1 X103.848 Y81.51 E.00495
G1 X103.779 Y81.539 E.00235
G1 X81.719 Y81.539 E.69169
G1 X81.719 Y103.779 E.69733
G1 X81.69 Y103.848 E.00235
G1 X81.578 Y103.96 E.00495
G1 X81.509 Y103.989 E.00235
G1 X76.221 Y103.989 E.1658
G1 X76.152 Y103.96 E.00235
G1 X76.04 Y103.848 E.00495
G1 X76.011 Y103.779 E.00235
G1 X76.017 Y76.207 E.86449
M204 P1000
; printing object rotoforgeender3mount v2.stl id:0 copy 0
G1 X76.51 Y76.51 F9000
M204 P800
;TYPE:External perimeter
G1 F1200
G1 X103.49 Y76.51 E.84594
G1 X103.49 Y81.04 E.14204
G1 X81.22 Y81.04 E.69826
G1 X81.22 Y103.49 E.7039
G1 X76.51 Y103.49 E.14768
G1 X76.51 Y76.57 E.84406
M204 P1000
G1 X76.867 Y76.69 F9000
G1 X76.887 Y76.887
M204 P800
;TYPE:Perimeter
G1 F1200
G1 X103.113 Y76.887 E.82229
G1 X103.113 Y80.663 E.11839
G1 X80.843 Y80.663 E.69826
G1 X80.843 Y103.113 E.7039
G1 X76.887 Y103.113 E.12403
G1 X76.887 Y76.947 E.82041
M204 P1000
G1 E-2.24 F4200
;WIPE_START
G1 F7200
G1 X78.533 Y76.943 E-.912
;WIPE_END
G1 E-.048 F4200
G1 Z.4 F720
G1 X102.232 Y77 F9000
G1 Z.2 F720
G1 E3.2 F2400
M204 P800
;TYPE:Solid infill
;WIDTH:0.422531
G1 F1200
G1 X102.83 Y77.598 E.02669
G1 X102.83 Y78.135 E.01695
G1 X101.865 Y77.17 E.04308
G1 X101.328 Y77.17 E.01695
G1 X102.83 Y78.672 E.06705
G1 X102.83 Y79.209 E.01695
G1 X100.791 Y77.17 E.09101
G1 X100.254 Y77.17 E.01695
G1 X102.83 Y79.746 E.11498
G1 X102.83 Y80.282 E.01695
G1 X99.718 Y77.17 E.13894
G1 X99.181 Y77.17 E.01695
G1 X102.391 Y80.38 E.1433
G1 X101.854 Y80.38 E.01695
G1 X98.644 Y77.17 E.1433
G1 X98.107 Y77.17 E.01695
G1 X101.317 Y80.38 E.1433
G1 X100.78 Y80.38 E.01695
G1 X97.57 Y77.17 E.1433
G1 X97.033 Y77.17 E.01695
G1 X100.244 Y80.38 E.1433
G1 X99.707 Y80.38 E.01695
G1 X96.496 Y77.17 E.1433
G1 X95.96 Y77.17 E.01695
G1 X99.17 Y80.38 E.1433
G1 X98.633 Y80.38 E.01695
G1 X95.423 Y77.17 E.1433
G1 X94.886 Y77.17 E.01695
G1 X98.096 Y80.38 E.1433
G1 X97.559 Y80.38 E.01695
G1 X94.349 Y77.17 E.1433
G1 X93.812 Y77.17 E.01695
G1 X97.022 Y80.38 E.1433
G1 X96.486 Y80.38 E.01695
G1 X93.275 Y77.17 E.1433
G1 X92.739 Y77.17 E.01695
G1 X95.949 Y80.38 E.1433
G1 X95.412 Y80.38 E.01695
G1 X92.202 Y77.17 E.1433
G1 X91.665 Y77.17 E.01695
G1 X94.875 Y80.38 E.1433
G1 X94.338 Y80.38 E.01695
G1 X91.128 Y77.17 E.1433
G1 X90.591 Y77.17 E.01695
G1 X93.801 Y80.38 E.1433
G1 X93.265 Y80.38 E.01695
G1 X90.054 Y77.17 E.1433
G1 X89.517 Y77.17 E.01695
G1 X92.728 Y80.38 E.1433
G1 X92.191 Y80.38 E.01695
G1 X88.981 Y77.17 E.1433
G1 X88.444 Y77.17 E.01695
G1 X91.654 Y80.38 E.1433
G1 X91.117 Y80.38 E.01695
G1 X87.907 Y77.17 E.1433
G1 X87.37 Y77.17 E.01695
G1 X90.58 Y80.38 E.1433
G1 X90.043 Y80.38 E.01695
G1 X86.833 Y77.17 E.1433
G1 X86.296 Y77.17 E.01695
G1 X89.507 Y80.38 E.1433
G1 X88.97 Y80.38 E.01695
G1 X85.759 Y77.17 E.1433
G1 X85.223 Y77.17 E.01695
G1 X88.433 Y80.38 E.1433
G1 X87.896 Y80.38 E.01695
G1 X84.686 Y77.17 E.1433
G1 X84.149 Y77.17 E.01695
G1 X87.359 Y80.38 E.1433
