; generated by PrusaSlicer 2.4.2+win64 on 2023-01-31 at 19:17:17 UTC

; 

; external perimeters extrusion width = 0.45mm
; perimeters extrusion width = 0.45mm
; infill extrusion width = 0.45mm
; solid infill extrusion width = 0.45mm
; top infill extrusion width = 0.40mm
; first layer extrusion width = 0.42mm

M107
;TYPE:Custom
G90 ; use absolute coordinates
M83 ; extruder relative mode
M140 S60 ; set final bed temp
M104 S150 ; set temporary nozzle temp to prevent oozing during homing
G4 S10 ; allow partial nozzle warmup
G28 ; home all axis
G1 Z50 F240
G1 X2 Y10 F3000
M104 S215 ; set final nozzle temp
M190 S60 ; wait for bed temp to stabilize
M109 S215 ; wait for nozzle temp to stabilize
G1 Z0.28 F240
G92 E0
G1 Y140 E10 F1500 ; prime the nozzle
G1 X2.3 F5000
G92 E0
G1 Y10 E10 F1200 ; prime the nozzle
G92 E0
G21 ; set units to millimeters
G90 ; use absolute coordinates
M83 ; use relative distances for extrusion
; Filament gcode
M107
;LAYER_CHANGE
;Z:0.2
;HEIGHT:0.2
;BEFORE_LAYER_CHANGE
G92 E0
;0.2


G1 E-5 F3600
G1 Z.2 F9000
;AFTER_LAYER_CHANGE
;0.2
G1 X70.277 Y70.277
G1 E5 F2400
M204 S500
;TYPE:Skirt/Brim
;WIDTH:0.42
G1 F1200
G1 X71.741 Y68.812 E.06494
G1 X73.139 Y67.971 E.05115
G1 X74.129 Y67.823 E.03138
G1 X105.871 Y67.823 E.99525
G1 X107.454 Y68.217 E.05115
G1 X108.259 Y68.812 E.03138
G1 X111.188 Y71.741 E.12987
G1 X112.029 Y73.139 E.05115
G1 X112.177 Y74.129 E.03138
G1 X112.177 Y83.421 E.29135
G1 X111.783 Y85.004 E.05115
G1 X111.198 Y85.799 E.03096
G1 X85.989 Y111.188 E1.12179
G1 X84.591 Y112.029 E.05115
G1 X83.601 Y112.177 E.03138
G1 X74.129 Y112.177 E.29699
G1 X72.546 Y111.783 E.05115
G1 X71.741 Y111.188 E.03138
G1 X68.812 Y108.259 E.12987
G1 X67.971 Y106.861 E.05115
G1 X67.823 Y105.871 E.03138
G1 X67.823 Y74.129 E.99525
G1 X68.217 Y72.546 E.05115
G1 X68.812 Y71.741 E.03138
G1 X70.234 Y70.319 E.06306
G1 E-3.5 F3600
;WIPE_START
G1 F7200
G1 X71.741 Y68.812 E-1.01226
G1 X72.486 Y68.364 E-.41274
;WIPE_END
G1 E-.075 F3600
G1 X72.825 Y72.909 F9000
G1 E5 F2400
G1 F1200
G1 X73.149 Y72.585 E.01437
G1 X73.74 Y72.129 E.0234
G1 X75.654 Y71.486 E.06331
G1 X104.286 Y71.49 E.89776
G1 X105.235 Y71.674 E.03028
G1 X106.143 Y72.065 E.03101
G1 X107.36 Y73.087 E.04982
G1 X108.071 Y74.128 E.03952
G1 X108.467 Y75.359 E.04055
G1 X108.485 Y82.066 E.2103
G1 X108.13 Y83.298 E.04021
G1 X107.438 Y84.379 E.04023
G1 X106.638 Y85.147 E.03478
G1 X105.646 Y85.725 E.03601
G1 X104.256 Y86.063 E.04485
G1 X86.243 Y86.063 E.56476
G1 X86.243 Y104.256 E.57043
G1 X85.941 Y105.553 E.04175
G1 X85.31 Y106.661 E.03997
G1 X84.426 Y107.547 E.03924
G1 X83.401 Y108.163 E.03751
G1 X82.14 Y108.501 E.04093
G1 X75.691 Y108.514 E.20218
G1 X74.373 Y108.182 E.04261
G1 X73.189 Y107.455 E.04355
G1 X72.585 Y106.851 E.02678
G1 X72.129 Y106.26 E.0234
G1 X71.487 Y104.347 E.0633
G1 X71.487 Y75.69 E.89851
G1 X71.818 Y74.373 E.04257
G1 X72.545 Y73.189 E.04355
G1 X72.782 Y72.952 E.01053
G1 X73.049 Y73.219 F9000
G1 F1200
G1 X73.406 Y72.861 E.01586
G1 X73.944 Y72.448 E.02127
G1 X75.684 Y71.864 E.05755
G1 X104.268 Y71.867 E.89621
G1 X105.141 Y72.04 E.02791
G1 X105.966 Y72.399 E.02823
G1 X107.096 Y73.357 E.04642
G1 X107.743 Y74.315 E.03625
G1 X108.099 Y75.444 E.03711
G1 X108.107 Y82.04 E.2068
G1 X107.797 Y83.119 E.03523
G1 X107.161 Y84.123 E.03725
G1 X106.394 Y84.859 E.03333
G1 X105.481 Y85.384 E.03302
G1 X104.233 Y85.686 E.04025
G1 X85.866 Y85.686 E.57589
G1 X85.866 Y104.234 E.58155
G1 X85.581 Y105.439 E.03881
G1 X84.997 Y106.449 E.0366
G1 X84.178 Y107.262 E.03618
G1 X83.231 Y107.825 E.03455
G1 X82.115 Y108.124 E.03622
G1 X75.715 Y108.136 E.20066
G1 X74.495 Y107.824 E.03948
G1 X73.441 Y107.173 E.03885
G1 X72.861 Y106.594 E.02571
G1 X72.448 Y106.056 E.02127
G1 X71.864 Y104.316 E.05754
G1 X71.864 Y75.714 E.89679
G1 X72.176 Y74.495 E.03946
G1 X72.827 Y73.441 E.03885
G1 X73.006 Y73.261 E.00797
G1 X73.273 Y73.528 F9000
G1 F1200
G1 X73.664 Y73.137 E.01734
G1 X74.148 Y72.766 E.01912
G1 X75.715 Y72.241 E.0518
G1 X104.248 Y72.244 E.89466
G1 X105.046 Y72.405 E.0255
G1 X105.788 Y72.733 E.02545
G1 X106.83 Y73.625 E.04302
G1 X107.413 Y74.5 E.03297
G1 X107.73 Y75.527 E.03369
G1 X107.73 Y82.012 E.20332
G1 X107.443 Y82.987 E.03187
G1 X106.882 Y83.868 E.03275
G1 X106.185 Y84.544 E.03045
G1 X105.317 Y85.044 E.03142
G1 X104.211 Y85.309 E.03564
G1 X85.489 Y85.309 E.58702
G1 X85.489 Y104.211 E.59266
G1 X85.221 Y105.322 E.03583
G1 X84.685 Y106.236 E.03322
G1 X83.931 Y106.976 E.03313
G1 X83.062 Y107.487 E.0316
G1 X82.089 Y107.747 E.03156
G1 X75.738 Y107.759 E.19916
G1 X74.667 Y107.487 E.03463
G1 X73.691 Y106.891 E.03586
G1 X73.137 Y106.336 E.0246
G1 X72.766 Y105.852 E.01912
G1 X72.241 Y104.285 E.05179
G1 X72.241 Y75.738 E.8951
G1 X72.513 Y74.667 E.03463
G1 X73.109 Y73.691 E.03586
G1 X73.231 Y73.57 E.00538
G1 X73.497 Y73.837 F9000
G1 F1200
G1 X73.922 Y73.412 E.01881
G1 X74.352 Y73.085 E.01695
G1 X75.745 Y72.618 E.04608
G1 X104.229 Y72.621 E.89308
G1 X104.948 Y72.77 E.02304
G1 X105.608 Y73.065 E.02266
G1 X106.562 Y73.892 E.0396
G1 X107.083 Y74.684 E.02969
G1 X107.361 Y75.609 E.03028
G1 X107.353 Y81.983 E.19986
G1 X107.09 Y82.852 E.02846
G1 X106.604 Y83.612 E.0283
G1 X105.94 Y84.256 E.029
G1 X105.154 Y84.703 E.02834
G1 X104.19 Y84.932 E.03109
G1 X85.112 Y84.932 E.59816
G1 X85.112 Y104.19 E.6038
G1 X84.881 Y105.158 E.03121
G1 X84.401 Y105.987 E.03003
G1 X83.717 Y106.665 E.03021
G1 X82.939 Y107.13 E.02841
G1 X82.016 Y107.376 E.02995
G1 X75.762 Y107.382 E.19609
G1 X74.79 Y107.129 E.03149
G1 X73.942 Y106.608 E.03119
G1 X73.412 Y106.078 E.0235
G1 X73.085 Y105.648 E.01695
G1 X72.618 Y104.255 E.04607
G1 X72.618 Y75.762 E.89337
G1 X72.871 Y74.79 E.03149
G1 X73.392 Y73.942 E.03119
G1 X73.455 Y73.879 E.00281
G1 X73.721 Y74.146 F9000
G1 F1200
G1 X74.179 Y73.688 E.02028
G1 X74.555 Y73.404 E.01477
G1 X75.776 Y72.995 E.04039
G1 X104.21 Y72.998 E.89152
G1 X104.813 Y73.123 E.01932
G1 X105.428 Y73.397 E.0211
G1 X106.293 Y74.158 E.03612
G1 X106.75 Y74.864 E.02639
G1 X106.991 Y75.688 E.02689
G1 X106.976 Y81.953 E.19644
G1 X106.738 Y82.714 E.02502
G1 X106.324 Y83.358 E.02401
G1 X105.732 Y83.941 E.02606
G1 X104.992 Y84.362 E.02669
G1 X104.168 Y84.555 E.02653
G1 X84.735 Y84.555 E.6093
G1 X84.735 Y104.168 E.61495
G1 X84.541 Y104.993 E.02658
G1 X84.088 Y105.775 E.02833
G1 X83.469 Y106.38 E.02713
G1 X82.816 Y106.772 E.0239
G1 X81.943 Y107.005 E.02833
G1 X75.787 Y107.005 E.193
G1 X74.915 Y106.773 E.02831
G1 X74.194 Y106.327 E.02658
G1 X73.688 Y105.821 E.02241
G1 X73.404 Y105.445 E.01477
G1 X72.995 Y104.224 E.04038
G1 X72.995 Y75.787 E.89163
G1 X73.227 Y74.915 E.02831
G1 X73.679 Y74.188 E.02682
G1 X73.955 Y74.445 F9000
G1 F1200
G1 X74.436 Y73.965 E.02132
G1 X74.756 Y73.724 E.01257
G1 X75.806 Y73.372 E.03473
G1 X104.189 Y73.376 E.88993
G1 X104.714 Y73.487 E.01681
G1 X105.245 Y73.728 E.01829
G1 X106.022 Y74.421 E.03263
G1 X106.417 Y75.042 E.02309
G1 X106.621 Y75.764 E.02352
G1 X106.599 Y81.921 E.19305
G1 X106.388 Y82.573 E.02151
G1 X106.045 Y83.104 E.0198
G1 X105.486 Y83.654 E.0246
G1 X104.832 Y84.019 E.02349
G1 X104.147 Y84.178 E.02205
G1 X84.358 Y84.178 E.62046
G1 X84.358 Y104.147 E.62611
G1 X84.199 Y104.831 E.02203
G1 X83.804 Y105.526 E.02507
G1 X83.252 Y106.071 E.0243
G1 X82.689 Y106.416 E.02073
G1 X81.917 Y106.628 E.0251
G1 X75.813 Y106.628 E.19138
G1 X75.042 Y106.417 E.02508
G1 X74.445 Y106.045 E.02203
G1 X73.965 Y105.564 E.02132
G1 X73.724 Y105.244 E.01257
G1 X73.372 Y104.194 E.03472
G1 X73.372 Y75.813 E.88985
G1 X73.583 Y75.042 E.02508
G1 X73.923 Y74.496 E.02014
G1 X74.236 Y74.697 F9000
G1 F1200
G1 X74.692 Y74.241 E.02022
G1 X74.957 Y74.045 E.01034
G1 X75.837 Y73.749 E.02911
G1 X104.168 Y73.753 E.8883
G1 X104.611 Y73.85 E.01423
G1 X105.059 Y74.058 E.01548
G1 X105.75 Y74.683 E.0292
G1 X106.062 Y75.171 E.01818
G1 X106.251 Y75.841 E.02182
G1 X106.223 Y81.887 E.18958
G1 X106.039 Y82.429 E.01793
G1 X105.765 Y82.852 E.01581
G1 X105.279 Y83.338 E.02155
G1 X104.672 Y83.677 E.02179
G1 X104.126 Y83.801 E.01755
G1 X83.981 Y83.801 E.63163
G1 X83.981 Y104.126 E.63728
G1 X83.857 Y104.672 E.01755
G1 X83.518 Y105.279 E.02179
G1 X83.033 Y105.764 E.02151
G1 X82.559 Y106.062 E.01755
G1 X81.89 Y106.251 E.02179
G1 X75.84 Y106.251 E.18969
G1 X75.171 Y106.062 E.02179
G1 X74.697 Y105.764 E.01755
G1 X74.241 Y105.308 E.02022
G1 X74.045 Y105.043 E.01034
G1 X73.749 Y104.163 E.02911
G1 X73.749 Y75.84 E.88805
G1 X73.938 Y75.171 E.02179
G1 X74.204 Y74.748 E.01567
G1 X74.517 Y74.95 F9000
G1 F1200
G1 X74.948 Y74.519 E.01911
G1 X75.156 Y74.366 E.00808
G1 X75.868 Y74.126 E.02355
G1 X104.146 Y74.13 E.88663
G1 X104.505 Y74.213 E.01157
G1 X104.871 Y74.385 E.01268
G1 X105.476 Y74.943 E.0258
G1 X105.708 Y75.305 E.01347
G1 X105.874 Y75.868 E.01842
G1 X105.855 Y81.799 E.18595
G1 X105.708 Y82.248 E.01481
G1 X105.483 Y82.6 E.01311
G1 X105.032 Y83.051 E.02
G1 X104.516 Y83.332 E.01842
G1 X104.106 Y83.424 E.01318
G1 X83.604 Y83.424 E.64282
G1 X83.604 Y104.106 E.64846
G1 X83.512 Y104.516 E.01318
G1 X83.231 Y105.032 E.01842
G1 X82.78 Y105.483 E.01999
G1 X82.426 Y105.708 E.01318
G1 X81.862 Y105.874 E.01842
G1 X75.868 Y105.874 E.18793
G1 X75.304 Y105.708 E.01842
G1 X74.95 Y105.483 E.01318
G1 X74.519 Y105.052 E.01911
G1 X74.366 Y104.844 E.00808
G1 X74.126 Y104.132 E.02354
G1 X74.126 Y75.868 E.8862
G1 X74.292 Y75.304 E.01842
G1 X74.485 Y75 E.0113
G1 X74.798 Y75.202 F9000
G1 F1200
G1 X75.204 Y74.796 E.018
G1 X75.354 Y74.688 E.00579
G1 X75.899 Y74.503 E.01806
G1 X104.124 Y74.507 E.88498
G1 X104.362 Y74.562 E.00767
G1 X104.682 Y74.713 E.01109
G1 X105.201 Y75.201 E.02233
G1 X105.356 Y75.442 E.00898
G1 X105.497 Y75.897 E.01495
G1 X105.487 Y81.71 E.18224
G1 X105.357 Y82.107 E.0131
G1 X105.202 Y82.348 E.00898
G1 X104.786 Y82.764 E.01845
G1 X104.364 Y82.986 E.01496
G1 X104.086 Y83.047 E.00892
G1 X83.227 Y83.047 E.65403
G1 X83.227 Y104.086 E.65967
G1 X83.166 Y104.364 E.00892
G1 X82.944 Y104.786 E.01496
G1 X82.528 Y105.202 E.01845
G1 X82.288 Y105.356 E.00892
G1 X81.832 Y105.497 E.01496
G1 X75.898 Y105.497 E.18608
G1 X75.442 Y105.356 E.01496
G1 X75.202 Y105.202 E.00892
G1 X74.796 Y104.796 E.018
G1 X74.688 Y104.646 E.00579
G1 X74.503 Y104.101 E.01806
G1 X74.503 Y75.898 E.8843
G1 X74.644 Y75.442 E.01496
G1 X74.765 Y75.253 E.00704
G1 X75.077 Y75.457 F9000
G1 F1200
G1 X75.458 Y75.075 E.0169
G1 X75.548 Y75.012 E.00345
G1 X75.931 Y74.88 E.01269
G1 X104.102 Y74.884 E.88328
G1 X104.219 Y74.911 E.00377
G1 X104.492 Y75.04 E.00947
G1 X104.923 Y75.457 E.0188
G1 X105.007 Y75.585 E.00479
G1 X105.12 Y75.929 E.01136
G1 X105.12 Y81.621 E.17845
G1 X105.007 Y81.965 E.01136
G1 X104.922 Y82.094 E.00484
G1 X104.542 Y82.475 E.01687
G1 X104.218 Y82.638 E.01136
G1 X104.067 Y82.67 E.00484
G1 X82.85 Y82.67 E.66526
G1 X82.85 Y104.067 E.6709
G1 X82.818 Y104.218 E.00484
G1 X82.655 Y104.542 E.01136
G1 X82.274 Y104.922 E.01687
G1 X82.145 Y105.007 E.00484
G1 X81.801 Y105.12 E.01136
G1 X75.929 Y105.12 E.18409
G1 X75.585 Y105.007 E.01136
G1 X75.456 Y104.922 E.00484
G1 X75.075 Y104.542 E.01686
G1 X75.012 Y104.452 E.00345
G1 X74.88 Y104.069 E.0127
G1 X74.88 Y75.929 E.88231
G1 X74.993 Y75.585 E.01136
G1 X75.044 Y75.507 E.00293
G1 X75.354 Y75.714 F9000
G1 F1200
G1 X75.71 Y75.357 E.01581
G1 X75.964 Y75.257 E.00856
G1 X104.082 Y75.264 E.8816
G1 X104.3 Y75.367 E.00757
G1 X104.643 Y75.71 E.01522
G1 X104.743 Y75.964 E.00856
G1 X104.743 Y81.586 E.17625
G1 X104.643 Y81.84 E.00856
G1 X104.3 Y82.183 E.01522
G1 X104.05 Y82.293 E.00856
G1 X82.473 Y82.293 E.67653
G1 X82.466 Y104.082 E.68318
G1 X82.363 Y104.3 E.00757
G1 X82.02 Y104.643 E.01522
G1 X81.766 Y104.743 E.00856
G1 X75.964 Y104.743 E.18189
G1 X75.71 Y104.643 E.00856
G1 X75.357 Y104.29 E.01566
G1 X75.257 Y104.036 E.00856
G1 X75.257 Y75.964 E.88015
G1 X75.328 Y75.767 E.00656
G1 X75.663 Y75.937 F9000
G1 F1200
G1 X75.937 Y75.663 E.01215
G1 X76.006 Y75.634 E.00235
G1 X103.994 Y75.634 E.87752
G1 X104.063 Y75.663 E.00235
G1 X104.337 Y75.937 E.01215
G1 X104.366 Y76.006 E.00235
G1 X104.366 Y81.544 E.17362
G1 X104.337 Y81.613 E.00235
G1 X104.063 Y81.887 E.01215
G1 X103.994 Y81.916 E.00235
G1 X82.096 Y81.916 E.6866
G1 X82.096 Y103.994 E.69224
G1 X82.067 Y104.063 E.00235
G1 X81.793 Y104.337 E.01215
G1 X81.724 Y104.366 E.00235
G1 X76.006 Y104.366 E.17926
G1 X75.937 Y104.337 E.00235
G1 X75.663 Y104.063 E.01215
G1 X75.634 Y103.994 E.00235
G1 X75.64 Y75.992 E.87796
G1 X76.011 Y76.122 F9000
G1 F1200
G1 X76.122 Y76.011 E.0049
G1 X103.878 Y76.011 E.87028
G1 X103.989 Y76.122 E.0049
G1 X103.989 Y81.428 E.16637
G1 X103.878 Y81.539 E.0049
G1 X81.719 Y81.539 E.6948
G1 X81.719 Y103.878 E.70044
G1 X81.608 Y103.989 E.0049
G1 X76.122 Y103.989 E.17202
G1 X76.011 Y103.878 E.0049
G1 X76.011 Y76.182 E.86839
G1 X76.41 Y76.41 F9000
;TYPE:External perimeter
G1 F1200
G1 X103.59 Y76.41 E.85221
G1 X103.59 Y81.14 E.14831
G1 X81.32 Y81.14 E.69826
G1 X81.32 Y103.59 E.7039
G1 X76.41 Y103.59 E.15395
G1 X76.41 Y76.47 E.85033
G1 X76.768 Y76.589 F9000
G1 X76.787 Y76.787
;TYPE:Perimeter
G1 F1200
G1 X103.213 Y76.787 E.82856
G1 X103.213 Y80.763 E.12466
G1 X80.943 Y80.763 E.69826
G1 X80.943 Y103.213 E.7039
G1 X76.787 Y103.213 E.1303
G1 X76.787 Y76.847 E.82668
G1 E-3.5 F3600
;WIPE_START
G1 F7200
G1 X79.787 Y76.84 E-1.425
;WIPE_END
G1 E-.075 F3600
G1 X102.334 Y76.9 F9000
G1 E5 F2400
;TYPE:Solid infill
;WIDTH:0.421544
G1 F1200
G1 X102.93 Y77.496 E.02653
G1 X102.93 Y78.032 E.01686
G1 X101.968 Y77.07 E.04281
G1 X101.433 Y77.07 E.01686
G1 X102.93 Y78.567 E.06666
G1 X102.93 Y79.102 E.01686
G1 X100.898 Y77.07 E.0905
G1 X100.362 Y77.07 E.01686
G1 X102.93 Y79.638 E.11434
G1 X102.93 Y80.173 E.01686
G1 X99.827 Y77.07 E.13818
G1 X99.291 Y77.07 E.01686
G1 X102.701 Y80.48 E.15184
G1 X102.166 Y80.48 E.01686
G1 X98.756 Y77.07 E.15184
G1 X98.22 Y77.07 E.01686
G1 X101.631 Y80.48 E.15184
G1 X101.095 Y80.48 E.01686
G1 X97.685 Y77.07 E.15184
G1 X97.149 Y77.07 E.01686
G1 X100.56 Y80.48 E.15184
G1 X100.024 Y80.48 E.01686
G1 X96.614 Y77.07 E.15184
G1 X96.078 Y77.07 E.01686
G1 X99.489 Y80.48 E.15184
G1 X98.953 Y80.48 E.01686
G1 X95.543 Y77.07 E.15184
G1 X95.008 Y77.07 E.01686
G1 X98.418 Y80.48 E.15184
G1 X97.882 Y80.48 E.01686
G1 X94.472 Y77.07 E.15184
G1 X93.937 Y77.07 E.01686
G1 X97.347 Y80.48 E.15184
G1 X96.811 Y80.48 E.01686
G1 X93.401 Y77.07 E.15184
G1 X92.866 Y77.07 E.01686
G1 X96.276 Y80.48 E.15184
G1 X95.741 Y80.48 E.01686
G1 X92.33 Y77.07 E.15184
G1 X91.795 Y77.07 E.01686
G1 X95.205 Y80.48 E.15184
G1 X94.67 Y80.48 E.01686
G1 X91.259 Y77.07 E.15184
G1 X90.724 Y77.07 E.01686
G1 X94.134 Y80.48 E.15184
G1 X93.599 Y80.48 E.01686
G1 X90.188 Y77.07 E.15184
G1 X89.653 Y77.07 E.01686
G1 X93.063 Y80.48 E.15184
G1 X92.528 Y80.48 E.01686
G1 X89.118 Y77.07 E.15184
G1 X88.582 Y77.07 E.01686
G1 X91.992 Y80.48 E.15184
G1 X91.457 Y80.48 E.01686
G1 X88.047 Y77.07 E.15184
G1 X87.511 Y77.07 E.01686
G1 X90.921 Y80.48 E.15184
G1 X90.386 Y80.48 E.01686
G1 X86.976 Y77.07 E.15184
G1 X86.44 Y77.07 E.01686
G1 X89.851 Y80.48 E.15184
G1 X89.315 Y80.48 E.01686
G1 X85.905 Y77.07 E.15184
G1 X85.369 Y77.07 E.01686
G1 X88.78 Y80.48 E.15184
G1 X88.244 Y80.48 E.01686
G1 X84.834 Y77.07 E.15184
G1 X84.298 Y77.07 E.01686
G1 X87.709 Y80.48 E.15184
G1 X87.173 Y80.48 E.01686
G1 X83.763 Y77.07 E.15184
G1 X83.228 Y77.07 E.01686
G1 X86.638 Y80.48 E.15184
G1 X86.102 Y80.48 E.01686
G1 X82.692 Y77.07 E.15184
G1 X82.157 Y77.07 E.01686
G1 X85.567 Y80.48 E.15184
G1 X85.031 Y80.48 E.01686
G1 X81.621 Y77.07 E.15184
G1 X81.086 Y77.07 E.01686
G1 X84.496 Y80.48 E.15184
G1 X83.961 Y80.48 E.01686
G1 X80.55 Y77.07 E.15184
G1 X80.015 Y77.07 E.01686
G1 X83.425 Y80.48 E.15184
G1 X82.89 Y80.48 E.01686
G1 X79.479 Y77.07 E.15184
G1 X78.944 Y77.07 E.01686
G1 X82.354 Y80.48 E.15184
G1 X81.819 Y80.48 E.01686
G1 X78.408 Y77.07 E.15184
G1 X77.873 Y77.07 E.01686
G1 X81.283 Y80.48 E.15184
G1 X80.748 Y80.48 E.01686
G1 X77.338 Y77.07 E.15184
G1 X77.07 Y77.07 E.00843
G1 X77.07 Y77.338 E.00843
G1 X80.66 Y80.928 E.15985
G1 X80.66 Y81.463 E.01686
G1 X77.07 Y77.873 E.15985
G1 X77.07 Y78.409 E.01686
G1 X80.66 Y81.999 E.15985
G1 X80.66 Y82.534 E.01686
G1 X77.07 Y78.944 E.15985
G1 X77.07 Y79.479 E.01686
G1 X80.66 Y83.07 E.15985
G1 X80.66 Y83.605 E.01686
G1 X77.07 Y80.015 E.15985
G1 X77.07 Y80.55 E.01686
G1 X80.66 Y84.141 E.15985
G1 X80.66 Y84.676 E.01686
G1 X77.07 Y81.086 E.15985
